Camo Studio.app/Contents/Resources/CamoContent_CamoContent.bundle/Contents/Resources/2_STRIP.cube
TITLE "Generated by Resolve"
LUT_3D_SIZE 33
0 0 0
0.058854 0 0
0.0991684 0.00120546 0
0.13698 0.00462348 0
0.173571 0.00827039 0
0.209415 0.0120851 0
0.244739 0.0159915 0
0.279652 0.0199893 0
0.31426 0.024033 0
0.348623 0.0281376 0
0.382788 0.0322728 0
0.416785 0.0364538 0
0.450629 0.04065 0
0.484337 0.0448768 0
0.517937 0.049134 0
0.551431 0.0534066 0
0.584848 0.0576944 0
0.618173 0.0619974 0
0.651423 0.0663157 0
0.684611 0.0706493 0
0.717739 0.0749981 0
0.750805 0.0793622 0
0.783825 0.0837262 0
0.8168 0.0880903 0
0.849729 0.0924849 0
0.882612 0.0968795 0
0.91545 0.101289 0
0.948241 0.105684 0
0.981018 0.110109 0
1 0.114519 0
1 0.118929 0
1 0.123354 0
1 0.127779 0
0 0.038468 0.0242924
0.0488289 0.0207065 0.0406806
0.0947738 0.0246433 0
0.133944 0.0280156 0
0.171283 0.0316167 0
0.207584 0.0353857 0
0.243229 0.0392615 0
0.278401 0.0432441 0
0.313207 0.0472725 0
0.347738 0.0513466 0
0.38204 0.0554818 0
0.416129 0.0596475 0
0.450065 0.0638437 0
0.483864 0.0680552 0
0.517555 0.0722972 0
0.55111 0.0765698 0
0.584588 0.0808576 0
0.617975 0.0851453 0
0.65127 0.0894636 0
0.684504 0.0937972 0
0.717678 0.0981308 0
0.750774 0.102495 0
0.783841 0.106844 0
0.816831 0.111223 0
0.84979 0.115618 0
0.882704 0.119997 0
0.915572 0.124392 0
0.948394 0.128817 0
0.981186 0.133211 0
1 0.137621 0
1 0.142031 0
1 0.146456 0
1 0.150881 0
0 0.0699626 0.0472114
0 0.0674449 0.0530709
0.0868544 0.0463722 0.0751507
0.130419 0.0511025 0.0272679
0.168643 0.0548562 0.00419623
0.205524 0.0586404 0
0.241566 0.0625162 0
0.277028 0.0664836 0
0.312062 0.0704967 0
0.346777 0.0745708 0
0.381216 0.0786755 0
0.415442 0.0828412 0
0.449485 0.0870222 0
0.483375 0.0912337 0
0.517128 0.0954757 0
0.550774 0.099733 0
0.584298 0.104005 0
0.617746 0.108309 0
0.651102 0.112612 0
0.684382 0.116945 0
0.717586 0.121279 0
0.750744 0.125628 0
0.783825 0.129992 0
0.816861 0.134356 0
0.849836 0.138735 0
0.882795 0.14313 0
0.915679 0.147524 0
0.948531 0.151919 0
0.981353 0.156329 0
1 0.160739 0
1 0.165148 0
1 0.169574 0
1 0.173999 0
0 0.100298 0.0696727
0 0.098909 0.075639
0.00958267 0.0961776 0.0842298
0.1234 0.0725872 0.108705
0.165759 0.0776379 0.0610666
0.20325 0.0817273 0.0370031
0.239734 0.0856794 0.0171054
0.275517 0.089662 0
0.310811 0.0936751 0
0.345708 0.0977493 0
0.380316 0.101869 0
0.414679 0.10602 0
0.448844 0.110185 0
0.482841 0.114397 0
0.51667 0.118624 0
0.550393 0.122896 0
0.583993 0.127169 0
0.617502 0.131456 0
0.650904 0.13576 0
0.68423 0.140078 0
0.717479 0.144411 0
0.750683 0.14876 0
0.783795 0.153109 0
0.816876 0.157488 0
0.849882 0.161868 0
0.882872 0.166247 0
0.915785 0.170642 0
0.948669 0.175036 0
0.981491 0.179446 0
1 0.183856 0
1 0.188266 0
1 0.192676 0
1 0.197101 0
0 0.129885 0.0917678
0 0.129168 0.0980087
0 0.127871 0.104784
0.0390478 0.124483 0.118074
0.159228 0.0990616 0.141817
0.200855 0.10428 0.0947738
0.237781 0.108614 0.06981
0.273899 0.112718 0.0494698
0.309453 0.116793 0.0310521
0.344564 0.120897 0.0137179
0.379355 0.125017 0
0.413855 0.129168 0
0.448127 0.133349 0
0.482231 0.13756 0
0.516167 0.141787 0
0.54995 0.146044 0
0.583642 0.150301 0
0.617212 0.154589 0
0.650675 0.158892 0
0.684062 0.16321 0
0.717357 0.167544 0
0.750591 0.171893 0
0.783764 0.176242 0
0.816861 0.180606 0
0.849928 0.18497 0
0.882918 0.189364 0
0.915862 0.193759 0
0.948775 0.198154 0
0.981643 0.202548 0
1 0.206958 0
1 0.211368 0
1 0.215778 0
1 0.220203 0
0 0.158877 0.113451
0 0.158663 0.119997
0 0.158099 0.126726
0.0173648 0.156741 0.134997
0.0693065 0.152316 0.154192
0.194583 0.125689 0.174655
0.235721 0.130983 0.128374
0.272206 0.135546 0.102602
0.308019 0.139788 0.0818341
0.343359 0.143954 0.0631571
0.378317 0.148104 0.0456397
0.412985 0.152285 0.0288853
0.447395 0.156481 0.0126497
0.48159 0.160678 0
0.515618 0.16492 0
0.549493 0.169177 0
0.583246 0.173434 0
0.616861 0.177722 0
0.650401 0.182025 0
0.683848 0.186343 0
0.717205 0.190677 0
0.750484 0.19501 0
0.783703 0.199359 0
0.816831 0.203723 0
0.849928 0.208103 0
0.882963 0.212482 0
0.915953 0.216861 0
0.948882 0.221256 0
0.981781 0.225666 0
1 0.230076 0
1 0.23447 0
1 0.23888 0
1 0.243305 0
0 0.187304 0.134737
0 0.187518 0.141573
0 0.187488 0.148486
0 0.187015 0.155947
0.0462806 0.185458 0.166247
0.100496 0.17966 0.191836
0.229603 0.152422 0.207263
0.270604 0.157595 0.162448
0.306508 0.162463 0.135363
0.342061 0.166827 0.114183
0.377203 0.171084 0.0952468
0.412024 0.175296 0.0775616
0.446555 0.179522 0.0606699
0.480888 0.183749 0.0443275
0.515007 0.187991 0.0284123
0.548974 0.192248 0.0128176
0.582803 0.196521 0
0.616495 0.200809 0
0.65008 0.205112 0
0.683574 0.20943 0
0.716991 0.213764 0
0.750301 0.218097 0
0.783566 0.222446 0
0.816754 0.22681 0
0.849882 0.231174 0
0.882963 0.235554 0
0.915984 0.239948 0
0.948943 0.244343 0
0.981872 0.248737 0
1 0.253132 0
1 0.257557 0
1 0.261967 0
1 0.266377 0
0 0.215183 0.155581
0 0.215793 0.162707
0 0.216251 0.169909
0 0.216388 0.177356
0.028336 0.21593 0.185916
0.0754559 0.214023 0.198642
0.133013 0.206485 0.231098
0.264408 0.179263 0.23978
0.305089 0.184451 0.195819
0.340764 0.189441 0.168124
0.376089 0.193912 0.146548
0.411048 0.198245 0.127367
0.445731 0.202518 0.109499
0.480156 0.20679 0.0924697
0.514397 0.211048 0.0760357
0.548455 0.21532 0.0600443
0.582361 0.219608 0.0443732
0.616129 0.223896 0.0289921
0.64979 0.228214 0.0138247
0.683345 0.232532 0
0.716793 0.236851 0
0.750164 0.241199 0
0.783459 0.245548 0
0.816678 0.249912 0
0.849851 0.254292 0
0.882963 0.258671 0
0.916014 0.26305 0
0.949004 0.267445 0
0.981964 0.271839 0
1 0.276249 0
1 0.280644 0
1 0.285069 0
1 0.289479 0
0 0.242512 0.175982
0 0.243503 0.183398
0 0.244388 0.19089
0 0.24506 0.19855
0.0118105 0.245335 0.206622
0.0572061 0.244785 0.216464
0.104906 0.24242 0.23209
0.167575 0.232517 0.272175
0.299046 0.206165 0.272175
0.339467 0.211337 0.229053
0.374929 0.216449 0.200855
0.410056 0.221012 0.178927
0.444862 0.225422 0.159487
0.479408 0.229755 0.141451
0.513741 0.234058 0.1243
0.54789 0.238361 0.107759
0.581888 0.242664 0.0916762
0.615732 0.246967 0.0759594
0.649454 0.251286 0.0605173
0.68307 0.255619 0.0452888
0.716579 0.259953 0.0302586
0.749996 0.264286 0.0153964
0.783337 0.268635 0.000671397
0.816602 0.272999 0
0.84979 0.277378 0
0.882948 0.281758 0
0.91603 0.286137 0
0.94905 0.290532 0
0.982025 0.294942 0
1 0.299336 0
1 0.303746 0
1 0.308156 0
1 0.312566 0
0 0.269322 0.195926
0 0.270665 0.203632
0 0.271946 0.211429
0 0.273091 0.219333
0 0.273945 0.227481
0.0406348 0.27425 0.236484
0.0861677 0.273579 0.247715
0.134676 0.270604 0.266468
0.204868 0.257603 0.31458
0.333516 0.233112 0.304463
0.373724 0.23827 0.262165
0.409033 0.243473 0.233555
0.443976 0.248127 0.211292
0.478645 0.252598 0.191623
0.513085 0.256992 0.173404
0.547311 0.261341 0.156115
0.581384 0.265675 0.139483
0.615305 0.269993 0.123323
0.649088 0.274327 0.10753
0.682765 0.27866 0.0920272
0.716335 0.283009 0.0767681
0.749813 0.287358 0.0616922
0.783185 0.291722 0.0467842
0.81651 0.296086 0.0320439
0.849744 0.30045 0.0174105
0.882918 0.304829 0.00289921
0.91603 0.309224 0
0.949096 0.313619 0
0.982101 0.318013 0
1 0.322423 0
1 0.326833 0
1 0.331243 0
1 0.335653 0
0 0.295644 0.215427
0 0.297307 0.223407
0 0.298955 0.231479
0 0.300511 0.239673
0 0.301869 0.248035
0.0246738 0.302876 0.256764
0.0694896 0.303166 0.266728
0.115312 0.302266 0.279637
0.164797 0.298604 0.301625
0.245212 0.281727 0.357275
0.36788 0.260121 0.336706
0.407904 0.265248 0.295186
0.443046 0.270527 0.266224
0.477867 0.275257 0.243641
0.512398 0.279789 0.223743
0.546715 0.28423 0.205371
0.58088 0.288624 0.187961
0.614862 0.292988 0.171221
0.648722 0.297337 0.154986
0.682445 0.301701 0.139116
0.716075 0.30605 0.123552
0.749599 0.310414 0.108248
0.783047 0.314778 0.0931411
0.816388 0.319142 0.0781872
0.849683 0.323522 0.0634165
0.882887 0.327901 0.0487526
0.91603 0.332296 0.0342107
0.949142 0.33669 0.0197757
0.982177 0.3411 0.00541695
1 0.345495 0
1 0.349905 0
1 0.354314 0
1 0.35874 0
0 0.321477 0.234516
0 0.323415 0.24271
0 0.325399 0.251072
0 0.327352 0.259541
0 0.329183 0.268162
0.00900282 0.330739 0.277012
0.0534981 0.331792 0.286564
0.0984207 0.332067 0.297459
0.144579 0.330861 0.31223
0.195285 0.326421 0.337423
0.288197 0.305196 0.398901
0.402136 0.28716 0.368872
0.441993 0.292256 0.328084
0.477455 0.297383 0.299886
0.511711 0.302403 0.27599
0.54612 0.306996 0.255863
0.580346 0.311482 0.237324
0.61442 0.315908 0.219791
0.648341 0.320302 0.20296
0.682124 0.324697 0.186633
0.715816 0.329061 0.170718
0.749386 0.33344 0.155093
0.782864 0.337819 0.139727
0.816266 0.342199 0.124575
0.849592 0.346578 0.109606
0.882841 0.350958 0.094789
0.91603 0.355367 0.0801099
0.949157 0.359762 0.0655375
0.982208 0.364172 0.0510567
1 0.368566 0.0366979
1 0.372976 0.022385
1 0.377386 0.00817884
1 0.381811 0
0 0.346899 0.253208
0 0.349065 0.261601
0 0.351339 0.270207
0 0.353628 0.278935
0 0.355886 0.287831
0 0.357931 0.29691
0.0377203 0.35964 0.306294
0.0823529 0.360754 0.316625
0.127413 0.360906 0.328679
0.174029 0.359319 0.345418
0.226139 0.35404 0.373709
0.332586 0.328481 0.438224
0.436286 0.314214 0.400977
0.47602 0.31928 0.360891
0.511315 0.324468 0.332494
0.545495 0.329549 0.308309
0.579812 0.334188 0.287984
0.613947 0.33872 0.269291
0.647929 0.343191 0.251621
0.681773 0.347616 0.234684
0.715511 0.352026 0.218296
0.749142 0.35642 0.202289
0.782681 0.360815 0.186633
0.816114 0.365209 0.171206
0.84947 0.369604 0.156008
0.882765 0.373999 0.141009
0.915999 0.378393 0.126162
0.949157 0.382803 0.111452
0.982254 0.387213 0.096849
1 0.391623 0.0823529
1 0.396033 0.0679484
1 0.400458 0.0536355
1 0.404868 0.0393988
0 0.371893 0.271519
0 0.374258 0.280079
0 0.376791 0.288884
0 0.379385 0.297871
0 0.38201 0.307042
0 0.384527 0.316381
0.0220035 0.386786 0.325917
0.0665446 0.388586 0.336065
0.111269 0.3897 0.347082
0.156573 0.389685 0.360403
0.203662 0.387671 0.379171
0.257496 0.381445 0.410666
0.376822 0.352087 0.474815
0.470375 0.341314 0.433036
0.509987 0.346349 0.393622
0.545159 0.351583 0.365057
0.579263 0.35671 0.340627
0.613474 0.36141 0.320104
0.647532 0.365972 0.301244
0.681437 0.370474 0.283467
0.715221 0.374929 0.266438
0.748898 0.37937 0.249958
0.782483 0.383795 0.23389
0.815961 0.388205 0.218173
0.849378 0.392615 0.202701
0.882704 0.397024 0.187472
0.915953 0.401434 0.172427
0.949157 0.405844 0.157549
0.982284 0.410254 0.142794
1 0.414664 0.128161
1 0.419089 0.113649
1 0.423499 0.0992294
1 0.427924 0.0848859
0 0.396567 0.289555
0 0.399069 0.298222
0 0.401785 0.307179
0 0.404669 0.316381
0 0.407599 0.325795
0 0.410513 0.335363
0.0061799 0.413245 0.345144
0.0507057 0.415686 0.3552
0.0954147 0.417578 0.366033
0.140276 0.418647 0.377935
0.185809 0.418402 0.392584
0.233494 0.4159 0.413413
0.28954 0.40856 0.448432
0.419898 0.376287 0.509041
0.504402 0.368444 0.46508
0.543893 0.373449 0.426276
0.578958 0.378729 0.397604
0.612985 0.383902 0.37293
0.647135 0.388632 0.352224
0.681102 0.39324 0.333211
0.714931 0.397772 0.315312
0.748653 0.402258 0.298192
0.782284 0.406714 0.281621
0.815808 0.411154 0.265507
0.849256 0.415595 0.249714
0.882612 0.42002 0.234195
0.915923 0.424445 0.218936
0.949142 0.428855 0.203845
0.9823 0.43328 0.188922
1 0.437705 0.174136
1 0.44213 0.159503
1 0.446555 0.144945
1 0.450965 0.130495
0 0.420981 0.307347
0 0.423545 0.316045
0 0.426398 0.325109
0 0.429465 0.334462
0 0.432654 0.34406
0 0.43592 0.353902
0 0.439109 0.363912
0.0347753 0.442069 0.374166
0.0795453 0.444617 0.384955
0.124346 0.446571 0.396323
0.169345 0.447562 0.409155
0.215152 0.447044 0.425208
0.263523 0.444007 0.448096
0.322393 0.43534 0.486976
0.461311 0.401144 0.541634
0.538354 0.395575 0.497047
0.577752 0.400549 0.458869
0.612726 0.405859 0.430091
0.646662 0.411093 0.405203
0.680735 0.415854 0.384329
0.714641 0.420508 0.365179
0.748409 0.425071 0.347158
0.782071 0.429587 0.329931
0.815641 0.434058 0.313298
0.849134 0.438529 0.297108
0.882536 0.442985 0.28127
0.915862 0.44741 0.265705
0.949126 0.45185 0.250385
0.982315 0.456291 0.235264
1 0.460731 0.22031
1 0.465156 0.205493
1 0.469581 0.190814
1 0.474006 0.176257
0 0.445228 0.325002
0 0.447776 0.333669
0 0.45069 0.342763
0 0.453895 0.352209
0 0.457252 0.361913
0 0.460838 0.372
0 0.464378 0.382239
0.0186465 0.467811 0.392706
0.0634928 0.47097 0.403433
0.108415 0.473625 0.414847
0.153338 0.475578 0.426932
0.198535 0.476432 0.440772
0.244633 0.475608 0.458274
0.293751 0.471992 0.483146
0.356237 0.461769 0.526238
0.501289 0.426551 0.573251
0.572274 0.422736 0.529015
0.611566 0.42768 0.491386
0.646448 0.433036 0.462547
0.680308 0.4383 0.437476
0.714321 0.443107 0.416434
0.748165 0.447776 0.397147
0.781872 0.452384 0.379019
0.815488 0.456916 0.3617
0.848997 0.461418 0.344976
0.882445 0.465904 0.32871
0.915801 0.470359 0.31281
0.949096 0.474815 0.2972
0.98233 0.479271 0.281849
1 0.483711 0.266682
1 0.488167 0.251698
1 0.492592 0.236851
1 0.497032 0.222141
0 0.469368 0.34258
0 0.471839 0.351141
0 0.474739 0.360189
0 0.478004 0.369665
0 0.481514 0.379492
0 0.485298 0.389685
0 0.489143 0.400122
0.00228885 0.492958 0.410803
0.0472572 0.49662 0.421729
0.0923323 0.499916 0.433173
0.137362 0.502678 0.445029
0.182406 0.504585 0.457877
0.227787 0.505257 0.472755
0.274235 0.504082 0.491707
0.324224 0.49987 0.518547
0.391226 0.487816 0.566094
0.539986 0.452369 0.604318
0.606134 0.449912 0.560937
0.645335 0.454826 0.523842
0.680156 0.460212 0.494972
0.714534 0.465187 0.471138
0.74789 0.470359 0.448524
0.781674 0.475059 0.429099
0.81532 0.479683 0.410864
0.848875 0.484245 0.393454
0.882353 0.488777 0.376654
0.91574 0.493278 0.360327
0.949081 0.497765 0.344366
0.98233 0.502235 0.328725
1 0.506691 0.313313
1 0.511147 0.298116
1 0.515587 0.283085
1 0.520043 0.268208
0 0.493538 0.360189
0 0.495827 0.368566
0 0.498619 0.377493
0 0.501854 0.386908
0 0.505455 0.396765
0 0.509346 0.407034
0 0.513436 0.417624
0 0.517571 0.428489
0.0307774 0.52166 0.439612
0.0759594 0.525521 0.451011
0.121218 0.528939 0.463035
0.166369 0.531731 0.475486
0.211551 0.533578 0.489143
0.25713 0.534035 0.505089
0.30396 0.532464 0.525505
0.354894 0.527626 0.554208
0.427451 0.513436 0.606363
0.577676 0.478538 0.635111
0.639948 0.477119 0.592844
0.679088 0.482002 0.556268
0.713817 0.487404 0.527367
0.748119 0.492424 0.50341
0.781445 0.497612 0.480613
0.815152 0.502358 0.461067
0.848768 0.506996 0.442725
0.882261 0.511589 0.425208
0.915694 0.516136 0.408347
0.94905 0.520653 0.391943
0.982345 0.525154 0.375937
1 0.529641 0.36025
1 0.534112 0.344778
1 0.538582 0.329534
1 0.543038 0.314488
0 0.51783 0.377951
0 0.519844 0.386038
0 0.522438 0.394736
0 0.525567 0.404028
0 0.529152 0.413825
0 0.533043 0.424063
0 0.537316 0.43476
0 0.541695 0.445762
0.0140688 0.546105 0.457069
0.0593729 0.550454 0.46865
0.104799 0.554467 0.48069
0.150179 0.558022 0.493141
0.195453 0.5608 0.506233
0.240803 0.562539 0.520714
0.286549 0.562753 0.537758
0.333837 0.560754 0.55964
0.38587 0.555245 0.59028
0.464958 0.538659 0.64683
0.614572 0.504952 0.665812
0.673732 0.504341 0.62472
0.712795 0.509194 0.588617
0.747463 0.514611 0.559716
0.781674 0.519661 0.535637
0.814954 0.52488 0.512688
0.84863 0.529641 0.493019
0.882185 0.534325 0.474556
0.915648 0.538933 0.456977
0.949035 0.543496 0.440024
0.982345 0.548043 0.423575
1 0.55256 0.407507
1 0.557046 0.391745
1 0.561532 0.376257
1 0.566003 0.360983
0 0.542397 0.396002
0 0.544015 0.403677
0 0.546304 0.412055
0 0.549218 0.421103
0 0.552666 0.430762
0 0.556512 0.440864
0 0.560876 0.451621
0 0.565423 0.462715
0 0.570108 0.474144
0.0424964 0.574792 0.485878
0.0880598 0.579339 0.497917
0.1337 0.58349 0.510567
0.179217 0.587137 0.523522
0.224598 0.589899 0.53727
0.2701 0.591485 0.55259
0.316075 0.591409 0.570748
0.363836 0.588968 0.594064
0.417212 0.582696 0.626856
0.503731 0.5635 0.68719
0.650843 0.531533 0.696498
0.707469 0.531563 0.65658
0.746471 0.536385 0.620935
0.781079 0.541817 0.59202
0.815213 0.546914 0.567849
0.848447 0.552163 0.544762
0.882078 0.556939 0.524971
0.915587 0.561639 0.506416
0.949004 0.566278 0.488731
0.982361 0.570871 0.471717
1 0.575418 0.455192
1 0.57995 0.439063
1 0.584451 0.423255
1 0.588952 0.407721
0 0.56733 0.41445
0 0.568444 0.421607
0 0.570336 0.429557
0 0.572915 0.43827
0 0.57615 0.447669
0 0.579858 0.457618
0 0.584176 0.468269
0 0.588785 0.479347
0 0.593637 0.490852
0.0254063 0.598596 0.502708
0.0710613 0.603555 0.514885
0.116869 0.60827 0.527535
0.162646 0.612573 0.540597
0.20827 0.61622 0.554086
0.253803 0.618952 0.568566
0.299443 0.620356 0.584741
0.345678 0.619974 0.604013
0.393942 0.61706 0.628717
0.448966 0.609964 0.663905
0.543557 0.588067 0.727092
0.686595 0.558251 0.727199
0.741161 0.558785 0.688396
0.780102 0.563577 0.653193
0.814664 0.569039 0.624308
0.848722 0.574151 0.600046
0.88191 0.579431 0.576806
0.915496 0.584237 0.556909
0.948974 0.588968 0.538262
0.982345 0.593606 0.5205
1 0.59823 0.503395
1 0.602792 0.486809
1 0.60734 0.470634
1 0.611856 0.45478
0 0.592844 0.433494
0 0.593332 0.439994
0 0.594675 0.447395
0 0.596826 0.455634
0 0.59971 0.464668
0 0.603204 0.474388
0 0.60734 0.48481
0 0.611933 0.495811
0 0.616861 0.507301
0.0080415 0.622019 0.519219
0.0538186 0.627253 0.531518
0.0997482 0.632441 0.544152
0.1458 0.637308 0.557427
0.191714 0.641733 0.570901
0.23743 0.64538 0.584955
0.283131 0.648005 0.600137
0.328893 0.64921 0.617182
0.375372 0.648493 0.637552
0.424216 0.645075 0.66363
0.481239 0.637034 0.701457
0.584451 0.61239 0.766384
0.721981 0.585107 0.757977
0.774838 0.586038 0.720211
0.813718 0.590799 0.68542
0.848234 0.596262 0.65655
0.882231 0.601419 0.632212
0.916136 0.606317 0.61062
0.948928 0.611551 0.588846
0.982345 0.616297 0.570108
1 0.620966 0.552254
1 0.625589 0.535088
1 0.630167 0.518425
1 0.63473 0.50219
0 0.618769 0.452934
0 0.618799 0.458976
0 0.619471 0.46569
0 0.621057 0.473365
0 0.623468 0.48191
0 0.626642 0.491264
0 0.630442 0.50132
0 0.634943 0.512184
0 0.639841 0.523568
0 0.645075 0.53547
0.0363775 0.650523 0.547814
0.0823835 0.656031 0.56054
0.128557 0.661387 0.573724
0.174762 0.666407 0.587411
0.220798 0.670878 0.601389
0.266667 0.67454 0.616083
0.31249 0.677043 0.631952
0.358404 0.678019 0.649882
0.405173 0.676936 0.671366
0.454643 0.672999 0.698726
0.514061 0.663905 0.739452
0.62594 0.636652 0.80473
0.757061 0.612039 0.788815
0.808484 0.613291 0.75201
0.847318 0.618036 0.717617
0.881773 0.623514 0.688792
0.915709 0.628687 0.664378
0.949554 0.6336 0.64268
0.98233 0.638865 0.620783
1 0.643626 0.601938
1 0.648325 0.584009
1 0.652964 0.566781
1 0.657557 0.550057
0 0.644663 0.472389
0 0.644709 0.478416
0 0.644892 0.484642
0 0.645762 0.491585
0 0.647593 0.499519
0 0.650278 0.50837
0 0.653651 0.517952
0 0.657938 0.528557
0 0.662684 0.539742
0 0.667887 0.551522
0.0187686 0.673426 0.563836
0.0647898 0.679164 0.576608
0.11107 0.684901 0.589792
0.157504 0.69041 0.603632
0.203845 0.695598 0.617655
0.249973 0.700084 0.632136
0.295964 0.7037 0.64744
0.341894 0.706065 0.664027
0.387976 0.706767 0.682841
0.43508 0.705287 0.705409
0.485191 0.700832 0.734005
0.547524 0.690532 0.777874
0.667704 0.660929 0.841978
0.791882 0.639048 0.81973
0.8421 0.640558 0.783795
0.880873 0.645274 0.749783
0.915312 0.650767 0.720989
0.949187 0.655955 0.696513
0.982971 0.660914 0.674739
1 0.666194 0.65272
1 0.67097 0.633799
1 0.675669 0.615778
1 0.680323 0.598459
0 0.670542 0.491829
0 0.670604 0.497871
0 0.670771 0.504067
0 0.671107 0.510445
0 0.672206 0.517632
0 0.674281 0.525841
0 0.67715 0.53492
0 0.681025 0.545068
0 0.685512 0.555932
0 0.690578 0.567498
0.00102235 0.696086 0.57969
0.0470283 0.701915 0.592416
0.0933394 0.707897 0.605631
0.139864 0.713848 0.619318
0.186496 0.719539 0.633616
0.23299 0.724819 0.648112
0.27924 0.72932 0.663127
0.325383 0.73286 0.679026
0.371389 0.735042 0.696345
0.417639 0.73547 0.716045
0.465064 0.733577 0.739651
0.515953 0.728573 0.769604
0.581659 0.716915 0.816678
0.709438 0.685344 0.878096
0.82649 0.666102 0.850721
0.8757 0.667842 0.815564
0.914427 0.672541 0.781903
0.948821 0.678019 0.75317
0.982635 0.683238 0.728634
1 0.688212 0.706783
1 0.693507 0.684642
1 0.698299 0.665614
1 0.703029 0.647532
0 0.696422 0.511269
0 0.696483 0.517311
0 0.696666 0.523507
0 0.696986 0.529854
0 0.697475 0.536431
0 0.698787 0.543862
0 0.701045 0.5523
0 0.704326 0.561807
0 0.708446 0.572259
0 0.713237 0.583505
0 0.718608 0.595468
0.0292363 0.724407 0.608057
0.0754406 0.730526 0.621225
0.122011 0.736751 0.634867
0.168811 0.74287 0.649256
0.215564 0.748745 0.663798
0.262135 0.754025 0.678721
0.308568 0.758587 0.694331
0.354803 0.762005 0.710842
0.400916 0.763989 0.728878
0.447349 0.764096 0.749447
0.49514 0.761791 0.774105
0.54696 0.756191 0.805524
0.616541 0.743053 0.855802
0.750896 0.709941 0.913146
0.860929 0.693202 0.881773
0.90927 0.695125 0.847318
0.947936 0.699794 0.814008
0.982315 0.705287 0.785321
1 0.710536 0.760739
1 0.715526 0.738811
1 0.720851 0.716548
1 0.725643 0.697444
0 0.722255 0.530694
0 0.722332 0.536736
0 0.72253 0.542931
0 0.722835 0.549264
0 0.723308 0.555795
0 0.723964 0.562554
0 0.72546 0.570199
0 0.727993 0.578943
0 0.731624 0.588876
