Camo Studio.app/Contents/Resources/CamoContent_CamoContent.bundle/Contents/Resources/2_STRIP.cube
TITLE "Generated by Resolve"
LUT_3D_SIZE 5
0 0 0
0.31426 0.024033 0
0.584848 0.0576944 0
0.849729 0.0924849 0
1 0.127779 0
0 0.242512 0.175982
0.299046 0.206165 0.272175
0.581888 0.242664 0.0916762
0.84979 0.277378 0
1 0.312566 0
0 0.445228 0.325002
0.0634928 0.47097 0.403433
0.572274 0.422736 0.529015
0.848997 0.461418 0.344976
1 0.497032 0.222141
0 0.644663 0.472389
0 0.662684 0.539742
0.295964 0.7037 0.64744
0.8421 0.640558 0.783795
1 0.680323 0.598459
0 0.851331 0.627817
0 0.855543 0.680232
0.153201 0.889616 0.767559
0.532479 0.936294 0.905989
1 0.858976 1
0 0.0428626 0
0.297139 0.0562448 0
0.570596 0.0887922 0
0.836698 0.123125 0
1 0.15819 0
0 0.258213 0.196155
0.249775 0.25008 0.249805
0.565072 0.27483 0.0895857
0.835645 0.308492 0
1 0.343252 0
0 0.454932 0.339284
0.0763867 0.48278 0.416236
0.549844 0.456977 0.522972
0.832685 0.493477 0.342489
1 0.528145 0.22237
0 0.653269 0.484962
0 0.667353 0.547112
0.307866 0.715343 0.647822
0.823072 0.673548 0.779812
1 0.7122 0.595758
0 0.859922 0.640208
0 0.860197 0.687922
0.155398 0.890349 0.767391
0.543511 0.951247 0.894987
1 0.891356 1
0 0.0769513 0
0.280049 0.0883803 0
0.556435 0.119844 0
0.823682 0.153735 0
1 0.18854 0
0 0.275273 0.213993
0.201297 0.293614 0.227955
0.547936 0.307027 0.0879377
0.821393 0.339574 0
1 0.373892 0
0 0.465049 0.35285
0.0851911 0.494316 0.432258
0.500633 0.500862 0.500404
0.815854 0.525612 0.340368
1 0.559243 0.222782
0 0.662196 0.497963
0 0.671672 0.556023
0.31667 0.723064 0.656535
0.800641 0.707759 0.77377
1 0.744244 0.593256
0 0.868589 0.653559
0 0.864851 0.696529
0.155138 0.889494 0.769268
0.552239 0.959716 0.89218
1 0.924346 1
0 0.109789 0
0.263249 0.120439 0
0.542382 0.150851 0
0.810788 0.184298 0
1 0.21886 0
0 0.294041 0.226764
0.179065 0.327596 0.221942
0.530846 0.339162 0.0865949
0.807218 0.370626 0
1 0.404486 0
0 0.476036 0.365789
0.0893263 0.507637 0.446342
0.452049 0.544366 0.478706
0.798718 0.557809 0.338735
1 0.590341 0.223453
0 0.671809 0.510979
0 0.676768 0.564569
0.321309 0.730419 0.668376
0.751507 0.751598 0.751431
1 0.776394 0.591134
0 0.877821 0.665934
0 0.8701 0.705852
0.152926 0.888426 0.772778
0.55697 0.963363 0.896834
1 0.958572 1
0 0.141985 0
0.246677 0.152422 0
0.528542 0.181781 0
0.798001 0.214817 0
1 0.249134 0
0 0.314168 0.235203
0.160128 0.360281 0.217914
0.514031 0.371221 0.0853132
0.793179 0.401633 0
1 0.43505 0
0 0.487999 0.377035
0.0887465 0.523095 0.455817
0.429709 0.578241 0.472587
0.781643 0.589975 0.337407
1 0.621378 0.224338
0 0.682475 0.523888
0 0.683345 0.573098
0.321736 0.740047 0.678752
0.702831 0.795132 0.729473
1 0.808576 0.589487
0 0.887587 0.678889
0 0.876402 0.715572
0.148791 0.888518 0.776318
0.557458 0.966567 0.904509
1 1 1
