Camo Studio.app/Contents/Resources/CamoContent_CamoContent.bundle/Contents/Resources/2_STRIP.cube
TITLE "Generated by Resolve"
LUT_3D_SIZE 9
0 0 0
0.173571 0.00827039 0
0.31426 0.024033 0
0.450629 0.04065 0
0.584848 0.0576944 0
0.717739 0.0749981 0
0.849729 0.0924849 0
0.981018 0.110109 0
1 0.127779 0
0 0.129885 0.0917678
0.159228 0.0990616 0.141817
0.309453 0.116793 0.0310521
0.448127 0.133349 0
0.583642 0.150301 0
0.717357 0.167544 0
0.849928 0.18497 0
0.981643 0.202548 0
1 0.220203 0
0 0.242512 0.175982
0.0118105 0.245335 0.206622
0.299046 0.206165 0.272175
0.444862 0.225422 0.159487
0.581888 0.242664 0.0916762
0.716579 0.259953 0.0302586
0.84979 0.277378 0
0.982025 0.294942 0
1 0.312566 0
0 0.346899 0.253208
0 0.355886 0.287831
0.127413 0.360906 0.328679
0.436286 0.314214 0.400977
0.579812 0.334188 0.287984
0.715511 0.352026 0.218296
0.84947 0.369604 0.156008
0.982254 0.387213 0.096849
1 0.404868 0.0393988
0 0.445228 0.325002
0 0.457252 0.361913
0.0634928 0.47097 0.403433
0.244633 0.475608 0.458274
0.572274 0.422736 0.529015
0.714321 0.443107 0.416434
0.848997 0.461418 0.344976
0.98233 0.479271 0.281849
1 0.497032 0.222141
0 0.542397 0.396002
0 0.552666 0.430762
0 0.570108 0.474144
0.179217 0.587137 0.523522
0.363836 0.588968 0.594064
0.707469 0.531563 0.65658
0.848447 0.552163 0.544762
0.982361 0.570871 0.471717
1 0.588952 0.407721
0 0.644663 0.472389
0 0.647593 0.499519
0 0.662684 0.539742
0.11107 0.684901 0.589792
0.295964 0.7037 0.64744
0.485191 0.700832 0.734005
0.8421 0.640558 0.783795
0.982971 0.660914 0.674739
1 0.680323 0.598459
0 0.748104 0.550134
0 0.749157 0.575189
0 0.75523 0.60592
0.0394903 0.775051 0.651987
0.226871 0.801205 0.709316
0.413809 0.820218 0.775113
0.609827 0.811032 0.878447
0.976318 0.749706 0.910765
1 0.770153 0.802792
0 0.851331 0.627817
0 0.852461 0.652796
0 0.855543 0.680232
0 0.865248 0.715343
0.153201 0.889616 0.767559
0.343938 0.918563 0.831815
0.532479 0.936294 0.905989
0.740078 0.91902 1
1 0.858976 1
0 0.0246586 0
0.162799 0.0252232 0
0.305715 0.0401465 0
0.442985 0.0564126 0
0.577722 0.0732586 0
0.710979 0.090425 0
0.843214 0.10782 0
0.974685 0.125353 0
1 0.143008 0
0 0.13904 0.103502
0.12462 0.12459 0.124636
0.299016 0.133684 0.0281682
0.439689 0.149447 0
0.576043 0.166064 0
0.710262 0.183108 0
0.843168 0.200412 0
0.975128 0.217884 0
1 0.235477 0
0 0.250217 0.186236
0.0208286 0.253742 0.21561
0.284627 0.22446 0.267216
0.434852 0.242191 0.156451
0.573541 0.258747 0.0905776
0.709041 0.2757 0.029984
0.842756 0.292943 0
0.975311 0.310369 0
1 0.327932 0
0 0.353079 0.261555
0 0.362631 0.296101
0.136294 0.369802 0.331106
0.424445 0.331579 0.397574
0.570275 0.350835 0.284901
0.707286 0.368078 0.21709
0.841978 0.385351 0.155673
0.975219 0.402777 0.0970016
1 0.420325 0.0398718
0 0.450111 0.33193
0 0.462318 0.368627
0.0703593 0.477089 0.409049
0.252369 0.485847 0.45362
0.561715 0.439628 0.52639
0.705226 0.459602 0.413397
0.840925 0.47744 0.343709
0.974899 0.495018 0.281422
1 0.512596 0.222232
0 0.546624 0.402197
0 0.556283 0.436042
0.00157168 0.574029 0.478691
0.185687 0.593179 0.525643
0.369863 0.600839 0.583505
0.697688 0.54815 0.654429
0.83975 0.568521 0.541848
0.974411 0.586831 0.470375
1 0.604669 0.407233
0 0.648951 0.478584
0 0.650599 0.504204
0 0.665125 0.543206
0.115084 0.688151 0.592187
0.302266 0.710185 0.646571
0.489189 0.714321 0.719417
0.832868 0.656947 0.781964
0.973846 0.677546 0.670161
1 0.696239 0.597086
0 0.752377 0.556283
0 0.752422 0.580133
0 0.757076 0.608988
0.0415503 0.776501 0.653559
0.230335 0.804166 0.709056
0.41973 0.827466 0.771206
0.610574 0.826215 0.859403
0.967498 0.765942 0.909194
1 0.786297 0.800137
0 0.855619 0.633951
0 0.855863 0.657893
0 0.857969 0.684001
0 0.866011 0.716701
0.154681 0.890257 0.767193
0.34728 0.921614 0.829725
0.538155 0.944564 0.899458
0.735225 0.936431 1
1 0.875105 1
0 0.0428626 0
0.151873 0.0421912 0
0.297139 0.0562448 0
0.43534 0.0721599 0
0.570596 0.0887922 0
0.704204 0.105837 0
0.836698 0.123125 0
0.968353 0.140597 0
1 0.15819 0
0 0.149035 0.114
0.0902113 0.150042 0.107485
0.288212 0.150637 0.0255131
0.431128 0.165545 0
0.568383 0.181811 0
0.703136 0.198657 0
0.836378 0.215824 0
0.968612 0.233204 0
1 0.250736 0
0 0.258213 0.196155
0.027985 0.262287 0.226749
0.249775 0.25008 0.249805
0.424384 0.259068 0.153536
0.565072 0.27483 0.0895857
0.701427 0.291447 0.0297704
0.835645 0.308492 0
0.968536 0.32578 0
1 0.343252 0
0 0.359319 0.270024
0 0.369299 0.305303
0.144701 0.377615 0.339483
0.41001 0.349844 0.392599
0.560235 0.36759 0.281834
0.698924 0.384146 0.215976
0.834424 0.401099 0.155367
0.968139 0.418326 0.0971542
1 0.435737 0.0403449
0 0.454932 0.339284
0 0.467216 0.375692
0.0763867 0.48278 0.416236
0.260761 0.494285 0.455573
0.549844 0.456977 0.522972
0.695674 0.476234 0.4103
0.832685 0.493477 0.342489
0.967376 0.51075 0.281056
1 0.528145 0.22237
0 0.550866 0.40856
0 0.559808 0.441627
0.00552377 0.577783 0.484092
0.191546 0.598291 0.530251
0.377295 0.610773 0.578561
0.687114 0.565042 0.651789
0.830625 0.585 0.538796
0.966323 0.602838 0.469108
1 0.620386 0.40679
0 0.653269 0.484962
0 0.65359 0.509178
0 0.667353 0.547112
0.118318 0.690776 0.595438
0.307866 0.715343 0.647822
0.495079 0.72604 0.708705
0.823072 0.673548 0.779812
0.965133 0.693904 0.667247
1 0.7122 0.595758
0 0.756695 0.5626
0 0.755688 0.585336
0 0.758816 0.612421
0.0430915 0.777554 0.65565
0.233127 0.806195 0.710231
0.425315 0.833234 0.769619
0.614542 0.839673 0.84477
0.958267 0.782345 0.907362
1 0.802945 0.795544
0 0.859922 0.640208
0 0.859297 0.663188
0 0.860197 0.687922
0 0.866575 0.718502
0.155398 0.890349 0.767391
0.349615 0.923445 0.828336
0.543511 0.951247 0.894987
0.736004 0.951644 0.984817
1 0.891356 1
0 0.0601358 0
0.140963 0.059144 0
0.288563 0.0723278 0
0.42771 0.087892 0
0.5635 0.104326 0
0.697444 0.121233 0
0.830167 0.138445 0
0.962036 0.155825 0
1 0.173358 0
0 0.160052 0.121675
0.0759289 0.168246 0.102586
0.277287 0.16759 0.0230564
0.422538 0.181643 0
0.560739 0.197559 0
0.696025 0.214206 0
0.829618 0.231235 0
0.962066 0.248524 0
1 0.265965 0
0 0.266545 0.205615
0.0325322 0.271717 0.236667
0.21561 0.275441 0.232883
0.413596 0.27602 0.150896
0.556497 0.290929 0.0887007
0.693782 0.307195 0.0296635
0.828519 0.324041 0
0.961761 0.341192 0
1 0.358572 0
0 0.365713 0.278309
0 0.376257 0.314199
0.151232 0.385534 0.349996
0.375418 0.375357 0.375494
0.549783 0.384451 0.278935
0.690455 0.400229 0.214969
0.826825 0.416831 0.155169
0.961028 0.433875 0.0974136
1 0.451148 0.0409094
0 0.459937 0.345998
0 0.472175 0.382879
0.0814374 0.48838 0.424399
0.268574 0.501488 0.463355
0.535409 0.475242 0.517998
0.685649 0.492988 0.407233
0.824338 0.509529 0.34139
0.959823 0.526482 0.280766
1 0.543694 0.222522
0 0.5552 0.414984
0 0.563302 0.447654
0.00868238 0.581384 0.489845
0.196521 0.602914 0.536385
0.385229 0.618753 0.580041
0.675258 0.582376 0.648386
0.821073 0.601633 0.535698
0.958083 0.618875 0.467887
1 0.636118 0.406439
0 0.657603 0.491875
0 0.656641 0.514336
0 0.669505 0.551324
0.120974 0.693233 0.599542
0.312749 0.719478 0.651438
0.50222 0.735698 0.703487
0.812497 0.690425 0.777173
0.956024 0.710399 0.664195
1 0.728206 0.594461
0 0.761059 0.569009
0 0.759045 0.590723
0 0.760571 0.616159
0.0440528 0.778408 0.658183
0.235065 0.807523 0.712184
0.430045 0.837522 0.770001
0.620279 0.851255 0.833921
0.94847 0.798947 0.905211
1 0.819303 0.79263
0 0.864271 0.646571
0 0.862745 0.66865
0 0.86247 0.692103
0 0.867063 0.720668
0.15555 0.890028 0.768124
0.351202 0.924254 0.82829
0.548379 0.956298 0.892683
0.73991 0.965042 0.970138
1 0.907759 1
0 0.0769513 0
0.130098 0.0760662 0
0.280049 0.0883803 0
0.420111 0.103609 0
0.556435 0.119844 0
0.6907 0.136629 0
0.823682 0.153735 0
0.955734 0.171054 0
1 0.18854 0
0 0.171893 0.126955
0.06421 0.185504 0.0992294
0.266392 0.184543 0.0206912
0.413977 0.197726 0
0.553124 0.213291 0
0.688914 0.229725 0
0.822858 0.246632 0
0.955566 0.263828 0
1 0.281209 0
0 0.275273 0.213993
0.0344244 0.282216 0.243839
0.201297 0.293614 0.227955
0.40267 0.292973 0.148425
0.547936 0.307027 0.0879377
0.686137 0.322942 0.0296025
0.821393 0.339574 0
0.954986 0.356603 0
1 0.373892 0
0 0.372381 0.286213
0 0.383627 0.322683
0.155215 0.3944 0.35935
0.340993 0.400824 0.358267
0.538994 0.401404 0.27628
0.681895 0.416312 0.214084
0.819165 0.432593 0.155032
0.953902 0.449424 0.0977188
1 0.46656 0.0415045
0 0.465049 0.35285
0 0.477348 0.389929
0.0851911 0.494316 0.432258
0.274495 0.508782 0.473243
0.500633 0.500862 0.500404
0.675181 0.509865 0.404334
0.815854 0.525612 0.340368
0.952209 0.542229 0.280568
1 0.559243 0.222782
0 0.559701 0.421408
0 0.56701 0.453071
0.0110933 0.585061 0.495766
0.200519 0.607462 0.543481
0.392447 0.62536 0.587228
0.660807 0.600641 0.643397
0.811032 0.618387 0.532631
0.949722 0.634928 0.466773
1 0.651865 0.406134
0 0.662196 0.497963
0 0.659831 0.519615
0 0.671672 0.556023
0.122835 0.695537 0.603998
0.31667 0.723064 0.656535
0.509697 0.743221 0.704509
0.800641 0.707759 0.77377
0.946456 0.727016 0.661097
1 0.744244 0.593256
0 0.765515 0.575479
0 0.762432 0.596689
0 0.762432 0.620111
0.0444953 0.779202 0.661021
0.236439 0.808698 0.714992
0.433936 0.840665 0.772625
0.627146 0.860624 0.828412
0.937896 0.815824 0.902571
1 0.835782 0.789578
0 0.868589 0.653559
0 0.8663 0.67425
0 0.864851 0.696529
0 0.867582 0.723171
0.155138 0.889494 0.769268
0.351827 0.924285 0.828946
0.552239 0.959716 0.89218
0.74551 0.976486 0.959152
1 0.924346 1
0 0.0934768 0
0.11928 0.0929427 0
0.271611 0.104417 0
0.412573 0.119295 0
0.549386 0.135363 0
0.684016 0.15201 0
0.817227 0.169024 0
0.949447 0.186267 0
1 0.203693 0
0 0.184283 0.130343
0.0537423 0.202289 0.0966354
0.255528 0.201465 0.0184939
0.405463 0.213779 0
0.545525 0.228992 0
0.681834 0.245243 0
0.816114 0.262028 0
0.949081 0.279118 0
1 0.296437 0
0 0.284443 0.221134
0.0342107 0.293553 0.248615
0.189548 0.310842 0.224567
0.391775 0.309926 0.146075
0.539361 0.32311 0.0872511
0.678508 0.338659 0.0296178
0.814298 0.355108 0
0.948226 0.372 0
1 0.389197 0
0 0.379263 0.293477
0 0.391455 0.330159
0.156573 0.404379 0.365988
0.326665 0.418982 0.353323
0.528069 0.418372 0.273823
0.67332 0.43241 0.213321
0.811521 0.448325 0.154986
0.946777 0.464958 0.098085
1 0.481971 0.0421607
0 0.470466 0.359533
0 0.482856 0.396689
0.0878767 0.500725 0.43978
0.277897 0.517082 0.482048
0.466377 0.526207 0.48365
0.664393 0.526802 0.401679
0.807294 0.541711 0.339498
0.944564 0.557992 0.28043
1 0.574792 0.223102
0 0.564431 0.427787
0 0.570916 0.458701
0.0126955 0.588998 0.501579
0.203265 0.612375 0.550317
0.397757 0.632044 0.596506
0.62623 0.626154 0.626307
0.80058 0.635264 0.529732
0.941253 0.651011 0.465766
1 0.667597 0.405936
0 0.666911 0.504494
0 0.663249 0.524956
0 0.674098 0.560159
0.123964 0.697932 0.608637
0.3196 0.726558 0.662562
0.51632 0.749249 0.711116
0.786206 0.72604 0.768795
0.936431 0.743786 0.65803
1 0.760296 0.592142
0 0.770108 0.581979
0 0.76614 0.601892
0 0.764477 0.624247
0.0445258 0.780026 0.664378
0.236988 0.809674 0.718151
0.43682 0.843214 0.776669
0.634165 0.867674 0.828977
0.92604 0.833158 0.899168
1 0.852399 0.78648
0 0.873198 0.659464
0 0.869978 0.679942
0 0.867292 0.701564
0 0.868238 0.725933
0.154223 0.88893 0.770748
0.351919 0.924178 0.830472
0.555138 0.961883 0.893828
0.752087 0.98558 0.953353
1 0.941222 1
0 0.109789 0
0.108583 0.109743 0
0.263249 0.120439 0
0.405081 0.134981 0
0.542382 0.150851 0
0.677333 0.167376 0
0.810788 0.184298 0
0.943191 0.20148 0
1 0.21886 0
0 0.19707 0.132158
0.0440528 0.218769 0.0944839
0.244694 0.218341 0.0165713
0.397024 0.229816 0
0.537972 0.244694 0
0.6748 0.260746 0
0.809415 0.277394 0
0.942626 0.294408 0
1 0.31165 0
0 0.294041 0.226764
0.0324407 0.305455 0.251499
0.179065 0.327596 0.221942
0.380911 0.326848 0.143877
0.530846 0.339162 0.0865949
0.670909 0.354391 0.0296788
0.807218 0.370626 0
0.941497 0.387396 0
1 0.404486 0
0 0.386435 0.300038
0 0.399771 0.336461
0.155871 0.415198 0.370275
0.3149 0.436194 0.34992
0.517159 0.435309 0.271458
0.664744 0.448493 0.212634
0.803891 0.464057 0.155001
0.939681 0.480491 0.098497
1 0.497368 0.0428321
0 0.476036 0.365789
0 0.488655 0.402869
0.0893263 0.507637 0.446342
0.278737 0.526543 0.488151
0.452049 0.544366 0.478706
0.653468 0.54377 0.399222
0.798718 0.557809 0.338735
0.936904 0.573724 0.280385
1 0.590341 0.223453
0 0.569512 0.434165
0 0.575189 0.464256
0.0137026 0.593362 0.507195
0.20499 0.617823 0.556893
0.40058 0.63978 0.60473
0.591775 0.651606 0.609049
0.789792 0.652201 0.527077
0.932692 0.667109 0.464881
1 0.683345 0.405798
0 0.671809 0.510979
0 0.666957 0.530312
0 0.676768 0.564569
0.124346 0.700648 0.61323
0.321309 0.730419 0.668376
0.521004 0.755306 0.719768
0.751507 0.751598 0.751431
0.925978 0.760647 0.655131
1 0.776394 0.591134
0 0.774868 0.588479
0 0.770001 0.607569
0 0.766812 0.628519
0.0439307 0.781186 0.667231
0.236851 0.810803 0.721508
0.438697 0.84564 0.781643
0.640192 0.873106 0.834974
0.911589 0.851438 0.894194
1 0.869169 0.783413
0 0.877821 0.665934
0 0.873808 0.685679
0 0.8701 0.705852
0 0.869139 0.728923
0.152926 0.888426 0.772778
0.351156 0.923858 0.832334
0.55697 0.963363 0.896834
0.758648 0.992172 0.95346
1 0.958572 1
0 0.125948 0
0.098085 0.126467 0
0.254948 0.136446 0
0.39765 0.150637 0
0.535439 0.166323 0
0.670695 0.182727 0
0.804379 0.199557 0
0.936965 0.216678 0
1 0.233997 0
0 0.210071 0.13312
0.0348974 0.235035 0.0926833
0.233997 0.235142 0.0150454
0.388647 0.245838 0
0.53048 0.26038 0
0.667796 0.276249 0
0.802731 0.292775 0
0.936187 0.309682 0
1 0.326863 0
0 0.303975 0.23151
0.0295262 0.317739 0.252842
0.169329 0.344045 0.219776
0.370077 0.343725 0.141955
0.522408 0.3552 0.0859541
0.663355 0.370077 0.0297551
0.800183 0.38613 0
0.934798 0.402777 0
1 0.41976 0
0 0.393912 0.305852
0 0.408576 0.341299
0.153613 0.426612 0.372671
0.304372 0.452918 0.347265
0.506294 0.452232 0.269261
0.656229 0.464546 0.211994
0.796292 0.479774 0.155062
0.932601 0.49601 0.0989548
1 0.512764 0.0435492
0 0.48188 0.371649
0 0.494804 0.408392
0.0896162 0.515099 0.451789
0.277531 0.536858 0.491936
0.440253 0.561547 0.475273
0.642557 0.560708 0.396857
0.790143 0.573892 0.338033
0.92929 0.589456 0.2804
1 0.605859 0.223865
0 0.574792 0.440299
0 0.579675 0.469444
0.0139162 0.598062 0.512261
0.205524 0.623835 0.562539
0.4009 0.648692 0.610315
0.577432 0.669749 0.604089
0.778866 0.669169 0.52462
0.924102 0.683207 0.464118
1 0.699092 0.405753
0 0.677073 0.51754
0 0.671122 0.535775
0 0.679911 0.568978
0.124208 0.703868 0.617685
0.322087 0.73492 0.673991
0.523278 0.762463 0.727413
0.717159 0.776989 0.734432
0.915175 0.777584 0.652476
1 0.792493 0.590265
0 0.779782 0.594934
0 0.77409 0.61326
0 0.769482 0.632837
0.0429084 0.782635 0.67042
0.235981 0.812284 0.724865
0.439368 0.848478 0.786419
0.644251 0.878553 0.843015
0.876997 0.876936 0.877058
1 0.88603 0.780514
0 0.882628 0.672419
0 0.877852 0.691463
0 0.873121 0.710689
0 0.870405 0.732097
0.151049 0.888289 0.77435
0.349752 0.923705 0.834409
0.557794 0.964736 0.900755
0.76408 0.997009 0.958862
1 0.976837 1
0 0.141985 0
0.0877241 0.143206 0
0.246677 0.152422 0
0.390311 0.166278 0
0.528542 0.181781 0
0.664103 0.198062 0
0.798001 0.214817 0
0.930739 0.231876 0
1 0.249134 0
0 0.223178 0.133989
0.0261234 0.251148 0.0910811
0.223499 0.251881 0.0136416
0.380346 0.26183 0
0.523064 0.276036 0
0.660853 0.291722 0
0.796109 0.308125 0
0.929778 0.324941 0
1 0.342061 0
0 0.314168 0.235203
0.0257725 0.330251 0.2533
0.160128 0.360281 0.217914
0.35938 0.360525 0.140429
0.514031 0.371221 0.0853132
0.655863 0.385763 0.0298466
0.793179 0.401633 0
0.9281 0.418143 0
1 0.43505 0
0 0.401755 0.310582
0 0.417716 0.345251
0.15021 0.438422 0.37351
0.294621 0.469337 0.345068
0.495476 0.469123 0.267338
0.647791 0.480598 0.211337
0.788754 0.495476 0.155154
0.925566 0.511528 0.099443
1 0.528145 0.0443122
0 0.487999 0.377035
0 0.501305 0.41323
0.0887465 0.523095 0.455817
0.274769 0.547784 0.493843
0.429709 0.578241 0.472587
0.631693 0.57763 0.394659
0.781643 0.589975 0.337407
0.921706 0.605173 0.280461
1 0.621378 0.224338
0 0.580407 0.44625
0 0.584512 0.474281
0.0134432 0.603189 0.516777
0.204974 0.630457 0.567147
0.399207 0.658549 0.613611
0.565637 0.686931 0.600656
0.767971 0.686137 0.522286
0.915541 0.69929 0.463432
1 0.714824 0.405783
0 0.682475 0.523888
0 0.675547 0.541054
0 0.683345 0.573098
0.123354 0.707485 0.621698
0.321736 0.740047 0.678752
0.523079 0.770886 0.732494
0.702831 0.795132 0.729473
0.90428 0.794568 0.650034
1 0.808576 0.589487
0 0.785046 0.601511
0 0.778637 0.619104
0 0.772747 0.6374
0.0417487 0.784649 0.673732
0.23473 0.814389 0.728206
0.4392 0.852033 0.791104
0.645975 0.885161 0.850111
0.842573 0.902403 0.859846
1 0.902968 0.777859
0 0.887587 0.678889
0 0.882094 0.697246
0 0.876402 0.715572
0 0.872053 0.735409
0.148791 0.888518 0.776318
0.347662 0.923964 0.836545
0.557458 0.966567 0.904509
0.767529 1 0.966293
1 1 1
