Camo Studio.app/Contents/Resources/CamoContent_CamoContent.bundle/Contents/Resources/70S_ANALOG.cube
TITLE "Generated by Resolve"
LUT_3D_SIZE 9
0.0541238 0.0905318 0.0337682
0.100328 0.0948653 0.0372931
0.181125 0.0958419 0.0307164
0.295705 0.0920272 0.0237888
0.42327 0.0870069 0.0171969
0.550393 0.0846571 0.0130465
0.646906 0.0910964 0.0134432
0.716655 0.105165 0.017731
0.797848 0.117769 0.0209049
0.0641794 0.169162 0.0305943
0.129442 0.17377 0.0452277
0.232822 0.174838 0.0528725
0.346029 0.180789 0.0391089
0.470878 0.184375 0.0289921
0.595575 0.187274 0.0234073
0.699184 0.195773 0.0238041
0.771908 0.21178 0.03093
0.837049 0.229694 0.0402533
0.0778515 0.259236 0.0261387
0.165759 0.26598 0.0429541
0.289189 0.266987 0.0632181
0.409888 0.267063 0.0763714
0.527886 0.274144 0.0683604
0.64509 0.284627 0.0552377
0.748928 0.296818 0.0496529
0.825345 0.313954 0.0567178
0.888899 0.333791 0.0696727
0.0977493 0.349187 0.0249943
0.201923 0.354269 0.041062
0.331792 0.356359 0.0621958
0.464057 0.357671 0.0858778
0.590005 0.361044 0.105653
0.706889 0.371633 0.108568
0.807263 0.388174 0.102815
0.87985 0.410819 0.106279
0.932906 0.43476 0.11722
0.123476 0.452171 0.0252232
0.236408 0.45214 0.0387274
0.367483 0.451164 0.0580301
0.503975 0.455726 0.083299
0.638315 0.46038 0.113664
0.757824 0.467826 0.144701
0.854627 0.483299 0.165545
0.922225 0.507057 0.181353
0.963851 0.533242 0.192447
0.159228 0.561395 0.0287327
0.273487 0.562234 0.0391852
0.403418 0.560388 0.0560616
0.538842 0.562402 0.079881
0.671458 0.568536 0.111101
0.792813 0.574807 0.154284
0.887831 0.586831 0.204974
0.948241 0.605676 0.24596
0.982574 0.628656 0.272221
0.215137 0.664546 0.0440528
0.319219 0.668833 0.0499428
0.441917 0.668544 0.0626078
0.572137 0.669001 0.08365
0.699825 0.674632 0.114885
0.815839 0.682414 0.162066
0.909361 0.693019 0.22649
0.965301 0.706645 0.28542
0.992386 0.724392 0.330388
0.279301 0.762692 0.0703441
0.377203 0.768231 0.0764324
0.488624 0.770108 0.0864424
0.608347 0.771359 0.104677
0.727245 0.776196 0.136919
0.834989 0.784588 0.191104
0.920592 0.795056 0.258686
0.970657 0.805341 0.32903
0.993469 0.816938 0.389471
0.337636 0.860716 0.0921187
0.440925 0.861479 0.111849
0.547494 0.862425 0.130648
0.656321 0.863142 0.160128
0.760952 0.865614 0.208713
0.852674 0.871992 0.273045
0.924193 0.881178 0.342687
0.969192 0.89012 0.408957
0.994034 0.899168 0.461112
0.0487984 0.0940719 0.0765087
0.100282 0.0955978 0.0809644
0.189334 0.0943618 0.0764477
0.306905 0.0899672 0.0671702
0.437919 0.0850843 0.0580453
0.570565 0.0820478 0.0506752
0.680995 0.0860761 0.0477302
0.752087 0.100649 0.0517586
0.812772 0.118654 0.0584878
0.049134 0.18117 0.0666972
0.11043 0.186969 0.0835737
0.209827 0.192111 0.0859846
0.336202 0.193118 0.0768292
0.468513 0.192325 0.0686351
0.600473 0.192889 0.0622568
0.719341 0.197391 0.059617
0.80325 0.210697 0.0654154
0.863386 0.230793 0.0780346
0.0632181 0.275242 0.0620127
0.144335 0.284062 0.0872511
0.26804 0.286244 0.116442
0.386267 0.287892 0.128649
0.504784 0.295155 0.106432
0.629862 0.301137 0.0921798
0.750744 0.307179 0.0848402
0.847379 0.319265 0.0890974
0.910018 0.338155 0.106218
0.0822003 0.366033 0.0601968
0.178744 0.374166 0.08542
0.311025 0.377691 0.11548
0.442893 0.379141 0.152834
0.564874 0.380392 0.176898
0.681865 0.391104 0.163516
0.795087 0.406271 0.142184
0.888518 0.423346 0.136141
0.944625 0.444312 0.151171
0.101884 0.467918 0.0579385
0.206119 0.469047 0.0787518
0.339055 0.471107 0.105852
0.476448 0.474525 0.142947
0.609461 0.47715 0.188373
0.730617 0.482673 0.222126
0.839979 0.498344 0.228031
0.924636 0.520912 0.221241
0.969223 0.546471 0.224842
0.12929 0.579278 0.0594186
0.238666 0.578592 0.075639
0.366842 0.574792 0.0974899
0.502968 0.574273 0.129183
0.639414 0.580636 0.175494
0.76846 0.587228 0.227527
0.8766 0.597803 0.270954
0.950561 0.615747 0.295995
0.985611 0.639704 0.311788
0.178241 0.685008 0.0730449
0.280461 0.687694 0.0810864
0.40383 0.685313 0.0975509
0.536538 0.682567 0.124468
0.669947 0.685878 0.166552
0.795117 0.692821 0.21976
0.902663 0.701991 0.279438
0.96669 0.713954 0.334112
0.99353 0.732311 0.377508
0.246281 0.781811 0.103258
0.339239 0.787503 0.106447
0.449928 0.788708 0.114397
0.573358 0.787106 0.134157
0.699535 0.787411 0.172839
0.817655 0.793713 0.230228
0.913756 0.802991 0.299351
0.969406 0.811948 0.374502
0.99292 0.823789 0.441108
0.317418 0.873564 0.143053
0.41178 0.876829 0.156024
0.51545 0.877867 0.171008
0.626474 0.876661 0.199557
0.736385 0.875441 0.246006
0.836133 0.879057 0.310231
0.915938 0.887007 0.381979
0.966262 0.895872 0.452583
0.991928 0.905013 0.514656
0.0488899 0.0935683 0.148135
0.100359 0.0946975 0.156115
0.190051 0.0919356 0.160739
0.313176 0.0842298 0.155276
0.448661 0.0790723 0.140581
0.58529 0.0771649 0.127382
0.70425 0.0805676 0.118257
0.783093 0.0944686 0.115755
0.83859 0.115007 0.119661
0.0412299 0.184497 0.14464
0.102815 0.189059 0.176349
0.212192 0.191562 0.183246
0.344808 0.190249 0.172992
0.47924 0.190356 0.158358
0.612222 0.191516 0.147326
0.737804 0.195163 0.139422
0.835111 0.206332 0.138979
0.894606 0.227527 0.150439
0.047364 0.287648 0.132097
0.117922 0.299275 0.165988
0.240833 0.302861 0.199451
0.363455 0.306111 0.198016
0.496559 0.307622 0.184329
0.628672 0.30927 0.17232
0.756497 0.312612 0.163012
0.867536 0.321111 0.162325
0.93402 0.33756 0.176776
0.0644236 0.387533 0.123339
0.151263 0.39675 0.159686
0.286671 0.400595 0.204654
0.420569 0.402304 0.253407
0.540215 0.4047 0.265538
0.658412 0.415076 0.234958
0.779324 0.42359 0.21445
0.890364 0.434363 0.205341
0.958755 0.448844 0.213382
0.0822309 0.491936 0.114229
0.177676 0.492851 0.145617
0.313222 0.497032 0.190066
0.453315 0.501183 0.241108
0.585931 0.503288 0.290608
0.703014 0.505257 0.314336
0.814054 0.520272 0.299855
0.91397 0.541009 0.277485
0.973648 0.559686 0.269169
0.104814 0.602136 0.111269
0.20528 0.597742 0.135103
0.333013 0.593591 0.169375
0.472007 0.595544 0.216632
0.609247 0.599893 0.269718
0.737697 0.603937 0.321035
0.849744 0.612284 0.355947
0.94023 0.631586 0.363302
0.986709 0.6542 0.353536
0.143618 0.708263 0.122072
0.243381 0.707591 0.135393
0.36492 0.701442 0.161379
0.49546 0.695552 0.198596
0.629908 0.695369 0.247181
0.76144 0.703456 0.302419
0.87953 0.712917 0.359915
0.959548 0.724681 0.40415
0.993942 0.742138 0.429328
0.211536 0.803632 0.157382
0.298573 0.808286 0.15787
0.408042 0.806943 0.169436
0.532143 0.801999 0.197024
0.661357 0.798032 0.240757
0.786496 0.801785 0.297887
0.894865 0.811337 0.364172
0.963958 0.819348 0.432212
0.992645 0.830182 0.491814
0.290669 0.89012 0.211124
0.377539 0.893736 0.217227
0.47747 0.894118 0.226841
0.589654 0.891173 0.251041
0.70457 0.886488 0.295277
0.812222 0.886213 0.356741
0.902541 0.89279 0.425376
0.962371 0.901244 0.493828
0.991714 0.909987 0.553643
0.0473793 0.0911116 0.256062
0.0985428 0.0914931 0.269154
0.188418 0.0881819 0.277913
0.309117 0.0792859 0.280766
0.443809 0.0705882 0.278447
0.585855 0.0678111 0.269062
0.712383 0.0717784 0.25449
0.799893 0.0856336 0.238071
0.856748 0.108217 0.229206
0.0382086 0.179782 0.276844
0.0996414 0.183948 0.303731
0.207706 0.186587 0.310399
0.335882 0.181918 0.308034
0.472282 0.17673 0.299046
0.612543 0.179782 0.285939
0.744564 0.186099 0.275074
0.852247 0.198138 0.267079
0.915709 0.220295 0.266407
0.0372778 0.288396 0.258381
0.102663 0.298497 0.299153
0.228077 0.302266 0.333074
0.36286 0.301793 0.333928
0.500893 0.301198 0.322576
0.636027 0.304311 0.309529
0.765393 0.308507 0.299947
0.882017 0.316823 0.295323
0.953658 0.331411 0.297444
0.0490578 0.396658 0.241138
0.12224 0.409537 0.280674
0.251575 0.418631 0.318868
0.392508 0.421714 0.353429
0.519753 0.424872 0.34847
0.651301 0.42742 0.335927
0.778363 0.430777 0.325612
0.894621 0.437842 0.31873
0.969238 0.448432 0.318303
0.0631418 0.512856 0.222599
0.144701 0.520195 0.258717
0.283192 0.524453 0.298802
0.428763 0.529274 0.347784
0.56408 0.531838 0.398383
0.679637 0.535332 0.405646
0.792218 0.547372 0.375418
0.901259 0.559228 0.357687
0.974563 0.57023 0.348455
0.08336 0.628046 0.210178
0.172274 0.625895 0.238499
0.303624 0.619364 0.273594
0.447028 0.624125 0.323873
0.588403 0.629664 0.378073
0.716655 0.632776 0.428794
0.825025 0.636271 0.450202
0.921416 0.654276 0.435554
0.982193 0.674571 0.411826
0.116777 0.734539 0.213581
0.209094 0.732647 0.230579
0.328923 0.719661 0.256626
0.461128 0.714504 0.295857
0.60032 0.717083 0.346242
0.733745 0.723583 0.402152
0.851789 0.729213 0.455161
0.94197 0.739559 0.489937
0.989639 0.757977 0.495613
0.18027 0.828305 0.244755
0.261784 0.831281 0.243
0.369635 0.824979 0.256962
0.492653 0.815702 0.285847
0.621134 0.808759 0.327535
0.749813 0.810132 0.384222
0.86595 0.820066 0.449973
0.949248 0.828855 0.510948
0.988968 0.839673 0.553918
0.263813 0.908888 0.294331
0.34464 0.911299 0.295171
0.439902 0.909911 0.300572
0.552361 0.903761 0.325154
0.670359 0.896437 0.36997
0.781842 0.892271 0.426078
0.881636 0.898695 0.491173
0.95375 0.908263 0.54931
0.990784 0.916075 0.597162
0.0454108 0.0879835 0.370092
0.0960403 0.0878004 0.388388
0.186007 0.0834516 0.401602
0.307408 0.0750286 0.408652
0.439597 0.0661631 0.411002
0.577386 0.0615549 0.410239
0.704295 0.0635996 0.399496
0.798825 0.0765545 0.377401
0.862348 0.0996567 0.355871
0.0364843 0.174533 0.410956
0.095491 0.17792 0.432456
0.201205 0.179767 0.439033
0.329091 0.175219 0.436377
0.460029 0.168231 0.430686
0.596643 0.164477 0.424887
0.735424 0.170306 0.419364
0.853834 0.184756 0.409522
0.925155 0.209003 0.397192
0.0326543 0.285206 0.404181
0.09691 0.290242 0.439673
0.218143 0.293645 0.459251
0.354009 0.294545 0.459876
0.485298 0.289296 0.454307
0.619944 0.285725 0.445884
0.759258 0.292973 0.438834
0.88484 0.305684 0.434867
0.962554 0.321965 0.431495
0.0391089 0.399313 0.376181
0.103929 0.408087 0.41355
0.227665 0.415976 0.454658
0.379507 0.418479 0.484672
0.51754 0.418036 0.484886
0.65388 0.417914 0.475242
0.783993 0.423606 0.465415
0.901015 0.432212 0.460105
0.976013 0.442542 0.456107
0.0496529 0.521431 0.352346
0.118822 0.529976 0.387259
0.246769 0.539635 0.425223
0.39295 0.549767 0.463645
0.536538 0.55378 0.496544
0.662379 0.557107 0.48986
0.787152 0.560189 0.479545
0.900908 0.56611 0.471626
0.976669 0.573404 0.465293
0.0666056 0.643366 0.335744
0.140764 0.649744 0.365454
0.270832 0.650355 0.397269
0.418936 0.654521 0.437507
0.567147 0.66067 0.486549
0.698619 0.663676 0.532769
0.805737 0.668513 0.534585
0.90631 0.682124 0.510369
0.977081 0.692348 0.493996
0.0972152 0.755276 0.332326
0.175494 0.761364 0.350195
0.297948 0.750362 0.372259
0.434516 0.742245 0.406668
0.579049 0.747799 0.457282
0.716762 0.754742 0.510231
0.835492 0.758999 0.555871
0.925566 0.76466 0.573907
0.98117 0.780331 0.559686
0.156069 0.851545 0.353719
0.230518 0.858167 0.353033
0.337255 0.849363 0.36379
0.458808 0.832807 0.387381
0.592584 0.828412 0.431128
0.728389 0.832807 0.488151
0.84799 0.841398 0.546365
0.936324 0.848524 0.596841
0.982376 0.855863 0.625818
0.241413 0.927169 0.39324
0.317235 0.929808 0.391959
0.408865 0.926253 0.394339
0.52166 0.915709 0.417502
0.641184 0.905943 0.459495
0.761288 0.905989 0.515282
0.867704 0.912947 0.572045
0.946151 0.922423 0.62327
0.98822 0.927214 0.66186
0.0444343 0.086244 0.473381
0.0941939 0.0852522 0.500572
0.185092 0.0804913 0.51754
0.307622 0.0724346 0.526177
0.439017 0.0647593 0.528923
0.570657 0.0603342 0.527031
0.690044 0.0615244 0.51754
0.783703 0.0724651 0.496818
0.854749 0.0927291 0.475074
0.0363622 0.172305 0.527321
0.0940108 0.175463 0.549477
0.197498 0.175448 0.555306
0.324956 0.170504 0.552026
0.455909 0.164584 0.546929
0.588693 0.159899 0.543328
0.721157 0.160739 0.54078
0.840726 0.172061 0.534432
0.921141 0.196338 0.520806
0.0328222 0.282673 0.535225
0.0954757 0.285603 0.560815
0.208988 0.286229 0.570016
0.343236 0.285786 0.569512
0.47454 0.281392 0.56434
0.604105 0.27509 0.558221
0.737224 0.274296 0.555581
0.871733 0.286931 0.558419
0.961395 0.306905 0.556924
0.0350347 0.399298 0.512505
0.0964828 0.403861 0.546578
0.217075 0.405051 0.576394
0.366384 0.406394 0.591424
0.506325 0.407691 0.59234
0.634363 0.401022 0.586404
0.764019 0.398474 0.580606
0.893629 0.411917 0.580758
0.976913 0.429053 0.581735
0.0420844 0.524834 0.483116
0.102937 0.532845 0.516136
0.219821 0.537865 0.548058
0.368414 0.544442 0.583169
0.525032 0.548424 0.608728
0.659312 0.547478 0.608637
0.78822 0.547738 0.600961
0.905455 0.557534 0.595834
0.979629 0.56669 0.592294
0.0580148 0.648798 0.464439
0.119753 0.65919 0.494362
0.23827 0.661128 0.521584
0.383124 0.670146 0.55465
0.533837 0.681773 0.588861
0.673411 0.686732 0.617197
0.793362 0.68954 0.610483
0.904097 0.694194 0.603296
0.977462 0.699168 0.596368
0.0867781 0.764569 0.45803
0.14847 0.777798 0.47863
0.265507 0.776196 0.500694
0.404715 0.775433 0.52845
0.555245 0.779873 0.563333
0.700282 0.786679 0.606165
0.821561 0.789914 0.649073
0.9122 0.796017 0.648463
0.974044 0.805722 0.625757
0.140917 0.865843 0.472297
0.204654 0.879774 0.478111
0.30811 0.877974 0.489158
0.434028 0.863416 0.506889
0.573404 0.855406 0.540246
0.716091 0.861845 0.589319
0.838941 0.868971 0.639857
0.928954 0.874266 0.687526
0.977111 0.879179 0.70576
0.224201 0.940597 0.501305
0.2963 0.945296 0.503426
0.385092 0.943694 0.505547
0.499077 0.931563 0.521416
0.624002 0.921111 0.555093
0.751339 0.92398 0.603693
0.86183 0.931365 0.655375
0.942702 0.939193 0.707027
0.986175 0.941985 0.745968
0.0457008 0.0867628 0.5402
0.0931258 0.0856031 0.584909
0.182925 0.080415 0.615991
0.305211 0.0725719 0.631434
0.433661 0.0661173 0.635569
0.559838 0.0630655 0.63035
0.670802 0.0652018 0.614542
0.762264 0.0747692 0.591608
0.840055 0.0910964 0.570962
0.039353 0.17203 0.616556
0.0946059 0.175433 0.657877
0.196902 0.175006 0.673396
0.324773 0.17026 0.672343
0.455344 0.164538 0.666194
0.586038 0.160388 0.66038
0.711467 0.159823 0.65388
0.823545 0.167605 0.642924
0.906828 0.188769 0.624491
0.0375372 0.280385 0.640879
0.0970016 0.284489 0.677989
0.206806 0.284138 0.689403
0.33698 0.280705 0.684932
0.467811 0.275639 0.677714
0.597742 0.270832 0.671656
0.727749 0.268544 0.669642
0.85481 0.274571 0.671611
0.950942 0.291356 0.669886
0.038529 0.396292 0.627604
0.0974136 0.401389 0.671199
0.213062 0.39855 0.69453
0.353338 0.395438 0.700648
0.491798 0.394842 0.699229
0.621118 0.390112 0.693248
0.744656 0.383215 0.686229
0.869551 0.386084 0.686976
0.969116 0.404883 0.695155
0.0433204 0.524025 0.597589
0.0971542 0.533318 0.637949
0.207324 0.531807 0.670069
0.355154 0.52903 0.698344
0.508339 0.531518 0.714641
0.645594 0.532769 0.715206
0.766964 0.524514 0.708293
0.885863 0.523491 0.703761
0.975494 0.541024 0.705516
0.0585336 0.649027 0.57612
0.108782 0.663111 0.609003
0.215534 0.664866 0.636545
0.354177 0.666331 0.665263
0.508003 0.67332 0.703227
0.662272 0.678523 0.731151
0.787701 0.676738 0.729946
0.903059 0.678981 0.722499
0.978912 0.688701 0.715328
0.0868849 0.76643 0.569238
0.135134 0.783932 0.59324
0.239597 0.787137 0.615473
0.372045 0.785718 0.63798
0.520699 0.794873 0.671077
0.669413 0.806256 0.708507
0.799634 0.810254 0.74078
0.903487 0.812696 0.731197
0.972564 0.814527 0.720424
0.135988 0.872221 0.579736
0.190524 0.889647 0.593805
0.282322 0.894881 0.607141
0.408225 0.888716 0.624109
0.552789 0.886366 0.65069
0.700069 0.888884 0.688121
0.827573 0.89276 0.736324
0.920501 0.89601 0.788647
0.971725 0.901793 0.787945
0.21416 0.947906 0.600977
0.283787 0.953887 0.608789
0.366537 0.955825 0.613626
0.482231 0.949065 0.626474
0.612757 0.940795 0.65127
0.743023 0.940566 0.6925
0.855695 0.947204 0.74612
0.939086 0.953674 0.801266
0.984512 0.956619 0.84448
0.0479133 0.088716 0.587579
0.0925917 0.0885023 0.639445
0.176547 0.0843671 0.688273
0.293217 0.0771954 0.719493
0.41709 0.0721294 0.731884
0.536767 0.0705425 0.725704
0.64448 0.0735485 0.706065
0.73846 0.0812238 0.682063
0.822461 0.093904 0.661814
0.0453346 0.173236 0.68098
0.0979324 0.177584 0.74342
0.195132 0.176761 0.786099
0.320302 0.171969 0.800702
0.44979 0.166934 0.800229
0.576989 0.163317 0.792462
0.696971 0.164172 0.779217
0.801999 0.171649 0.75642
0.886809 0.188708 0.730129
0.0475013 0.278645 0.724163
0.102983 0.283864 0.788052
0.207706 0.283848 0.823774
0.335973 0.280385 0.829923
0.467277 0.275303 0.825269
0.596765 0.270619 0.818189
0.723934 0.268528 0.813001
0.843336 0.27129 0.807431
0.936889 0.284001 0.796201
0.050782 0.391501 0.728099
0.105547 0.39794 0.798199
0.215015 0.396429 0.83653
0.348974 0.391455 0.843214
0.482429 0.386679 0.836744
0.611597 0.381247 0.828504
0.736828 0.376837 0.822507
0.858763 0.377142 0.822309
0.957839 0.38706 0.827451
0.0548562 0.518669 0.704204
0.102953 0.528862 0.769894
0.208072 0.527749 0.818433
0.347875 0.518486 0.838285
0.491249 0.514382 0.843275
0.627909 0.513848 0.841856
0.751675 0.508019 0.835126
0.865888 0.500938 0.828351
0.961654 0.505928 0.830594
0.0680858 0.64567 0.680629
0.110872 0.661509 0.730144
0.205295 0.6645 0.775006
0.338964 0.65687 0.80734
0.489921 0.652873 0.837552
0.64126 0.656611 0.855009
0.771237 0.65771 0.855161
0.880659 0.649622 0.847089
0.966827 0.648524 0.840757
0.093431 0.765484 0.669306
0.136233 0.783978 0.704158
0.223072 0.791257 0.737255
0.346426 0.787289 0.764324
0.488441 0.78761 0.79913
0.641825 0.794507 0.844083
0.787655 0.799496 0.871916
0.895384 0.797803 0.868193
0.96997 0.799283 0.855543
0.138262 0.873945 0.676646
0.190921 0.890867 0.700053
0.266728 0.900191 0.721736
0.383871 0.897414 0.742611
0.522545 0.893477 0.768444
0.670085 0.898329 0.809537
0.803738 0.904906 0.851102
0.905913 0.908751 0.883314
0.968536 0.911772 0.877668
0.20621 0.951934 0.692927
0.281987 0.95668 0.708324
0.358251 0.960128 0.719783
0.465492 0.957488 0.734539
0.595117 0.953033 0.75996
0.727855 0.9552 0.802365
0.844221 0.959457 0.848035
0.933165 0.965057 0.896056
0.981933 0.967712 0.932174
0.0486 0.089601 0.65864
0.0925154 0.0917678 0.69572
0.170336 0.0899825 0.749096
0.279057 0.0851759 0.78648
0.39501 0.0819409 0.804761
0.509377 0.0808881 0.806165
0.616693 0.0834974 0.795392
0.714809 0.0897078 0.779232
0.810788 0.0969253 0.770245
0.0505837 0.175036 0.752834
0.102953 0.181598 0.807309
0.19472 0.183154 0.851148
0.311879 0.180148 0.878813
0.435431 0.175845 0.890959
0.557473 0.173541 0.890333
0.672404 0.17528 0.87953
0.776242 0.18175 0.860655
0.86511 0.194522 0.839231
0.0578012 0.278431 0.8009
0.114443 0.285359 0.858808
0.213977 0.286564 0.906996
0.335042 0.283406 0.932311
0.464576 0.279057 0.940719
0.592432 0.274662 0.939986
0.715923 0.272725 0.935531
0.830243 0.275975 0.927489
0.920684 0.286687 0.912535
0.0652781 0.388205 0.820722
0.123384 0.39617 0.888167
0.225391 0.396246 0.937453
0.350851 0.39234 0.956741
0.482399 0.387533 0.959426
0.612222 0.38201 0.956786
0.736904 0.377813 0.95314
0.856291 0.377691 0.950957
0.950362 0.383368 0.949035
0.0705425 0.512947 0.813489
0.123919 0.522713 0.88426
0.220737 0.523568 0.939666
0.350072 0.516976 0.960525
0.486534 0.509682 0.962997
0.617792 0.503075 0.958968
0.742199 0.496468 0.954299
0.858946 0.492332 0.951492
0.955001 0.494179 0.953048
0.0814527 0.64065 0.794644
0.129458 0.654536 0.857527
0.213962 0.659113 0.918242
0.339467 0.652125 0.948852
0.480308 0.640421 0.958419
0.621347 0.635981 0.960433
0.751736 0.635233 0.95935
0.865354 0.629313 0.955627
0.953582 0.62182 0.950637
0.103197 0.762402 0.781216
0.151934 0.778592 0.830045
0.224201 0.78819 0.881987
0.335119 0.786145 0.91841
0.47068 0.775845 0.939681
0.620447 0.771298 0.957153
0.764752 0.776257 0.964889
0.879438 0.778912 0.963195
0.956344 0.773083 0.9552
0.138842 0.874891 0.784436
0.200595 0.887831 0.818921
0.267155 0.898619 0.855741
0.366995 0.899199 0.885527
0.496925 0.891386 0.904921
0.641764 0.890761 0.930205
0.783352 0.895613 0.956298
0.898772 0.901778 0.968109
0.964767 0.903639 0.966949
0.193698 0.954986 0.795773
0.288182 0.955642 0.818219
0.363958 0.958999 0.839384
0.454887 0.959182 0.858549
0.574014 0.955444 0.879255
0.705577 0.957702 0.911879
0.824537 0.963836 0.943709
0.918791 0.970764 0.967651
0.976577 0.974029 0.981231
