Camo Studio.app/Contents/Resources/CamoContent_CamoContent.bundle/Contents/Resources/70S_ANALOG.cube
TITLE "Generated by Resolve"
LUT_3D_SIZE 5
0.0541238 0.0905318 0.0337682
0.181125 0.0958419 0.0307164
0.42327 0.0870069 0.0171969
0.646906 0.0910964 0.0134432
0.797848 0.117769 0.0209049
0.0778515 0.259236 0.0261387
0.289189 0.266987 0.0632181
0.527886 0.274144 0.0683604
0.748928 0.296818 0.0496529
0.888899 0.333791 0.0696727
0.123476 0.452171 0.0252232
0.367483 0.451164 0.0580301
0.638315 0.46038 0.113664
0.854627 0.483299 0.165545
0.963851 0.533242 0.192447
0.215137 0.664546 0.0440528
0.441917 0.668544 0.0626078
0.699825 0.674632 0.114885
0.909361 0.693019 0.22649
0.992386 0.724392 0.330388
0.337636 0.860716 0.0921187
0.547494 0.862425 0.130648
0.760952 0.865614 0.208713
0.924193 0.881178 0.342687
0.994034 0.899168 0.461112
0.0488899 0.0935683 0.148135
0.190051 0.0919356 0.160739
0.448661 0.0790723 0.140581
0.70425 0.0805676 0.118257
0.83859 0.115007 0.119661
0.047364 0.287648 0.132097
0.240833 0.302861 0.199451
0.496559 0.307622 0.184329
0.756497 0.312612 0.163012
0.93402 0.33756 0.176776
0.0822309 0.491936 0.114229
0.313222 0.497032 0.190066
0.585931 0.503288 0.290608
0.814054 0.520272 0.299855
0.973648 0.559686 0.269169
0.143618 0.708263 0.122072
0.36492 0.701442 0.161379
0.629908 0.695369 0.247181
0.87953 0.712917 0.359915
0.993942 0.742138 0.429328
0.290669 0.89012 0.211124
0.47747 0.894118 0.226841
0.70457 0.886488 0.295277
0.902541 0.89279 0.425376
0.991714 0.909987 0.553643
0.0454108 0.0879835 0.370092
0.186007 0.0834516 0.401602
0.439597 0.0661631 0.411002
0.704295 0.0635996 0.399496
0.862348 0.0996567 0.355871
0.0326543 0.285206 0.404181
0.218143 0.293645 0.459251
0.485298 0.289296 0.454307
0.759258 0.292973 0.438834
0.962554 0.321965 0.431495
0.0496529 0.521431 0.352346
0.246769 0.539635 0.425223
0.536538 0.55378 0.496544
0.787152 0.560189 0.479545
0.976669 0.573404 0.465293
0.0972152 0.755276 0.332326
0.297948 0.750362 0.372259
0.579049 0.747799 0.457282
0.835492 0.758999 0.555871
0.98117 0.780331 0.559686
0.241413 0.927169 0.39324
0.408865 0.926253 0.394339
0.641184 0.905943 0.459495
0.867704 0.912947 0.572045
0.98822 0.927214 0.66186
0.0457008 0.0867628 0.5402
0.182925 0.080415 0.615991
0.433661 0.0661173 0.635569
0.670802 0.0652018 0.614542
0.840055 0.0910964 0.570962
0.0375372 0.280385 0.640879
0.206806 0.284138 0.689403
0.467811 0.275639 0.677714
0.727749 0.268544 0.669642
0.950942 0.291356 0.669886
0.0433204 0.524025 0.597589
0.207324 0.531807 0.670069
0.508339 0.531518 0.714641
0.766964 0.524514 0.708293
0.975494 0.541024 0.705516
0.0868849 0.76643 0.569238
0.239597 0.787137 0.615473
0.520699 0.794873 0.671077
0.799634 0.810254 0.74078
0.972564 0.814527 0.720424
0.21416 0.947906 0.600977
0.366537 0.955825 0.613626
0.612757 0.940795 0.65127
0.855695 0.947204 0.74612
0.984512 0.956619 0.84448
0.0486 0.089601 0.65864
0.170336 0.0899825 0.749096
0.39501 0.0819409 0.804761
0.616693 0.0834974 0.795392
0.810788 0.0969253 0.770245
0.0578012 0.278431 0.8009
0.213977 0.286564 0.906996
0.464576 0.279057 0.940719
0.715923 0.272725 0.935531
0.920684 0.286687 0.912535
0.0705425 0.512947 0.813489
0.220737 0.523568 0.939666
0.486534 0.509682 0.962997
0.742199 0.496468 0.954299
0.955001 0.494179 0.953048
0.103197 0.762402 0.781216
0.224201 0.78819 0.881987
0.47068 0.775845 0.939681
0.764752 0.776257 0.964889
0.956344 0.773083 0.9552
0.193698 0.954986 0.795773
0.363958 0.958999 0.839384
0.574014 0.955444 0.879255
0.824537 0.963836 0.943709
0.976577 0.974029 0.981231
