Camo Studio.app/Contents/Resources/CamoContent_CamoContent.bundle/Contents/Resources/70S_ANALOG.cube
TITLE "Generated by Resolve"
LUT_3D_SIZE 33
0.0541238 0.0905318 0.0337682
0.0650645 0.0909743 0.0364843
0.0764477 0.0915236 0.0395361
0.08748 0.0930495 0.0393225
0.100328 0.0948653 0.0372931
0.115267 0.0956741 0.035462
0.133516 0.0961929 0.0339666
0.155825 0.0962234 0.0324254
0.181125 0.0958419 0.0307164
0.208515 0.0952163 0.0290074
0.236637 0.094255 0.0272984
0.265736 0.0931868 0.0255436
0.295705 0.0920272 0.0237888
0.326238 0.0906233 0.0219883
0.358175 0.0894789 0.0203555
0.390433 0.0881971 0.0187228
0.42327 0.0870069 0.0171969
0.45597 0.0859846 0.0158389
0.488365 0.0850996 0.0146181
0.520043 0.084596 0.0136721
0.550393 0.0846571 0.0130465
0.578439 0.0852674 0.0126345
0.603983 0.0865797 0.0125429
0.626795 0.0885481 0.0128481
0.646906 0.0910964 0.0134432
0.665324 0.0942702 0.0143435
0.682933 0.0978561 0.0154269
0.699947 0.101518 0.0165713
0.716655 0.105165 0.017731
0.733623 0.108949 0.0189364
0.750698 0.112734 0.0201724
0.771756 0.115724 0.0208743
0.797848 0.117769 0.0209049
0.0568856 0.108598 0.0337987
0.0682078 0.108934 0.0365148
0.0801404 0.10901 0.0395666
0.0930648 0.10985 0.0427253
0.106676 0.111086 0.0430457
0.122026 0.112688 0.0405737
0.140536 0.113954 0.0377356
0.163333 0.114534 0.0352941
0.189731 0.114504 0.0331121
0.216907 0.113741 0.030808
0.245609 0.113024 0.0286412
0.275364 0.112184 0.0266575
0.306264 0.111269 0.0248417
0.338247 0.110567 0.0231327
0.370611 0.109712 0.0214694
0.403281 0.108721 0.0198367
0.436393 0.10782 0.0183413
0.469642 0.107164 0.0170291
0.502358 0.106798 0.0159457
0.534661 0.10695 0.0151217
0.565316 0.107332 0.0145418
0.59382 0.108125 0.0141909
0.619791 0.109575 0.0141756
0.642954 0.111696 0.0145418
0.6636 0.114534 0.0153048
0.682078 0.11809 0.0163882
0.699458 0.122118 0.0177462
0.715969 0.12607 0.0191043
0.732418 0.13019 0.0205539
0.748837 0.13431 0.022034
0.765301 0.138598 0.0234989
0.782681 0.142794 0.0250095
0.808255 0.145266 0.0251469
0.0593729 0.127047 0.0331121
0.0713054 0.127733 0.035935
0.0843061 0.128328 0.0392615
0.0982986 0.129137 0.0426947
0.114214 0.129686 0.0459144
0.131823 0.130663 0.0465248
0.151949 0.131746 0.0443275
0.175082 0.132876 0.0409247
0.200977 0.133562 0.0375372
0.228367 0.133913 0.0345464
0.257191 0.133913 0.0318761
0.287083 0.133791 0.0295415
0.318196 0.133379 0.0273594
0.350256 0.133165 0.0255436
0.382803 0.132784 0.0238346
0.415656 0.132464 0.0222171
0.448615 0.132158 0.020737
0.481971 0.131884 0.019379
0.514687 0.131945 0.018265
0.546761 0.132235 0.0173953
0.577173 0.132723 0.0167239
0.60592 0.133639 0.0163272
0.632441 0.135149 0.0163272
0.656046 0.137453 0.0167086
0.677134 0.140551 0.0175784
0.696025 0.144427 0.0188449
0.713268 0.148547 0.0203403
0.729839 0.15288 0.0219425
0.745998 0.157305 0.023621
0.76228 0.161761 0.0253605
0.778759 0.166354 0.0270695
0.795178 0.170947 0.0288396
0.818036 0.174212 0.029572
0.0619974 0.147692 0.0321813
0.0746624 0.148653 0.0351415
0.0886244 0.149416 0.0385138
0.103609 0.14995 0.0419318
0.121233 0.150652 0.0456855
0.142336 0.150973 0.0489967
0.165972 0.151736 0.0501869
0.190677 0.152605 0.0482795
0.216388 0.153628 0.0449073
0.243244 0.154711 0.0411078
0.271305 0.155825 0.0377356
0.301183 0.156786 0.0347753
0.331655 0.157565 0.0321813
0.362936 0.157824 0.0298314
0.39501 0.157946 0.0276341
0.427237 0.158083 0.025864
0.459632 0.158221 0.0241703
0.492699 0.158511 0.0226749
0.5252 0.158923 0.0214847
0.556893 0.159274 0.0204013
0.586984 0.160067 0.0196384
0.615869 0.161196 0.0191653
0.642695 0.162783 0.0190738
0.667109 0.16524 0.019501
0.688731 0.168551 0.0204318
0.707759 0.172137 0.0216678
0.725307 0.176196 0.0233005
0.742306 0.180346 0.0250401
0.758801 0.18468 0.0268406
0.77525 0.189258 0.0288548
0.791928 0.193988 0.0310826
0.808011 0.198489 0.0331273
0.827497 0.202289 0.0345769
0.0641794 0.169162 0.0305943
0.0775311 0.170275 0.0336309
0.0926986 0.171359 0.037171
0.109529 0.172625 0.0411231
0.129442 0.17377 0.0452277
0.153079 0.173922 0.0491646
0.179553 0.173663 0.0526284
0.206012 0.173953 0.0539559
0.232822 0.174838 0.0528725
0.260426 0.176501 0.0500496
0.288029 0.178195 0.0463111
0.316609 0.179583 0.0426184
0.346029 0.180789 0.0391089
0.376257 0.181842 0.0359503
0.407218 0.182681 0.0332189
0.438651 0.183505 0.0308843
0.470878 0.184375 0.0289921
0.502876 0.18497 0.0271305
0.534493 0.185611 0.0256504
0.56582 0.186236 0.0243534
0.595575 0.187274 0.0234073
0.624491 0.188678 0.0228122
0.651942 0.190661 0.0227512
0.676799 0.192996 0.0230411
0.699184 0.195773 0.0238041
0.719265 0.199145 0.0251011
0.737392 0.203006 0.0267948
0.754788 0.207248 0.0286564
0.771908 0.21178 0.03093
0.788251 0.216312 0.0331121
0.804669 0.220645 0.0354925
0.820783 0.225223 0.0378119
0.837049 0.229694 0.0402533
0.0667124 0.191455 0.0290532
0.0811475 0.193057 0.0323186
0.0974746 0.194583 0.0360266
0.115801 0.195895 0.0400244
0.137606 0.197009 0.0443885
0.16376 0.197543 0.048661
0.192355 0.197284 0.0530556
0.220981 0.197238 0.0569467
0.24918 0.197528 0.0587167
0.276967 0.198322 0.0582742
0.304784 0.199557 0.0560464
0.333089 0.201038 0.0524453
0.361913 0.20267 0.0484779
0.39147 0.20441 0.0447089
0.421378 0.205875 0.0413367
0.451713 0.207507 0.0383459
0.482673 0.208637 0.0357671
0.513909 0.209689 0.033463
0.544884 0.210849 0.0314031
0.575769 0.212253 0.0298619
0.605539 0.213626 0.0286259
0.63473 0.215244 0.0278019
0.661967 0.216983 0.0274815
0.687358 0.219287 0.0275273
0.710262 0.222141 0.0281224
0.731228 0.225483 0.0294041
0.750195 0.22945 0.0311284
0.767926 0.233448 0.0331884
0.785046 0.237964 0.0356603
0.801434 0.242374 0.0381018
0.817517 0.246921 0.0407263
0.833738 0.251606 0.0434424
0.850034 0.256321 0.046067
0.0696574 0.213703 0.0275578
0.0851148 0.215808 0.0311437
0.102739 0.217685 0.035111
0.122881 0.219532 0.0394903
0.147219 0.2206 0.0439612
0.175036 0.221134 0.0484321
0.204379 0.221073 0.0530861
0.234745 0.220783 0.0577096
0.263813 0.220462 0.0616159
0.292607 0.220615 0.0638132
0.320943 0.221439 0.0640726
0.349615 0.222492 0.0623178
0.378393 0.223941 0.0593729
0.407156 0.225772 0.0557259
0.436759 0.227634 0.0518807
0.46656 0.229755 0.0482185
0.496406 0.231662 0.0447852
0.526741 0.233387 0.041886
0.557519 0.234943 0.0393683
0.587335 0.236637 0.0372015
0.61709 0.238376 0.0354162
0.645914 0.240253 0.034165
0.673182 0.242329 0.0334325
0.698909 0.245045 0.033341
0.722255 0.247898 0.0337377
0.743847 0.251164 0.0348821
0.763165 0.255085 0.0366369
0.781201 0.259281 0.038819
0.798276 0.263584 0.0413214
0.814755 0.268376 0.0442054
0.831037 0.272953 0.0469368
0.846845 0.277623 0.049836
0.862837 0.282292 0.0529335
0.0735943 0.236759 0.0266728
0.0898756 0.238972 0.0304265
0.108659 0.240894 0.0344396
0.130129 0.242527 0.0388037
0.156252 0.243519 0.0434272
0.185824 0.244007 0.0479591
0.216098 0.244465 0.0530251
0.246403 0.244327 0.0578775
0.277363 0.243763 0.0627146
0.306859 0.243473 0.0667582
0.336202 0.243519 0.0691539
0.365133 0.244205 0.0698711
0.394339 0.245365 0.0690929
0.423636 0.247028 0.066865
0.45275 0.248829 0.0636301
0.481941 0.250919 0.0599222
0.511543 0.253101 0.0561379
0.541573 0.255253 0.0524758
0.571527 0.257588 0.0491493
0.601434 0.260075 0.0465248
0.630549 0.262242 0.0441291
0.658778 0.264469 0.0425269
0.685893 0.266896 0.0412299
0.711543 0.269505 0.0406653
0.735058 0.272587 0.0407874
0.756741 0.276051 0.0416266
0.776883 0.280262 0.0435035
0.79498 0.284611 0.0455634
0.811749 0.289082 0.0483253
0.828107 0.293736 0.0511635
0.844099 0.298375 0.0544137
0.86009 0.303273 0.0575723
0.875975 0.308309 0.060853
0.0778515 0.259236 0.0261387
0.0950637 0.261524 0.0298466
0.115053 0.263493 0.0340124
0.138125 0.26508 0.0383917
0.165759 0.26598 0.0429541
0.196292 0.266545 0.0477607
0.227054 0.266835 0.0527962
0.25803 0.266957 0.0578927
0.289189 0.266987 0.0632181
0.320363 0.266484 0.0682536
0.350698 0.266163 0.0723735
0.380423 0.266346 0.0752728
0.409888 0.267063 0.0763714
0.439399 0.268193 0.0759899
0.468849 0.269871 0.0746014
0.498329 0.271855 0.0718242
0.527886 0.274144 0.0683604
0.557412 0.276692 0.0648508
0.587182 0.279286 0.0613565
0.61622 0.282094 0.0581216
0.64509 0.284627 0.0552377
0.672953 0.287327 0.0526589
0.69955 0.290349 0.0509041
0.725155 0.293492 0.0498817
0.748928 0.296818 0.0496529
0.771069 0.300679 0.0502174
0.79057 0.304738 0.0518196
0.808499 0.309209 0.0540169
0.825345 0.313954 0.0567178
0.84152 0.319036 0.0598306
0.857374 0.323888 0.0630808
0.873259 0.328771 0.0663157
0.888899 0.333791 0.0696727
0.0824292 0.281575 0.0256809
0.100435 0.283833 0.0294652
0.121523 0.285771 0.0337072
0.146242 0.287251 0.0380102
0.175448 0.288197 0.04271
0.206394 0.288624 0.047425
0.237507 0.289036 0.0527199
0.269184 0.289326 0.0579538
0.300511 0.289464 0.0632334
0.332219 0.289403 0.0685893
0.364263 0.288991 0.0738842
0.39498 0.28896 0.0784161
0.42501 0.289174 0.0814527
0.454765 0.289876 0.0831006
0.484459 0.291081 0.0832837
0.514107 0.292775 0.0822156
0.544182 0.295125 0.0803693
0.573816 0.297856 0.0777142
0.603449 0.300679 0.0744793
0.632425 0.303563 0.0711681
0.660548 0.306645 0.0678416
0.687953 0.309712 0.0650187
0.714412 0.312947 0.0628672
0.73959 0.31635 0.0611887
0.763165 0.320104 0.060502
0.784955 0.324559 0.0608988
0.804791 0.328908 0.062089
0.822507 0.333669 0.0641794
0.839048 0.338613 0.0666819
0.85507 0.343679 0.0696727
0.870512 0.348837 0.0727245
0.88629 0.35407 0.0762493
0.901106 0.359457 0.0797436
0.0871138 0.303853 0.0252842
0.10605 0.306127 0.0292515
0.128176 0.308003 0.0333257
0.154391 0.309545 0.0377508
0.184421 0.310185 0.0421759
0.215778 0.310597 0.0469062
0.247623 0.311009 0.0522164
0.279454 0.311513 0.0576486
0.311437 0.311833 0.0631571
0.343587 0.312016 0.068513
0.376028 0.31194 0.0741894
0.408133 0.311894 0.0798199
0.439292 0.311727 0.0844282
0.469551 0.312093 0.0878309
0.499809 0.312932 0.0900587
0.529732 0.314366 0.0909438
0.55964 0.316304 0.0905776
0.589807 0.318914 0.0891737
0.61944 0.321813 0.0873426
0.648249 0.32491 0.0846113
0.676387 0.328237 0.081529
0.70367 0.331548 0.0787976
0.729732 0.335164 0.0762646
0.754696 0.339117 0.0744335
0.778241 0.343175 0.0731975
0.799283 0.347692 0.0729686
0.818723 0.352407 0.0738537
0.836103 0.357595 0.0753796
0.852811 0.362936 0.0781872
0.868681 0.368399 0.0809796
0.884199 0.37377 0.0841688
0.898741 0.379324 0.0874037
0.912459 0.384558 0.090837
0.0922713 0.326192 0.0250858
0.111833 0.328206 0.0289158
0.135348 0.330327 0.0330816
0.162585 0.331624 0.0372473
0.193256 0.332158 0.0416419
0.225086 0.332494 0.0463111
0.25713 0.332876 0.0515908
0.289311 0.333471 0.0570687
0.321645 0.334081 0.0626993
0.354543 0.33463 0.0683909
0.387274 0.334707 0.074052
0.419821 0.3346 0.0799573
0.45243 0.334646 0.085771
0.483711 0.334798 0.0907607
0.514275 0.335409 0.0946822
0.544717 0.336629 0.0975509
0.575082 0.33846 0.0991989
0.605478 0.340642 0.0996872
0.634638 0.34342 0.0989853
0.663615 0.34638 0.0974899
0.69192 0.349508 0.0953536
0.718868 0.35314 0.0928206
0.745037 0.356863 0.0905318
0.769894 0.361227 0.0887922
0.792844 0.365866 0.0874495
0.814054 0.370626 0.0871748
0.832929 0.375814 0.0876631
0.850309 0.381308 0.0890211
0.866316 0.386954 0.0910048
0.882063 0.392721 0.0937209
0.896666 0.398474 0.0966506
0.91046 0.403983 0.0999771
0.92314 0.409873 0.103349
0.0977493 0.349187 0.0249943
0.118318 0.351125 0.0287938
0.142626 0.35259 0.0327611
0.171191 0.353765 0.036759
0.201923 0.354269 0.041062
0.233921 0.354589 0.0456245
0.266285 0.354925 0.0508583
0.298772 0.35552 0.0563973
0.331792 0.356359 0.0621958
0.364889 0.357 0.0679637
0.398062 0.357443 0.0738079
0.430976 0.357671 0.0797894
0.464057 0.357671 0.0858778
0.496437 0.35787 0.0920882
0.528298 0.358419 0.0976577
0.559228 0.359548 0.102235
0.590005 0.361044 0.105653
0.620096 0.363134 0.107988
0.649882 0.365591 0.109087
0.678782 0.36846 0.109209
0.706889 0.371633 0.108568
0.734234 0.375128 0.107301
0.760143 0.379217 0.105516
0.784451 0.38349 0.104036
0.807263 0.388174 0.102815
0.827939 0.393271 0.102464
0.846525 0.398962 0.10309
0.863905 0.404868 0.104265
0.87985 0.410819 0.106279
0.894881 0.41709 0.108721
0.908476 0.423041 0.111391
0.921233 0.428962 0.114199
0.932906 0.43476 0.11722
0.103609 0.373312 0.0249485
0.124666 0.374777 0.0285496
0.15024 0.37583 0.0322881
0.179248 0.376608 0.0360876
0.210117 0.377127 0.0403143
0.242344 0.377264 0.0447852
0.274876 0.377523 0.0498054
0.308034 0.378149 0.0554971
0.341192 0.378866 0.0611582
0.374472 0.37969 0.0671244
0.407828 0.380438 0.0730755
0.441459 0.380926 0.0793317
0.474907 0.381292 0.0855421
0.507942 0.381613 0.0922255
0.540841 0.382162 0.0989242
0.572656 0.382925 0.104845
0.6038 0.38436 0.109972
0.634424 0.386221 0.114366
0.664042 0.388586 0.117449
0.693065 0.391257 0.119493
0.720989 0.394308 0.120653
0.748348 0.397879 0.120897
0.774182 0.401755 0.120455
0.798428 0.406119 0.119768
0.820752 0.411002 0.119234
0.841123 0.416388 0.119219
0.859556 0.422187 0.119814
0.876982 0.428092 0.121172
0.892592 0.434577 0.122957
0.906447 0.440925 0.125231
0.919158 0.447227 0.127855
0.930831 0.45362 0.130343
0.941878 0.459907 0.133288
0.110079 0.398627 0.0250248
0.131991 0.399496 0.0284733
0.158587 0.400046 0.0320134
0.187732 0.400336 0.0356756
0.218463 0.400519 0.0396429
0.250919 0.400717 0.0439918
0.283742 0.4009 0.0491035
0.316838 0.401266 0.0544747
0.35021 0.401877 0.0602884
0.383795 0.402777 0.0661479
0.417624 0.403754 0.072282
0.451331 0.404608 0.0785687
0.4851 0.405325 0.0849928
0.518685 0.40618 0.0918593
0.552209 0.40676 0.0989853
0.584909 0.407599 0.106157
0.616663 0.408759 0.11281
0.647379 0.4103 0.1187
0.677394 0.412222 0.123522
0.70605 0.414725 0.127382
0.734234 0.417746 0.130297
0.76144 0.421103 0.132586
0.78706 0.424964 0.133928
0.811002 0.429419 0.134783
0.833448 0.434272 0.135912
0.853437 0.439841 0.13666
0.872114 0.445655 0.137926
0.889006 0.452277 0.139406
0.903822 0.458701 0.141421
0.917174 0.465156 0.143832
0.928786 0.47187 0.14609
0.939773 0.478294 0.148745
0.94995 0.484703 0.151171
0.11667 0.424826 0.0250553
0.140032 0.425635 0.0284428
0.167605 0.425696 0.0318456
0.196628 0.42562 0.0353246
0.227375 0.425345 0.0390784
0.259464 0.425223 0.0434577
0.292226 0.425162 0.0481422
0.325521 0.425422 0.0535286
0.359045 0.42591 0.0592355
0.39292 0.426734 0.0651408
0.426917 0.427787 0.0713359
0.460868 0.428931 0.0777295
0.494865 0.430137 0.0843977
0.528878 0.431205 0.0913252
0.562676 0.432166 0.0986191
0.596078 0.433112 0.10634
0.628305 0.434211 0.114092
0.659419 0.435569 0.121172
0.68957 0.437171 0.12784
0.718761 0.439567 0.133608
0.746578 0.442267 0.138537
0.773449 0.445426 0.142504
0.798962 0.449027 0.146151
0.822507 0.453407 0.148882
0.844343 0.458381 0.151278
0.864698 0.463691 0.154009
0.883055 0.469718 0.156451
0.899382 0.476066 0.158984
0.913451 0.482567 0.161685
0.925917 0.489342 0.163668
0.937316 0.49604 0.166384
0.947829 0.502815 0.169146
0.957458 0.509285 0.171313
0.123476 0.452171 0.0252232
0.147997 0.452628 0.0283207
0.176165 0.452537 0.0315557
0.205722 0.452522 0.03505
0.236408 0.45214 0.0387274
0.268162 0.451713 0.0428626
0.300847 0.451179 0.0473487
0.333898 0.45098 0.0524605
0.367483 0.451164 0.0580301
0.401465 0.451835 0.0638743
0.435508 0.452903 0.0700542
0.469856 0.454368 0.0765087
0.503975 0.455726 0.083299
0.538293 0.457023 0.0901656
0.572015 0.458259 0.0976425
0.605386 0.459388 0.105348
0.638315 0.46038 0.113664
0.669902 0.461601 0.122118
0.700435 0.463157 0.130266
0.729625 0.465324 0.137819
0.757824 0.467826 0.144701
0.784573 0.470756 0.150729
0.809491 0.474372 0.156039
0.833036 0.478431 0.161379
0.854627 0.483299 0.165545
0.874952 0.488579 0.170092
0.892958 0.494499 0.174121
0.908766 0.500542 0.177935
0.922225 0.507057 0.181353
0.934218 0.513542 0.184726
0.944976 0.520211 0.18764
0.955108 0.526741 0.189792
0.963851 0.533242 0.192447
0.130816 0.479469 0.025452
0.156603 0.480201 0.0284428
0.185138 0.480095 0.0314946
0.214527 0.479957 0.0347753
0.245243 0.4795 0.0383307
0.277073 0.479103 0.0424201
0.309804 0.478584 0.0467689
0.342931 0.478141 0.0518349
0.376623 0.478065 0.057145
0.410468 0.478477 0.0630045
0.444572 0.479408 0.0690166
0.47892 0.480842 0.0756542
0.512978 0.482292 0.0822614
0.547356 0.483635 0.089189
0.581033 0.484993 0.0966964
0.614313 0.48629 0.104402
0.647272 0.487419 0.112917
0.679423 0.488609 0.121965
0.710597 0.490013 0.131304
0.739666 0.491783 0.140032
0.767803 0.493858 0.148501
0.794232 0.496651 0.156573
0.819043 0.500023 0.163973
0.842466 0.503807 0.171588
0.863935 0.508385 0.177996
0.88394 0.513634 0.184054
0.901656 0.519371 0.190555
0.916838 0.525338 0.195468
0.930022 0.531441 0.20087
0.941695 0.537835 0.204761
0.952087 0.544289 0.20827
0.961471 0.550683 0.211505
0.969558 0.557427 0.214313
0.139208 0.507103 0.0260471
0.165667 0.507469 0.0287633
0.194156 0.507439 0.0315862
0.223774 0.507683 0.0348821
0.254368 0.50724 0.0382544
0.286 0.506645 0.0421302
0.318441 0.50602 0.0462196
0.351843 0.505394 0.0510872
0.385473 0.505318 0.0564431
0.419471 0.505699 0.062211
0.453635 0.506523 0.0682536
0.487694 0.507652 0.0746471
0.521935 0.50901 0.0812543
0.556054 0.510384 0.088365
0.589578 0.511772 0.0956588
0.622827 0.513252 0.1037
0.65568 0.514549 0.112108
0.687785 0.515877 0.121355
0.719417 0.517174 0.131289
0.748943 0.518807 0.141314
0.777173 0.520684 0.151522
0.803464 0.523201 0.161318
0.828122 0.526345 0.170825
0.851331 0.530007 0.180133
0.872877 0.534325 0.188952
0.8925 0.539223 0.196933
0.909392 0.544381 0.204547
0.923964 0.550088 0.2112
0.936812 0.555871 0.217716
0.947951 0.562036 0.222751
0.958221 0.568078 0.227817
0.966918 0.574533 0.231373
0.974487 0.581109 0.234836
0.148363 0.534295 0.0270237
0.175509 0.535012 0.0296025
0.204288 0.535149 0.0323033
0.233005 0.535119 0.0352178
0.263493 0.534676 0.038468
0.295247 0.53431 0.0422065
0.327657 0.53373 0.0462196
0.360906 0.533059 0.0508278
0.394263 0.532692 0.0560006
0.428092 0.532799 0.0614633
0.46215 0.533379 0.0675059
0.496223 0.534295 0.0736553
0.530221 0.535546 0.0803693
0.564294 0.53695 0.0873426
0.597772 0.538445 0.0948196
0.630991 0.53991 0.10277
0.66363 0.541497 0.11133
0.695476 0.542947 0.120714
0.726894 0.544244 0.130602
0.756863 0.545739 0.141558
0.785351 0.547539 0.153185
0.811597 0.549935 0.164416
0.836255 0.55285 0.175708
0.859297 0.556329 0.186969
0.880842 0.56051 0.197696
0.900053 0.565087 0.207614
0.916381 0.570001 0.216922
0.930571 0.575235 0.225483
0.943038 0.580804 0.232975
0.953918 0.586572 0.239445
0.963546 0.592462 0.24538
0.971832 0.598688 0.250385
0.978897 0.604913 0.254765
0.159228 0.561395 0.0287327
0.186114 0.56199 0.0308843
0.21445 0.562264 0.0333257
0.243183 0.562615 0.0362097
0.273487 0.562234 0.0391852
0.304662 0.561685 0.0426337
0.33669 0.561151 0.0464179
0.369863 0.560479 0.0508583
0.403418 0.560388 0.0560616
0.437064 0.560327 0.0614023
0.470863 0.560616 0.067155
0.504784 0.561349 0.0732891
0.538842 0.562402 0.079881
0.572534 0.56379 0.0868086
0.606104 0.565255 0.0943465
0.639124 0.566766 0.102434
0.671458 0.568536 0.111101
0.703319 0.569986 0.1205
0.734203 0.571527 0.130465
0.764218 0.573083 0.141726
0.792813 0.574807 0.154284
0.81912 0.577111 0.166979
0.843702 0.579797 0.179858
0.866789 0.583078 0.192721
0.887831 0.586831 0.204974
0.906416 0.590967 0.216403
0.922438 0.595544 0.227161
0.936294 0.600412 0.23711
0.948241 0.605676 0.24596
0.959136 0.610956 0.253849
0.968246 0.616785 0.261357
0.976013 0.622675 0.26717
0.982574 0.628656 0.272221
0.171313 0.587839 0.0311437
0.198123 0.588861 0.033051
0.225574 0.589364 0.0352178
0.253697 0.589578 0.0376745
0.283513 0.58938 0.0403906
0.314717 0.589151 0.0437934
0.346334 0.588739 0.0473182
0.379202 0.588037 0.0515297
0.41239 0.587732 0.0563516
0.445777 0.587488 0.0615702
0.479454 0.587594 0.0671092
0.513054 0.588174 0.0731365
0.547005 0.589197 0.0796826
0.580392 0.590417 0.0865949
0.613809 0.591791 0.0941176
0.646693 0.593545 0.102235
0.678676 0.595254 0.110826
0.710323 0.59678 0.120317
0.740856 0.598413 0.13051
0.770581 0.600107 0.142031
0.799283 0.602106 0.155032
0.825696 0.604318 0.168994
0.850645 0.607034 0.183642
0.873564 0.610086 0.197803
0.894331 0.613504 0.211322
0.912383 0.617258 0.224155
0.927962 0.621515 0.23621
0.941573 0.626078 0.247669
0.953368 0.630869 0.257939
0.963699 0.635859 0.267124
0.972351 0.641337 0.275319
0.979721 0.646906 0.282383
0.985794 0.652491 0.288762
0.185168 0.613962 0.034638
0.210666 0.615015 0.0361028
0.237507 0.615702 0.0378729
0.265446 0.616403 0.0399786
0.294484 0.61648 0.0425422
0.325078 0.616205 0.0453498
0.356359 0.615717 0.0488594
0.388724 0.615396 0.052903
0.42182 0.615091 0.0575113
0.454871 0.614801 0.062501
0.488228 0.614786 0.0678721
0.521645 0.615183 0.0737774
0.555245 0.615946 0.0801709
0.588617 0.617105 0.0870527
0.621836 0.618677 0.0946822
0.654124 0.620325 0.102739
0.686183 0.621958 0.111376
0.717205 0.623713 0.120974
0.7476 0.625406 0.131411
0.777005 0.627131 0.143252
0.804974 0.629129 0.156359
0.831388 0.631357 0.170932
0.856397 0.633936 0.186725
0.879545 0.636759 0.201923
0.899947 0.640009 0.216754
0.917571 0.643442 0.230915
0.932937 0.647288 0.24416
0.946151 0.651484 0.256672
0.957855 0.655833 0.267903
0.967742 0.660746 0.278538
0.976043 0.666056 0.287846
0.982986 0.671092 0.296376
0.988556 0.676493 0.30341
0.199603 0.639384 0.038819
0.225025 0.640879 0.0400702
0.250935 0.641871 0.0415808
0.277729 0.642603 0.0433814
0.306081 0.642878 0.0454261
0.336461 0.642893 0.0482643
0.367437 0.642802 0.0516213
0.399054 0.642359 0.0552834
0.431357 0.641901 0.0593881
0.464073 0.641596 0.0640879
0.496956 0.641566 0.0691997
0.530373 0.6421 0.0751812
0.563531 0.642725 0.0813611
0.596674 0.643763 0.088304
0.629526 0.645258 0.0959335
0.66157 0.64686 0.104051
0.693187 0.648508 0.11281
0.723857 0.650339 0.122469
0.753887 0.652201 0.133074
0.783062 0.654017 0.14519
0.810452 0.656123 0.158923
0.836927 0.658503 0.173892
0.861616 0.660975 0.189837
0.884916 0.663676 0.206027
0.905119 0.666682 0.221942
0.922408 0.669978 0.236896
0.937606 0.673365 0.251423
0.950454 0.677226 0.26482
0.961822 0.6813 0.277028
0.971405 0.68571 0.28864
0.979187 0.69041 0.298955
0.985687 0.69514 0.308537
0.990753 0.700252 0.316762
0.215137 0.664546 0.0440528
0.239673 0.66601 0.0448768
0.265141 0.66714 0.0462501
0.291554 0.66836 0.0479744
0.319219 0.668833 0.0499428
0.348409 0.668971 0.0523079
0.37879 0.66894 0.0552377
0.409934 0.668711 0.0586404
0.441917 0.668544 0.0626078
0.473991 0.668315 0.0669871
0.506386 0.668269 0.0718853
0.539208 0.668421 0.077348
0.572137 0.669001 0.08365
0.604715 0.670085 0.0903487
0.63682 0.671351 0.0979019
0.668757 0.672862 0.105852
0.699825 0.674632 0.114885
0.730282 0.676432 0.124788
0.759945 0.678309 0.135622
0.788449 0.680278 0.148058
0.815839 0.682414 0.162066
0.841489 0.684977 0.177356
0.866041 0.68748 0.193332
0.889174 0.690135 0.209857
0.909361 0.693019 0.22649
0.92665 0.696086 0.24242
0.941573 0.699168 0.257786
0.954635 0.702617 0.271916
0.965301 0.706645 0.28542
0.974456 0.710765 0.29839
0.981765 0.715114 0.309972
0.987762 0.719615 0.320867
0.992386 0.724392 0.330388
0.230838 0.689219 0.0498665
0.255299 0.69099 0.0509651
0.28014 0.692287 0.0522164
0.305852 0.693355 0.0536812
0.332982 0.694087 0.0554665
0.361715 0.694789 0.0577707
0.391104 0.694835 0.0603799
0.421424 0.694713 0.0633249
0.452552 0.694514 0.0668345
0.484016 0.694377 0.0708934
0.516197 0.694606 0.0757916
0.548424 0.694728 0.0810407
0.580774 0.695262 0.0869917
0.612848 0.696269 0.0938125
0.644892 0.697398 0.101091
0.675929 0.698909 0.109224
0.706645 0.700618 0.118349
0.736767 0.702464 0.128298
0.766079 0.704402 0.139605
0.794156 0.706508 0.152621
0.821057 0.708858 0.166812
0.846433 0.711299 0.182193
0.870756 0.713863 0.198108
0.893431 0.716548 0.214588
0.913283 0.719295 0.231296
0.93051 0.722164 0.248371
0.944991 0.725139 0.264561
0.957778 0.728481 0.27985
0.967971 0.731991 0.29424
0.976593 0.735698 0.308125
0.983551 0.739666 0.320729
0.989105 0.74377 0.332723
0.993317 0.748012 0.343618
0.247089 0.713954 0.0565042
0.271 0.715496 0.0575113
0.295384 0.716915 0.0586557
0.32079 0.718364 0.0602579
0.347372 0.719203 0.0619364
0.375296 0.719768 0.0639506
0.404105 0.719982 0.0662089
0.43386 0.720333 0.0691386
0.464088 0.720317 0.0724651
0.49482 0.720302 0.0762493
0.526116 0.720348 0.080705
0.557809 0.720592 0.085771
0.589548 0.721157 0.0915389
0.620874 0.721935 0.0982223
