Camo Studio.app/Contents/Resources/CamoContent_CamoContent.bundle/Contents/Resources/BACK_MACHINE.cube
TITLE "Generated by Resolve"
LUT_3D_SIZE 9
0.0300298 0.0415198 0.0544137
0.108705 0.0548562 0.0745403
0.199619 0.0705425 0.0930953
0.301274 0.0883803 0.108644
0.398535 0.105669 0.118608
0.483848 0.121004 0.123842
0.560952 0.134936 0.126101
0.632944 0.147967 0.126192
0.703761 0.160922 0.124743
0.0350958 0.144533 0.090486
0.113924 0.159121 0.103868
0.205005 0.176104 0.114946
0.307012 0.195209 0.122759
0.404334 0.213733 0.12604
0.489891 0.23003 0.126024
0.56701 0.244694 0.123995
0.639261 0.258427 0.120714
0.710048 0.271778 0.116335
0.0384833 0.266575 0.115572
0.117647 0.282597 0.121889
0.209049 0.300786 0.125536
0.311269 0.321141 0.125856
0.408911 0.340978 0.123003
0.494636 0.358053 0.118395
0.571939 0.373037 0.112947
0.644175 0.387182 0.10695
0.715023 0.400931 0.100465
0.0396887 0.406699 0.12607
0.119219 0.423606 0.125856
0.211002 0.443015 0.122957
0.313588 0.464256 0.117128
0.411536 0.484688 0.109529
0.497444 0.502068 0.101823
0.575662 0.51725 0.0946975
0.655756 0.526848 0.0922103
0.741665 0.531167 0.0951705
0.0386358 0.542687 0.12221
0.118517 0.560281 0.117433
0.210697 0.580453 0.110277
0.313649 0.602304 0.100923
0.415 0.621042 0.0929885
0.516136 0.62916 0.0939651
0.610559 0.633799 0.0986038
0.698634 0.637583 0.104555
0.785122 0.640696 0.111849
0.0362249 0.663722 0.110979
0.116381 0.681544 0.103761
0.209522 0.701442 0.0949722
0.326818 0.714534 0.0932174
0.44683 0.721096 0.09897
0.551995 0.725795 0.106554
0.646845 0.729564 0.114961
0.735332 0.732509 0.124041
0.822141 0.734997 0.133776
0.03299 0.77319 0.0971847
0.118685 0.787976 0.0919051
0.231144 0.795621 0.095491
0.357534 0.80235 0.103258
0.478111 0.80766 0.113588
0.583734 0.811582 0.124331
0.678889 0.814633 0.135225
0.767727 0.81706 0.146029
0.854765 0.819181 0.157244
0.0461738 0.86508 0.0935683
0.144793 0.87097 0.098497
0.258671 0.876997 0.106722
0.385687 0.882841 0.118624
0.506722 0.887175 0.131945
0.612772 0.890532 0.144839
0.708278 0.893095 0.157061
0.797314 0.895338 0.168917
0.884611 0.897215 0.180713
0.0716869 0.945449 0.102922
0.170993 0.950622 0.111223
0.285405 0.955795 0.122835
0.412894 0.960586 0.137575
0.534478 0.964477 0.152941
0.640848 0.967514 0.167025
0.736599 0.969711 0.179995
0.825879 0.971679 0.192187
0.913252 0.973312 0.204135
0.0311894 0.0465248 0.138033
0.109834 0.0600595 0.157305
0.200824 0.0759747 0.175158
0.302541 0.0938582 0.189761
0.399771 0.111254 0.1991
0.485176 0.12668 0.203861
0.562325 0.140642 0.205661
0.634348 0.153719 0.205493
0.705135 0.166629 0.203815
0.0358129 0.150149 0.172656
0.114702 0.164569 0.18529
0.20589 0.181964 0.195743
0.307912 0.201129 0.202869
0.40531 0.219684 0.205631
0.490837 0.235981 0.205234
0.568109 0.250584 0.203021
0.640208 0.264515 0.199588
0.710994 0.27776 0.195178
0.0388342 0.272816 0.196353
0.118059 0.288701 0.202075
0.209522 0.307088 0.205234
0.311742 0.327321 0.205112
0.409461 0.346899 0.201984
0.495216 0.363989 0.197253
0.57261 0.379202 0.191821
0.644785 0.393515 0.185916
0.715801 0.40737 0.179706
0.0396735 0.413123 0.205646
0.119219 0.42974 0.205066
0.211063 0.449454 0.201953
0.313634 0.470649 0.196017
0.411734 0.490944 0.188464
0.497765 0.508537 0.180896
0.578408 0.522118 0.175509
0.662654 0.528847 0.17615
0.74876 0.532738 0.18027
0.0383001 0.54934 0.201175
0.118166 0.567025 0.196262
0.210437 0.587198 0.189197
0.313497 0.608865 0.180087
0.419287 0.62475 0.175158
0.522911 0.631144 0.178668
0.61738 0.635523 0.184436
0.705531 0.639048 0.19147
0.79202 0.642008 0.199557
0.0355993 0.670573 0.189868
0.115846 0.688319 0.182818
0.211002 0.707057 0.175433
0.333272 0.716793 0.177737
0.453376 0.722927 0.185
0.558648 0.727443 0.193652
0.65359 0.730907 0.202976
0.742077 0.733684 0.212818
0.828977 0.73611 0.223209
0.0321965 0.780087 0.176501
0.124041 0.790768 0.175372
0.237339 0.797772 0.180713
0.363851 0.80415 0.18996
0.484535 0.809171 0.20148
0.590219 0.812863 0.213199
0.685512 0.815702 0.224674
0.774319 0.818021 0.236118
0.861372 0.820081 0.247654
0.051957 0.867323 0.178241
0.150774 0.873182 0.18439
0.26479 0.878904 0.193912
0.391867 0.884138 0.206928
0.513161 0.888563 0.22121
0.619211 0.891554 0.234775
0.714763 0.894087 0.247532
0.803861 0.896239 0.259739
0.891188 0.897871 0.271809
0.0775311 0.947509 0.189487
0.176989 0.95259 0.198962
0.291417 0.95729 0.211444
0.419135 0.961807 0.227131
0.540764 0.96553 0.243168
0.647211 0.968338 0.25774
0.743084 0.970382 0.271107
0.83238 0.972412 0.283543
0.91989 0.974075 0.295689
0.0324102 0.0523842 0.233646
0.111116 0.0661173 0.25211
0.202121 0.0820325 0.26891
0.303838 0.100008 0.282689
0.401175 0.117784 0.291234
0.48658 0.133242 0.295399
0.563729 0.147189 0.296788
0.635798 0.160479 0.296345
0.706554 0.173404 0.294484
0.0365911 0.15639 0.266621
0.115587 0.171313 0.278523
0.206775 0.188403 0.288167
0.308812 0.207752 0.294545
0.406332 0.226459 0.296788
0.49189 0.242786 0.296101
0.569162 0.257603 0.293675
0.641291 0.271351 0.290105
0.712108 0.28484 0.285664
0.0392004 0.279606 0.288716
0.11841 0.295644 0.293812
0.209995 0.314 0.296483
0.312291 0.334493 0.295949
0.410071 0.35436 0.292531
0.495827 0.371099 0.28777
0.573251 0.386374 0.282368
0.645441 0.40058 0.276616
0.717601 0.413657 0.271244
0.0395666 0.420508 0.296712
0.119188 0.437476 0.295872
0.211048 0.45655 0.292515
0.313756 0.478386 0.286458
0.411841 0.498604 0.279026
0.498375 0.515511 0.272099
0.583261 0.526452 0.269612
0.670649 0.530846 0.273106
0.75697 0.534783 0.278477
0.0378424 0.557168 0.291691
0.117815 0.574838 0.286793
0.210132 0.594781 0.279805
0.314 0.615961 0.271427
0.425895 0.627832 0.270939
0.530571 0.63328 0.276463
0.625147 0.637369 0.283543
0.713375 0.640589 0.291569
0.799893 0.643244 0.300511
0.0348363 0.678294 0.280461
0.115206 0.696117 0.273564
0.21529 0.71133 0.269627
0.340551 0.719173 0.275212
0.460822 0.724895 0.284092
0.566232 0.729244 0.294087
0.661265 0.732448 0.304372
0.749767 0.734936 0.314916
0.836652 0.737087 0.325963
0.0341955 0.78613 0.269215
0.130861 0.793713 0.271901
0.244404 0.800198 0.279042
0.371038 0.806073 0.289937
0.491875 0.810773 0.302693
0.597665 0.814145 0.315267
0.69308 0.816938 0.32755
0.781888 0.819028 0.339498
0.869001 0.820905 0.351537
0.0587015 0.869993 0.275944
0.157748 0.875471 0.283467
0.271809 0.880842 0.294347
0.399054 0.885725 0.308598
0.520424 0.889921 0.323919
0.626581 0.892805 0.33817
0.722225 0.895109 0.351446
0.811414 0.897139 0.364019
0.898711 0.898772 0.37644
0.0842298 0.949813 0.289479
0.183719 0.954376 0.299886
0.298421 0.959045 0.313542
0.426261 0.963333 0.33022
0.547951 0.966751 0.346929
0.65449 0.969284 0.361929
0.750469 0.971649 0.375662
0.839826 0.973312 0.388357
0.927306 0.97496 0.400656
0.0336156 0.0589761 0.339315
0.112352 0.0727245 0.356909
0.203433 0.0887312 0.372702
0.305257 0.107042 0.385473
0.402594 0.124727 0.39321
0.488045 0.140322 0.396811
0.565194 0.154376 0.397803
0.637293 0.167834 0.397024
0.70811 0.180591 0.39498
0.0373541 0.163531 0.370535
0.116381 0.178454 0.381659
0.20766 0.195666 0.390417
0.309712 0.215427 0.396139
0.407263 0.234043 0.397803
0.492866 0.250446 0.396765
0.570184 0.265232 0.394095
0.642359 0.278813 0.390524
0.713237 0.292317 0.386038
0.0394751 0.287114 0.390921
0.118822 0.303166 0.395483
0.210391 0.321645 0.397589
0.312779 0.342626 0.396597
0.410559 0.362203 0.393011
0.496406 0.378973 0.388251
0.573846 0.394232 0.38291
0.646387 0.408026 0.377584
0.721874 0.41915 0.374426
0.0394141 0.428351 0.397696
0.119097 0.445319 0.396551
0.211048 0.46511 0.39292
0.313756 0.486412 0.386954
0.411994 0.506462 0.379736
0.501015 0.521859 0.374517
0.591623 0.52903 0.376242
0.679515 0.533104 0.381476
0.765866 0.536583 0.388128
0.0372625 0.565515 0.392111
0.117296 0.583017 0.387243
0.209705 0.603006 0.380407
0.31696 0.622187 0.374441
0.433997 0.630503 0.378347
0.539025 0.635416 0.385626
0.633646 0.639078 0.393988
0.722042 0.642206 0.403098
0.808637 0.644739 0.413062
0.0339666 0.686793 0.381109
0.115358 0.703929 0.375021
0.222446 0.714824 0.376059
0.348638 0.721508 0.384054
0.469017 0.726986 0.394659
0.574533 0.730846 0.405844
0.669581 0.733761 0.417121
0.758267 0.736263 0.428519
0.845228 0.738293 0.440223
0.040116 0.790372 0.374655
0.138506 0.796521 0.379965
0.252171 0.802487 0.388739
0.379095 0.808164 0.401251
0.499962 0.812436 0.415396
0.605966 0.815671 0.428931
0.701305 0.818097 0.441932
0.790311 0.820142 0.454459
0.877531 0.821927 0.466957
0.0661936 0.872862 0.385016
0.165225 0.87776 0.393881
0.279515 0.882765 0.406226
0.406958 0.887556 0.421805
0.528405 0.891249 0.438041
0.634699 0.894041 0.45301
0.730434 0.896193 0.466789
0.819654 0.898054 0.479789
0.907057 0.899672 0.492454
0.0916457 0.952148 0.400778
0.191211 0.956374 0.412345
0.306172 0.960784 0.427054
0.434089 0.964752 0.444617
0.555917 0.967987 0.462119
0.662516 0.970504 0.477729
0.758526 0.972503 0.491676
0.848005 0.974304 0.504646
0.935668 0.975845 0.517128
0.0346685 0.0652323 0.439323
0.113436 0.0791333 0.455985
0.204562 0.0955062 0.470985
0.306371 0.113741 0.482811
0.403861 0.131456 0.48983
0.489342 0.147265 0.492912
0.566552 0.161425 0.493523
0.638636 0.174701 0.492531
0.709453 0.187762 0.490364
0.0379644 0.170275 0.46891
0.117037 0.185336 0.479255
0.208423 0.202792 0.487373
0.310552 0.222385 0.492348
0.408133 0.241215 0.493538
0.493767 0.257633 0.492241
0.571069 0.272297 0.489494
0.643336 0.286275 0.485863
0.714137 0.299687 0.481514
0.0396277 0.294697 0.487861
0.11902 0.310567 0.491829
0.210697 0.329397 0.493385
0.31313 0.350118 0.492088
0.411002 0.369421 0.48838
0.496849 0.386755 0.483543
0.574334 0.401587 0.478477
0.648173 0.414755 0.474083
0.728145 0.422705 0.474205
0.0391852 0.43624 0.4934
0.118868 0.453117 0.491997
0.210925 0.472847 0.488304
0.313741 0.494057 0.482353
0.412299 0.513893 0.475578
0.50602 0.526421 0.47361
0.599908 0.531441 0.478431
0.687861 0.535027 0.484901
0.774151 0.537987 0.492607
0.0366369 0.573663 0.487465
0.116732 0.591089 0.482643
0.209354 0.610773 0.476158
0.322545 0.626139 0.474189
0.44184 0.632761 0.481071
0.546975 0.637354 0.48983
0.641779 0.640864 0.499336
0.730175 0.643626 0.509407
0.816892 0.646006 0.520134
0.0331426 0.695018 0.476692
0.118181 0.709667 0.473045
0.229862 0.717433 0.478187
0.356237 0.723766 0.487984
0.476753 0.72874 0.500084
0.582422 0.732448 0.512444
0.677531 0.735149 0.524544
0.766323 0.737392 0.536599
0.853376 0.73933 0.548928
0.046952 0.793271 0.476158
0.145663 0.799023 0.483024
0.259541 0.804669 0.4934
0.386511 0.809842 0.507424
0.507652 0.813916 0.522637
0.613626 0.816907 0.537087
0.709178 0.819242 0.550637
0.798215 0.821225 0.563668
0.885496 0.822812 0.576562
0.0731823 0.875181 0.489158
0.172427 0.880049 0.49926
0.286885 0.884733 0.512825
0.41442 0.889021 0.529503
0.535973 0.892409 0.546624
0.64239 0.895125 0.562158
0.738231 0.897215 0.576394
0.827466 0.898939 0.589654
0.914961 0.900465 0.602579
0.0985885 0.954238 0.506889
0.198398 0.958282 0.519371
0.313436 0.962249 0.535073
0.441459 0.966033 0.553506
0.563439 0.969116 0.571603
0.670176 0.971542 0.587533
0.766278 0.973419 0.601831
0.855741 0.975082 0.614878
0.943389 0.976547 0.627497
0.0354314 0.0707103 0.526253
0.114305 0.0847181 0.542199
0.205463 0.101274 0.556435
0.307454 0.119707 0.567559
0.404807 0.13753 0.573938
0.490394 0.153429 0.576638
0.567651 0.167544 0.576989
0.639719 0.180804 0.575814
0.710521 0.193774 0.57348
0.038407 0.176226 0.554482
0.117586 0.191333 0.564141
0.208988 0.208957 0.571756
0.311147 0.228656 0.57612
0.408804 0.247471 0.576989
0.49453 0.263951 0.575479
0.571862 0.278859 0.572656
0.644022 0.292409 0.569009
0.714961 0.305776 0.564797
0.0396887 0.301106 0.572122
0.119142 0.316991 0.575692
0.210895 0.335622 0.576944
0.31339 0.356329 0.575372
0.411322 0.376074 0.571572
0.497215 0.392889 0.566842
0.574975 0.408164 0.56199
0.651881 0.419059 0.559686
0.735531 0.424552 0.562768
0.0388647 0.442863 0.576883
0.118669 0.459983 0.575235
0.210788 0.479438 0.571481
0.313649 0.500648 0.565682
0.413718 0.519524 0.560006
0.512642 0.528725 0.561776
0.607019 0.533074 0.568048
0.695079 0.536507 0.57557
0.781491 0.539406 0.584298
0.0360571 0.580636 0.570611
0.116213 0.598001 0.565911
0.209995 0.616983 0.560235
0.32871 0.628687 0.562448
0.448676 0.634531 0.57113
0.553903 0.638926 0.581079
0.648768 0.642176 0.591608
0.737209 0.6448 0.602411
0.824002 0.646967 0.61384
0.0327764 0.70161 0.560449
0.123033 0.713024 0.560372
0.236316 0.7196 0.567742
0.362783 0.725521 0.57911
0.483497 0.73019 0.592432
0.589197 0.733608 0.605615
0.684443 0.736263 0.618494
0.773236 0.738338 0.631113
0.860365 0.740063 0.643824
0.0530861 0.795666 0.565347
0.151965 0.801068 0.573434
0.265919 0.806271 0.585107
0.393027 0.811261 0.60029
0.514244 0.815061 0.616434
0.620356 0.817868 0.63154
0.71603 0.820218 0.645685
0.805097 0.821942 0.659007
0.892439 0.823529 0.672145
0.0792554 0.877119 0.580377
0.178637 0.881697 0.591531
0.293217 0.886107 0.606043
0.420905 0.890257 0.623713
0.54258 0.893614 0.641459
0.649058 0.896117 0.657511
0.744961 0.898009 0.672023
0.834272 0.899672 0.685542
0.921798 0.901122 0.698604
0.104723 0.955947 0.599756
0.204562 0.959716 0.613031
0.319677 0.963455 0.62945
0.447883 0.967178 0.648585
0.570001 0.970031 0.66717
0.676768 0.972335 0.683406
0.772808 0.974182 0.697826
0.862333 0.975784 0.711101
0.950164 0.977203 0.723827
0.0361639 0.0757153 0.60415
0.115099 0.0898604 0.619486
0.206271 0.106325 0.633036
0.308186 0.124895 0.643565
0.405692 0.142931 0.649393
0.491279 0.158694 0.651789
0.568521 0.172869 0.651911
0.640635 0.186145 0.650629
0.711421 0.1991 0.64831
0.0387579 0.181613 0.631205
0.117952 0.196704 0.640314
0.209415 0.214466 0.647364
0.311666 0.23418 0.651362
0.409339 0.253025 0.651881
0.495033 0.269749 0.650294
0.572412 0.284276 0.64741
0.644663 0.297948 0.643854
0.715526 0.311391 0.639719
0.0396887 0.306584 0.647669
0.119219 0.322744 0.65098
0.210971 0.341405 0.651881
0.313558 0.362112 0.650187
0.411566 0.38172 0.646326
0.49749 0.399008 0.641688
0.576059 0.413031 0.637598
0.65655 0.421805 0.637675
0.742214 0.426108 0.642771
0.0385443 0.448951 0.651774
0.11841 0.466072 0.65005
0.21059 0.48542 0.64625
0.313634 0.506539 0.640513
0.416419 0.523919 0.63679
0.518944 0.530434 0.641581
0.613336 0.534447 0.648966
0.701534 0.537789 0.657389
0.787991 0.54052 0.666804
0.0354772 0.586847 0.645411
0.115709 0.60415 0.640757
0.211887 0.621546 0.636805
0.334615 0.630442 0.642405
0.45481 0.636164 0.652491
0.560082 0.640208 0.663417
0.654994 0.643305 0.674739
0.743572 0.645716 0.686198
0.830381 0.647852 0.698161
0.0336614 0.70692 0.636484
0.128664 0.715206 0.639887
0.242145 0.721447 0.648585
0.368673 0.726909 0.661219
0.489479 0.731456 0.675563
0.59527 0.734676 0.689601
0.690578 0.736996 0.702983
0.779461 0.739101 0.716075
0.866575 0.740764 0.729107
0.0585489 0.797696 0.645884
0.157565 0.802853 0.6551
0.271717 0.807797 0.667796
0.398886 0.812375 0.683955
0.520226 0.816114 0.700908
0.626474 0.818952 0.716579
0.722057 0.82089 0.731014
0.811215 0.822629 0.744762
0.898604 0.824155 0.758083
0.0847486 0.878859 0.662608
0.184207 0.883162 0.674647
0.298909 0.887343 0.689998
0.426749 0.891234 0.708415
0.548486 0.894453 0.726757
0.655009 0.896819 0.743114
0.750942 0.898726 0.757961
0.840299 0.900313 0.771618
0.92784 0.901625 0.784878
0.110124 0.957244 0.683314
0.210147 0.960937 0.697368
0.325307 0.964691 0.714382
0.453666 0.968078 0.733989
0.575738 0.970916 0.752956
0.682658 0.973129 0.769467
0.778836 0.974868 0.784039
0.868482 0.976455 0.797482
0.956176 0.977783 0.810132
0.0367132 0.0803388 0.676432
0.115679 0.0945602 0.691157
0.206928 0.111284 0.704143
0.308949 0.130007 0.714046
0.406455 0.14789 0.719478
0.492012 0.163729 0.721538
0.569268 0.177874 0.721523
0.641398 0.191424 0.72018
0.712322 0.204425 0.717739
0.0390478 0.186633 0.702358
0.118288 0.202029 0.711116
0.209766 0.219638 0.717617
0.312047 0.239292 0.721218
0.409781 0.258457 0.721523
0.495552 0.274846 0.719768
0.572915 0.289433 0.716899
0.645121 0.303349 0.71342
0.716121 0.316609 0.709392
0.0396582 0.31194 0.717906
0.119234 0.328313 0.720821
0.211048 0.34699 0.721569
0.313664 0.367544 0.719661
0.411704 0.387259 0.715846
0.497704 0.404135 0.711376
0.578225 0.417212 0.708492
0.662211 0.423758 0.71133
0.748379 0.42742 0.717571
0.0382086 0.454719 0.72137
0.11809 0.471672 0.719509
0.210361 0.490867 0.715785
0.313619 0.512154 0.710353
0.420386 0.52665 0.7093
0.524758 0.53196 0.716152
0.619303 0.535805 0.724544
0.707485 0.538949 0.733684
0.794049 0.541604 0.743938
0.0348974 0.592599 0.714977
0.115206 0.609873 0.71046
0.215305 0.624781 0.709133
0.340124 0.632242 0.717144
0.460426 0.637537 0.728405
0.565805 0.641382 0.74023
0.660792 0.644282 0.752224
0.749371 0.646586 0.764294
0.836225 0.648432 0.776654
0.0364996 0.710475 0.708492
0.133837 0.717128 0.714214
0.24744 0.722927 0.724102
0.374182 0.728313 0.737881
0.495064 0.732509 0.75317
0.600916 0.735607 0.767803
0.696345 0.737911 0.78175
0.785199 0.739773 0.795163
0.872343 0.741238 0.808545
0.0636454 0.799496 0.721172
0.162737 0.804364 0.731273
0.27689 0.809064 0.744823
0.404334 0.81355 0.761944
0.525765 0.817075 0.779538
0.631983 0.819593 0.795651
0.727703 0.821653 0.810468
0.816907 0.82324 0.824399
0.904341 0.82472 0.837995
0.0898146 0.880446 0.739406
0.18941 0.884489 0.752194
0.304219 0.888533 0.768277
0.432044 0.89218 0.787259
0.553964 0.895232 0.806119
0.660533 0.89752 0.822812
0.756542 0.899351 0.837827
0.845914 0.900938 0.851713
0.933547 0.902174 0.865019
0.115251 0.958694 0.761288
0.215244 0.961929 0.77583
0.330556 0.965576 0.7935
0.458976 0.968948 0.813535
0.581155 0.971588 0.832792
0.688167 0.973724 0.84947
0.784421 0.97554 0.86424
0.873899 0.976898 0.877638
0.961837 0.978332 0.890333
0.0372015 0.0848707 0.747051
0.116182 0.0993057 0.761212
0.207553 0.116045 0.773556
0.309575 0.134615 0.78294
0.407126 0.152926 0.787976
0.492714 0.168688 0.789731
0.570016 0.182803 0.789654
0.642145 0.196399 0.788205
0.712993 0.2094 0.785779
0.0392462 0.191546 0.771862
0.118517 0.206867 0.780179
0.210101 0.224796 0.786343
0.312459 0.244526 0.789532
0.410224 0.26363 0.789609
0.49601 0.279942 0.787808
0.573419 0.294652 0.784894
0.645701 0.308461 0.781506
0.717205 0.320974 0.778073
0.0396429 0.317159 0.786572
0.119188 0.333776 0.789212
0.211063 0.352453 0.789639
0.313726 0.373129 0.787655
0.411841 0.39266 0.783902
0.498268 0.409247 0.779782
0.581842 0.420493 0.779019
0.668208 0.425345 0.783902
0.754345 0.428382 0.790951
0.0378576 0.460151 0.789441
0.117876 0.477043 0.787503
0.210101 0.49662 0.783825
0.314183 0.517037 0.778958
0.425574 0.52845 0.781323
0.530465 0.533379 0.789471
0.625025 0.537026 0.798733
0.713329 0.540002 0.808698
0.799863 0.542443 0.819425
0.0343175 0.598184 0.783047
0.114931 0.615274 0.778851
0.21976 0.626978 0.780728
0.345556 0.633753 0.790509
0.465934 0.638819 0.802884
0.571435 0.642435 0.815595
0.666423 0.645167 0.828244
0.754971 0.647242 0.840772
0.842039 0.649195 0.853681
0.0403754 0.713161 0.779904
0.13901 0.718822 0.787228
0.252659 0.724346 0.798215
0.379507 0.729564 0.813062
0.500481 0.733486 0.82916
0.606424 0.736446 0.844465
0.701793 0.738643 0.8589
0.790753 0.740322 0.872541
0.878004 0.741955 0.886305
0.0686046 0.801144 0.79501
0.167788 0.805814 0.805966
0.282063 0.810254 0.820508
0.409613 0.814588 0.838376
0.531106 0.817899 0.856596
0.637415 0.82031 0.873182
0.733166 0.822293 0.888228
0.822416 0.823819 0.902403
0.909895 0.825345 0.916182
0.0946975 0.881773 0.814725
0.194446 0.885634 0.828229
0.309361 0.889479 0.844892
0.437324 0.893034 0.864546
0.559197 0.895964 0.883772
0.665858 0.898146 0.900847
0.76199 0.899809 0.915892
0.851301 0.901335 0.929915
0.939055 0.902815 0.943511
0.120043 0.959701 0.83769
0.220279 0.963149 0.852766
0.335637 0.966491 0.870863
0.464149 0.969635 0.891447
0.586526 0.972274 0.910887
0.69337 0.974258 0.927733
0.789776 0.975967 0.942596
0.879316 0.977432 0.956054
0.967269 0.978821 0.968963
