Camo Studio.app/Contents/Resources/CamoContent_CamoContent.bundle/Contents/Resources/BACK_MACHINE.cube
TITLE "Generated by Resolve"
LUT_3D_SIZE 5
0.0300298 0.0415198 0.0544137
0.199619 0.0705425 0.0930953
0.398535 0.105669 0.118608
0.560952 0.134936 0.126101
0.703761 0.160922 0.124743
0.0384833 0.266575 0.115572
0.209049 0.300786 0.125536
0.408911 0.340978 0.123003
0.571939 0.373037 0.112947
0.715023 0.400931 0.100465
0.0386358 0.542687 0.12221
0.210697 0.580453 0.110277
0.415 0.621042 0.0929885
0.610559 0.633799 0.0986038
0.785122 0.640696 0.111849
0.03299 0.77319 0.0971847
0.231144 0.795621 0.095491
0.478111 0.80766 0.113588
0.678889 0.814633 0.135225
0.854765 0.819181 0.157244
0.0716869 0.945449 0.102922
0.285405 0.955795 0.122835
0.534478 0.964477 0.152941
0.736599 0.969711 0.179995
0.913252 0.973312 0.204135
0.0324102 0.0523842 0.233646
0.202121 0.0820325 0.26891
0.401175 0.117784 0.291234
0.563729 0.147189 0.296788
0.706554 0.173404 0.294484
0.0392004 0.279606 0.288716
0.209995 0.314 0.296483
0.410071 0.35436 0.292531
0.573251 0.386374 0.282368
0.717601 0.413657 0.271244
0.0378424 0.557168 0.291691
0.210132 0.594781 0.279805
0.425895 0.627832 0.270939
0.625147 0.637369 0.283543
0.799893 0.643244 0.300511
0.0341955 0.78613 0.269215
0.244404 0.800198 0.279042
0.491875 0.810773 0.302693
0.69308 0.816938 0.32755
0.869001 0.820905 0.351537
0.0842298 0.949813 0.289479
0.298421 0.959045 0.313542
0.547951 0.966751 0.346929
0.750469 0.971649 0.375662
0.927306 0.97496 0.400656
0.0346685 0.0652323 0.439323
0.204562 0.0955062 0.470985
0.403861 0.131456 0.48983
0.566552 0.161425 0.493523
0.709453 0.187762 0.490364
0.0396277 0.294697 0.487861
0.210697 0.329397 0.493385
0.411002 0.369421 0.48838
0.574334 0.401587 0.478477
0.728145 0.422705 0.474205
0.0366369 0.573663 0.487465
0.209354 0.610773 0.476158
0.44184 0.632761 0.481071
0.641779 0.640864 0.499336
0.816892 0.646006 0.520134
0.046952 0.793271 0.476158
0.259541 0.804669 0.4934
0.507652 0.813916 0.522637
0.709178 0.819242 0.550637
0.885496 0.822812 0.576562
0.0985885 0.954238 0.506889
0.313436 0.962249 0.535073
0.563439 0.969116 0.571603
0.766278 0.973419 0.601831
0.943389 0.976547 0.627497
0.0361639 0.0757153 0.60415
0.206271 0.106325 0.633036
0.405692 0.142931 0.649393
0.568521 0.172869 0.651911
0.711421 0.1991 0.64831
0.0396887 0.306584 0.647669
0.210971 0.341405 0.651881
0.411566 0.38172 0.646326
0.576059 0.413031 0.637598
0.742214 0.426108 0.642771
0.0354772 0.586847 0.645411
0.211887 0.621546 0.636805
0.45481 0.636164 0.652491
0.654994 0.643305 0.674739
0.830381 0.647852 0.698161
0.0585489 0.797696 0.645884
0.271717 0.807797 0.667796
0.520226 0.816114 0.700908
0.722057 0.82089 0.731014
0.898604 0.824155 0.758083
0.110124 0.957244 0.683314
0.325307 0.964691 0.714382
0.575738 0.970916 0.752956
0.778836 0.974868 0.784039
0.956176 0.977783 0.810132
0.0372015 0.0848707 0.747051
0.207553 0.116045 0.773556
0.407126 0.152926 0.787976
0.570016 0.182803 0.789654
0.712993 0.2094 0.785779
0.0396429 0.317159 0.786572
0.211063 0.352453 0.789639
0.411841 0.39266 0.783902
0.581842 0.420493 0.779019
0.754345 0.428382 0.790951
0.0343175 0.598184 0.783047
0.21976 0.626978 0.780728
0.465934 0.638819 0.802884
0.666423 0.645167 0.828244
0.842039 0.649195 0.853681
0.0686046 0.801144 0.79501
0.282063 0.810254 0.820508
0.531106 0.817899 0.856596
0.733166 0.822293 0.888228
0.909895 0.825345 0.916182
0.120043 0.959701 0.83769
0.335637 0.966491 0.870863
0.586526 0.972274 0.910887
0.789776 0.975967 0.942596
0.967269 0.978821 0.968963
