Camo Studio.app/Contents/Resources/CamoContent_CamoContent.bundle/Contents/Resources/BACK_MACHINE.cube
TITLE "Generated by Resolve"
LUT_3D_SIZE 33
0.0300298 0.0415198 0.0544137
0.0487526 0.0446326 0.0595254
0.0681468 0.0479286 0.0645914
0.087953 0.0513008 0.0695811
0.108705 0.0548562 0.0745403
0.13019 0.0585794 0.0793317
0.152468 0.0623789 0.0840162
0.175692 0.0663767 0.0886397
0.199619 0.0705425 0.0930953
0.224445 0.074876 0.0974136
0.249775 0.0793164 0.101472
0.275578 0.0838636 0.105257
0.301274 0.0883803 0.108644
0.326787 0.0928969 0.111696
0.351537 0.097322 0.114351
0.375525 0.101488 0.11667
0.398535 0.105669 0.118608
0.420737 0.10959 0.120241
0.442374 0.113466 0.121645
0.46334 0.117266 0.122835
0.483848 0.121004 0.123842
0.503731 0.124605 0.124651
0.523262 0.128191 0.125292
0.54226 0.131411 0.125765
0.560952 0.134936 0.126101
0.579263 0.138186 0.126299
0.597314 0.141482 0.12636
0.615228 0.144762 0.126314
0.632944 0.147967 0.126192
0.650706 0.151308 0.125978
0.668315 0.15436 0.125658
0.686076 0.157565 0.125277
0.703761 0.160922 0.124743
0.0313878 0.0657359 0.0641947
0.0501106 0.0690776 0.0689708
0.0695048 0.0723125 0.07364
0.0893568 0.0757763 0.0782025
0.110124 0.0793164 0.0826123
0.131579 0.0832685 0.0870985
0.153903 0.0869459 0.0912795
0.177157 0.0911727 0.0954757
0.201099 0.0954299 0.099443
0.225925 0.099855 0.103243
0.251286 0.104234 0.106798
0.277089 0.108827 0.110094
0.3028 0.113664 0.113054
0.328313 0.11812 0.115694
0.353048 0.122637 0.117922
0.377081 0.127123 0.119829
0.400092 0.131044 0.12137
0.422339 0.135164 0.122667
0.444007 0.139101 0.123735
0.464973 0.142947 0.12459
0.485466 0.146868 0.125261
0.505364 0.150301 0.125765
0.524865 0.153948 0.126116
0.543847 0.157565 0.126314
0.562524 0.160784 0.12636
0.580896 0.164309 0.126299
0.599039 0.167529 0.126192
0.616876 0.170703 0.125978
0.634607 0.174212 0.125582
0.652338 0.177386 0.125093
0.669993 0.180606 0.124575
0.687739 0.183825 0.124025
0.705364 0.187167 0.123323
0.0327153 0.0909895 0.0735637
0.0514534 0.0944076 0.0779431
0.0708171 0.0976577 0.0821698
0.0907149 0.101228 0.086305
0.111528 0.104936 0.0903029
0.132937 0.108751 0.0942092
0.155261 0.112734 0.0980697
0.178531 0.116976 0.101747
0.202533 0.121324 0.105226
0.227405 0.125795 0.108553
0.252735 0.130358 0.11165
0.278523 0.134905 0.114458
0.30428 0.139757 0.11693
0.329793 0.144442 0.119081
0.354543 0.148989 0.120882
0.378561 0.153429 0.122301
0.401602 0.157671 0.123491
0.423865 0.161791 0.124453
0.445548 0.165805 0.1252
0.466514 0.169696 0.12575
0.487022 0.173526 0.126116
0.506935 0.177218 0.126314
0.526436 0.18085 0.126329
0.545419 0.184329 0.126268
0.564111 0.187747 0.126162
0.582467 0.19115 0.125902
0.600534 0.194537 0.125536
0.618463 0.197925 0.125032
0.636179 0.201221 0.124437
0.653941 0.204501 0.123781
0.671626 0.207935 0.123049
0.689326 0.211063 0.122301
0.706996 0.214405 0.121492
0.0339818 0.11725 0.0824292
0.0527047 0.120485 0.0862898
0.0719921 0.124056 0.0900893
0.0919356 0.127459 0.0937667
0.112703 0.131212 0.0973983
0.134218 0.135225 0.100847
0.156573 0.1393 0.104204
0.179858 0.14374 0.107393
0.203845 0.148074 0.110399
0.228717 0.152514 0.113252
0.254063 0.157168 0.115862
0.279896 0.162066 0.118196
0.305684 0.166827 0.120165
0.331212 0.171603 0.121843
0.355947 0.176242 0.123247
0.379965 0.180591 0.124285
0.402975 0.184909 0.125124
0.425223 0.189364 0.12575
0.446906 0.193317 0.126146
0.467933 0.197345 0.126314
0.488518 0.200961 0.126345
0.508476 0.204883 0.126268
0.527947 0.208576 0.12607
0.546944 0.211978 0.12578
0.565652 0.215747 0.125338
0.584009 0.219074 0.124849
0.602136 0.222477 0.124315
0.619989 0.225742 0.123613
0.637736 0.229068 0.12285
0.655482 0.232624 0.122011
0.673106 0.235813 0.121126
0.690867 0.239292 0.12015
0.708492 0.242313 0.119158
0.0350958 0.144533 0.090486
0.0538491 0.147951 0.0939651
0.0731975 0.151461 0.097322
0.09308 0.155184 0.100618
0.113924 0.159121 0.103868
0.135363 0.163043 0.106813
0.157702 0.167178 0.109712
0.180987 0.171588 0.112428
0.205005 0.176104 0.114946
0.229908 0.180743 0.117281
0.255314 0.185489 0.119387
0.281209 0.190372 0.121218
0.307012 0.195209 0.122759
0.332555 0.200107 0.123964
0.357305 0.204791 0.12491
0.381338 0.209354 0.125582
0.404334 0.213733 0.12604
0.426581 0.217975 0.126268
0.44828 0.22211 0.126329
0.469306 0.226108 0.126238
0.489891 0.23003 0.126024
0.509865 0.233845 0.125734
0.529427 0.237552 0.125292
0.548363 0.241154 0.124681
0.56701 0.244694 0.123995
0.585367 0.248188 0.123293
0.60351 0.251637 0.12253
0.62153 0.255055 0.121675
0.639261 0.258427 0.120714
0.656962 0.261784 0.119692
0.674556 0.265064 0.118639
0.692287 0.268406 0.117494
0.710048 0.271778 0.116335
0.0360571 0.173129 0.0979629
0.0547951 0.176471 0.100923
0.0742351 0.180346 0.10396
0.0941787 0.183932 0.106752
0.114961 0.187976 0.109529
0.136492 0.192172 0.112032
0.158831 0.196216 0.114427
0.182132 0.200656 0.11667
0.20621 0.205234 0.1187
0.231144 0.210132 0.120562
0.256504 0.214878 0.122164
0.282353 0.219669 0.123552
0.308156 0.224765 0.124666
0.333776 0.229709 0.125444
0.358618 0.234638 0.125948
0.38265 0.239109 0.126223
0.405661 0.243671 0.126268
0.427893 0.2477 0.126177
0.449592 0.252018 0.125948
0.470619 0.256077 0.125582
0.491203 0.259907 0.125078
0.511177 0.263752 0.124483
0.530755 0.267674 0.123751
0.549706 0.271321 0.122957
0.568368 0.274937 0.122103
0.586725 0.278416 0.121187
0.604944 0.28188 0.120195
0.622858 0.285176 0.119142
0.640604 0.288701 0.118013
0.65832 0.292088 0.116838
0.675944 0.29546 0.115602
0.693751 0.298848 0.11429
0.711406 0.302235 0.113008
0.0369726 0.202716 0.10457
0.055787 0.206592 0.10724
0.0752117 0.210025 0.109697
0.095201 0.214145 0.112184
0.116014 0.218219 0.114458
0.137545 0.222202 0.116472
0.159915 0.22652 0.118425
0.183215 0.231159 0.120241
0.207263 0.235706 0.121813
0.232197 0.240558 0.123186
0.257618 0.245655 0.124315
0.283467 0.250538 0.125185
0.30927 0.255451 0.125811
0.334905 0.260761 0.126177
0.359762 0.265476 0.126238
0.383795 0.270024 0.126146
0.406821 0.274784 0.125872
0.429084 0.278843 0.12546
0.450843 0.283207 0.12491
0.471901 0.287572 0.124239
0.492424 0.291325 0.123476
0.512352 0.295079 0.122621
0.531945 0.299184 0.121645
0.550973 0.302586 0.120668
0.56968 0.30663 0.1196
0.588037 0.310002 0.118486
0.606149 0.313375 0.117296
0.624109 0.316854 0.11606
0.641871 0.320424 0.114794
0.659617 0.323827 0.113497
0.677241 0.327077 0.112093
0.695003 0.330632 0.110689
0.712718 0.333883 0.109255
0.0377966 0.234058 0.110491
0.0565957 0.23798 0.112749
0.0760357 0.241611 0.114794
0.0960403 0.245731 0.116777
0.116884 0.249683 0.118593
0.13843 0.253742 0.12018
0.160937 0.258305 0.12166
0.184161 0.263035 0.123003
0.208209 0.267521 0.124086
0.233188 0.272618 0.124987
0.25864 0.277623 0.125628
0.28452 0.282872 0.126024
0.310338 0.287861 0.126192
0.335973 0.293095 0.126146
0.3608 0.297856 0.125856
0.384863 0.302617 0.125383
0.407904 0.307317 0.124773
0.430198 0.311406 0.124071
0.451972 0.315831 0.123217
0.47303 0.319997 0.122271
0.493599 0.324056 0.121248
0.513542 0.327825 0.12015
0.533089 0.331823 0.11899
0.552148 0.335546 0.117784
0.570855 0.339193 0.116533
0.589212 0.342779 0.115251
0.607431 0.346487 0.113863
0.62533 0.349828 0.11249
0.643091 0.353399 0.111086
0.660807 0.356695 0.109667
0.678447 0.360113 0.108141
0.696223 0.363577 0.10663
0.713924 0.367102 0.105013
0.0384833 0.266575 0.115572
0.0572824 0.270253 0.117327
0.0767376 0.274144 0.118975
0.0967727 0.278172 0.12047
0.117647 0.282597 0.121889
0.139208 0.286915 0.123064
0.16173 0.291417 0.124056
0.18497 0.296086 0.12491
0.209049 0.300786 0.125536
0.234043 0.305959 0.125948
0.259525 0.310887 0.126131
0.285435 0.316091 0.126101
0.311269 0.321141 0.125856
0.336919 0.326421 0.125383
0.361761 0.331533 0.124743
0.38584 0.336217 0.123934
0.408911 0.340978 0.123003
0.43122 0.345281 0.121996
0.452979 0.349767 0.120851
0.474037 0.353826 0.119661
0.494636 0.358053 0.118395
0.514595 0.361852 0.117082
0.534173 0.365866 0.11574
0.553231 0.369497 0.114366
0.571939 0.373037 0.112947
0.590311 0.376791 0.111467
0.608499 0.380224 0.110002
0.626429 0.384039 0.108446
0.644175 0.387182 0.10695
0.661906 0.390936 0.105348
0.679545 0.394095 0.103807
0.697353 0.397848 0.102129
0.715023 0.400931 0.100465
0.0390326 0.300572 0.119768
0.0578622 0.304341 0.12105
0.0773327 0.308324 0.122271
0.0973831 0.312245 0.123339
0.118273 0.316579 0.124254
0.139834 0.321004 0.124987
0.162371 0.325597 0.125551
0.185641 0.330327 0.125948
0.209751 0.335241 0.126131
0.23476 0.34049 0.126101
0.260258 0.34551 0.125872
0.286198 0.35079 0.125429
0.312078 0.356069 0.124773
0.337728 0.361257 0.123903
0.36257 0.36614 0.122911
0.386694 0.371328 0.121752
0.409796 0.375845 0.120546
0.43212 0.380331 0.119234
0.453864 0.384543 0.117861
0.474922 0.388922 0.116426
0.495537 0.393042 0.114946
0.515526 0.396872 0.113466
0.535119 0.400931 0.111925
0.554208 0.404746 0.110384
0.572915 0.408469 0.108812
0.591287 0.41207 0.107195
0.609461 0.415534 0.105623
0.62739 0.419242 0.10399
0.645151 0.422705 0.102342
0.662913 0.426307 0.100664
0.680613 0.429587 0.0990463
0.698589 0.433097 0.0974136
0.716793 0.436027 0.095964
0.0394293 0.335454 0.122896
0.0582742 0.33901 0.123751
0.0778058 0.343221 0.124575
0.0978103 0.347326 0.125261
0.118761 0.351766 0.125719
0.140322 0.3561 0.125994
0.162875 0.360937 0.126146
0.186191 0.36556 0.126101
0.21033 0.370703 0.125872
0.235325 0.37557 0.125444
0.260838 0.380972 0.124804
0.286809 0.386297 0.123964
0.312718 0.391501 0.122927
0.338384 0.396933 0.121691
0.363272 0.402182 0.120333
0.387427 0.406943 0.118898
0.410544 0.411795 0.117388
0.432868 0.416175 0.115846
0.454627 0.420569 0.114244
0.4757 0.424811 0.112627
0.496315 0.428794 0.110994
0.51632 0.432822 0.109331
0.535943 0.436744 0.107637
0.555032 0.440726 0.105943
0.573754 0.444633 0.104234
0.592111 0.447959 0.102571
0.610315 0.451911 0.100847
0.62829 0.4551 0.0992142
0.646311 0.45861 0.097612
0.664469 0.461814 0.0961318
0.682689 0.464927 0.0947433
0.701488 0.467765 0.0935683
0.721141 0.469978 0.0929274
0.0396429 0.370855 0.124971
0.0585184 0.374838 0.12549
0.0781262 0.37879 0.125887
0.0981308 0.383124 0.126131
0.119081 0.387488 0.126223
0.140658 0.39205 0.126116
0.163241 0.396628 0.125856
0.186587 0.401648 0.125429
0.210758 0.406683 0.124819
0.235767 0.41207 0.12398
0.26128 0.417227 0.122942
0.287282 0.422614 0.121691
0.313222 0.428031 0.120302
0.338903 0.433204 0.118776
0.363821 0.438483 0.117128
0.387991 0.443412 0.115404
0.411124 0.448173 0.11368
0.433463 0.45275 0.111925
0.455253 0.457191 0.110124
0.476341 0.461463 0.108324
0.496956 0.465614 0.106538
0.516976 0.469657 0.104738
0.536614 0.473732 0.102907
0.555688 0.477409 0.101137
0.574502 0.481331 0.0993362
0.593103 0.484703 0.097734
0.611597 0.488136 0.0961471
0.63006 0.491356 0.0946822
0.649012 0.494118 0.0936141
0.668559 0.496483 0.0929274
0.688212 0.49865 0.0924392
0.708568 0.500496 0.0922408
0.729915 0.501656 0.0927596
0.0396887 0.406699 0.12607
0.0586404 0.410742 0.126253
0.0782483 0.414908 0.126284
0.0982528 0.419028 0.126116
0.119219 0.423606 0.125856
0.140871 0.428199 0.125414
0.163378 0.432975 0.124758
0.186831 0.437934 0.123964
0.211002 0.443015 0.122957
0.236042 0.448112 0.121752
0.261585 0.453483 0.120378
0.287602 0.458793 0.118807
0.313588 0.464256 0.117128
0.3393 0.469596 0.115312
0.364202 0.474907 0.11342
0.388373 0.479896 0.111467
0.411536 0.484688 0.109529
0.433921 0.489281 0.107607
0.455711 0.493599 0.105684
0.476814 0.497887 0.103746
0.497444 0.502068 0.101823
0.517479 0.506096 0.0999161
0.537194 0.51014 0.0980697
0.556481 0.513695 0.0963302
0.575662 0.51725 0.0946975
0.5953 0.52015 0.0936141
0.615091 0.522866 0.0927749
0.635111 0.525154 0.0922255
0.655756 0.526848 0.0922103
0.677256 0.528161 0.0927291
0.698726 0.529168 0.0934615
0.720195 0.530114 0.0942397
0.741665 0.531167 0.0951705
0.0396429 0.442145 0.126223
0.0585794 0.446036 0.126085
0.078172 0.450401 0.125795
0.0982528 0.45478 0.125338
0.119234 0.459236 0.124712
0.140963 0.46389 0.123903
0.163409 0.468727 0.122911
0.186847 0.473747 0.121736
0.211063 0.479042 0.120394
0.236164 0.484184 0.118898
0.261753 0.489555 0.117235
0.287785 0.494926 0.115389
0.313756 0.500587 0.11342
0.339559 0.505959 0.111376
0.364477 0.511147 0.1093
0.388617 0.516182 0.107149
0.41181 0.520974 0.105028
0.434211 0.525597 0.102953
0.456016 0.530221 0.100908
0.47715 0.534371 0.0989242
0.497826 0.538552 0.09691
0.518044 0.542489 0.0950484
0.538659 0.545861 0.0936751
0.559411 0.548638 0.0926833
0.580179 0.551186 0.0919661
0.601709 0.552758 0.0920882
0.623713 0.554147 0.092607
0.645487 0.555245 0.0932784
0.667063 0.556329 0.0940871
0.68864 0.557366 0.0950179
0.710109 0.55819 0.0960403
0.731746 0.559289 0.0972152
0.753246 0.560235 0.098436
0.0394446 0.476631 0.125536
0.0583658 0.481025 0.125048
0.0779736 0.485267 0.124407
0.098146 0.489525 0.123674
0.119127 0.494041 0.122744
0.140871 0.498878 0.12163
0.163363 0.503746 0.120394
0.186831 0.508644 0.118944
0.211063 0.513817 0.117327
0.236179 0.51902 0.115587
0.261784 0.524636 0.113664
0.287831 0.530159 0.111574
0.313771 0.5355 0.109422
0.339605 0.54107 0.107179
0.364584 0.546273 0.104906
0.388739 0.551354 0.102617
0.411933 0.555993 0.100404
0.434363 0.560922 0.0982071
0.456306 0.565179 0.0961776
0.478096 0.569268 0.0944533
0.50016 0.57258 0.0932021
0.522179 0.575113 0.0923934
0.544793 0.577386 0.092195
0.567636 0.578988 0.0925765
0.590295 0.580301 0.0931563
0.612482 0.581262 0.0939803
0.634546 0.582483 0.0948959
0.656382 0.583368 0.0958419
0.678035 0.584497 0.0969406
0.699641 0.585489 0.0981765
0.721141 0.586389 0.0995346
0.742809 0.587366 0.100984
0.764324 0.588144 0.102434
0.0390784 0.510323 0.124147
0.0580453 0.514748 0.123369
0.0776532 0.518914 0.122469
0.0978561 0.523339 0.121431
0.118883 0.527886 0.120241
0.140642 0.532631 0.118929
0.163302 0.53753 0.117433
0.186709 0.54258 0.11574
0.210941 0.547799 0.113909
0.236072 0.553201 0.11194
0.261707 0.558679 0.109819
0.287785 0.564218 0.107515
0.313756 0.569711 0.105165
0.339574 0.575158 0.102785
0.364553 0.580407 0.100389
0.388739 0.585458 0.098024
0.412192 0.590249 0.0958267
0.435569 0.594156 0.0941634
0.459159 0.597589 0.0930037
0.482872 0.60032 0.0924544
0.506966 0.602335 0.0925154
0.530938 0.603922 0.0929427
0.554604 0.605356 0.0935836
0.577768 0.606561 0.0945144
0.600626 0.60766 0.095552
0.622995 0.608759 0.0966812
0.645136 0.609766 0.0978866
0.666926 0.610727 0.0991531
0.688594 0.611673 0.100496
0.710246 0.612558 0.101991
0.731777 0.613519 0.103624
0.753368 0.614206 0.105257
0.775006 0.615045 0.10695
0.0386358 0.542687 0.12221
0.0576181 0.546883 0.121218
0.0772259 0.551369 0.120104
0.0974441 0.555993 0.118822
0.118517 0.560281 0.117433
0.140291 0.565042 0.115892
0.16289 0.57023 0.114153
0.186419 0.575341 0.112276
0.210697 0.580453 0.110277
0.235859 0.58587 0.10811
0.261509 0.591348 0.105821
0.287617 0.59678 0.103395
0.313649 0.602304 0.100923
0.339437 0.607889 0.0984054
0.364614 0.612879 0.0960555
0.389853 0.617441 0.0941939
0.415 0.621042 0.0929885
0.440375 0.623835 0.0924849
0.465965 0.625986 0.0925917
0.491218 0.62771 0.0931411
0.516136 0.62916 0.0939651
0.54049 0.630304 0.0949264
0.564462 0.631632 0.0959945
0.587701 0.632792 0.097261
0.610559 0.633799 0.0986038
0.632975 0.634806 0.0999771
0.655085 0.635874 0.101427
0.676951 0.636698 0.102953
0.698634 0.637583 0.104555
0.720317 0.638392 0.106264
0.741848 0.639155 0.10808
0.763485 0.639948 0.109911
0.785122 0.640696 0.111849
0.0381476 0.574182 0.119829
0.0571145 0.578424 0.118654
0.0767834 0.582818 0.117372
0.0970016 0.587289 0.115938
0.11809 0.591897 0.114305
0.139864 0.596658 0.112581
0.1626 0.601633 0.110674
0.186038 0.60676 0.108644
0.210361 0.612009 0.106477
0.235554 0.617426 0.104158
0.261219 0.622812 0.101747
0.287343 0.628519 0.0992142
0.313527 0.633997 0.0967269
0.340063 0.638987 0.0945602
0.366934 0.642939 0.0931716
0.394217 0.64622 0.0925154
0.421393 0.648554 0.0925917
0.44828 0.650507 0.0931563
0.474739 0.651926 0.0940261
0.50042 0.653178 0.0951247
0.525536 0.654459 0.0963607
0.549996 0.655741 0.097673
0.573953 0.656886 0.0990311
0.597192 0.657969 0.100526
0.620096 0.65893 0.102113
0.642603 0.659968 0.103746
0.664759 0.660761 0.105409
0.686595 0.661631 0.107179
0.708278 0.662455 0.108995
0.729976 0.663249 0.110903
0.751598 0.664088 0.112917
0.77319 0.664729 0.114885
0.794842 0.665415 0.117037
0.037583 0.604852 0.117128
0.0565652 0.609094 0.11577
0.0762646 0.613397 0.114336
0.0964675 0.61799 0.112703
0.117601 0.622477 0.110933
0.139376 0.627375 0.109056
0.162036 0.632349 0.107027
0.185595 0.637644 0.104845
0.209934 0.642664 0.102586
0.235157 0.648096 0.10016
0.260914 0.653712 0.097673
0.287572 0.658961 0.0953689
0.315007 0.663523 0.0935683
0.343557 0.66743 0.0925154
0.372641 0.669978 0.092546
0.401602 0.672175 0.0930495
0.429816 0.673945 0.0939956
0.45713 0.675319 0.0951247
0.483772 0.676692 0.0964065
0.50959 0.67808 0.0978256
0.534752 0.679194 0.0993362
0.559152 0.680201 0.100908
0.583108 0.68127 0.102541
0.606424 0.682383 0.104265
0.629297 0.683192 0.10605
0.651804 0.684169 0.107912
0.67393 0.685023 0.109804
0.695872 0.68571 0.111757
0.717601 0.68658 0.113787
0.739345 0.687434 0.115892
0.760906 0.68806 0.117998
0.782605 0.688746 0.120134
0.804257 0.689403 0.122438
0.0369421 0.63473 0.114153
0.0559396 0.638849 0.112657
0.075639 0.64329 0.111025
0.0958877 0.647776 0.10927
0.117021 0.652399 0.107393
0.138827 0.657191 0.105394
0.161608 0.662181 0.103258
0.185107 0.667216 0.101015
0.209476 0.672618 0.0986343
0.234943 0.677791 0.0962844
0.26157 0.682734 0.094255
0.289952 0.687068 0.0928817
0.31957 0.690364 0.0923934
0.350225 0.692805 0.0927138
0.380591 0.694667 0.0937057
0.410117 0.696315 0.0948959
0.438437 0.69781 0.0962234
0.465797 0.699214 0.0977035
0.492439 0.700435 0.0992752
0.518303 0.701747 0.100969
0.543526 0.702876 0.102754
0.568017 0.703929 0.104585
0.592004 0.704936 0.106432
0.615335 0.705882 0.108354
0.638224 0.706737 0.110369
0.6607 0.707698 0.112428
0.682948 0.708385 0.114488
0.704906 0.709224 0.11664
0.726589 0.709834 0.118807
0.748272 0.710445 0.121019
0.769924 0.711238 0.123278
0.791653 0.71191 0.125582
0.813336 0.712489 0.128023
0.0362249 0.663722 0.110979
0.0552377 0.668116 0.109316
0.0749676 0.672404 0.107561
0.0952773 0.676799 0.10573
0.116381 0.681544 0.103761
0.138247 0.686275 0.101671
0.160922 0.691386 0.0994583
0.184649 0.69662 0.0971237
0.209522 0.701442 0.0949722
0.236179 0.705974 0.0932631
0.26479 0.709697 0.0923781
0.295491 0.712459 0.0924849
0.326818 0.714534 0.0932174
0.358404 0.716457 0.0943618
0.388907 0.718166 0.0957504
0.418494 0.719692 0.0972915
0.44683 0.721096 0.09897
0.474266 0.72253 0.10074
0.500938 0.72369 0.102586
0.526787 0.724834 0.104524
0.551995 0.725795 0.106554
0.576516 0.726818 0.108583
0.60058 0.727855 0.110643
0.623957 0.728756 0.112749
0.646845 0.729564 0.114961
0.669291 0.730373 0.117159
0.6916 0.731121 0.119417
0.713603 0.731914 0.121706
0.735332 0.732509 0.124041
0.757092 0.733166 0.126421
0.778729 0.733822 0.128756
0.800458 0.734569 0.131243
0.822141 0.734997 0.133776
0.0354467 0.692119 0.107637
0.0545205 0.696254 0.105867
0.0742657 0.700694 0.104021
0.0946212 0.705226 0.102129
0.115694 0.709957 0.100069
0.137606 0.714839 0.0979019
0.160571 0.719631 0.0957504
0.184939 0.724285 0.0937972
0.211505 0.728191 0.0925612
0.240513 0.731365 0.0922255
0.271153 0.733639 0.0926986
0.303029 0.735622 0.0937362
0.334844 0.737438 0.0950637
0.366384 0.739101 0.0965744
0.396994 0.740917 0.0982986
0.426581 0.742229 0.100145
0.454978 0.743679 0.102129
0.482399 0.744854 0.104143
0.509133 0.746044 0.106218
0.534966 0.747051 0.10837
0.560281 0.74818 0.110628
0.584787 0.74905 0.112856
0.608789 0.74995 0.115114
0.632242 0.750957 0.117418
0.655177 0.751659 0.119753
0.677699 0.752499 0.122118
0.700008 0.753201 0.124529
0.721981 0.753796 0.12694
0.74377 0.754452 0.129397
0.765545 0.755077 0.131884
0.787137 0.755566 0.13434
0.808865 0.756207 0.136919
0.830594 0.756817 0.13959
0.0346838 0.719829 0.104204
0.0537575 0.723995 0.102342
0.0735332 0.728496 0.100404
0.0938582 0.733013 0.0984054
0.115007 0.737575 0.0963455
0.13724 0.742229 0.0942855
0.16112 0.746395 0.0926528
0.187961 0.749844 0.0920424
0.216831 0.752194 0.0922713
0.247364 0.754162 0.0930648
0.278798 0.756115 0.0942855
0.310796 0.758053 0.0957351
0.342596 0.759609 0.0973678
0.374228 0.761425 0.0992447
0.404807 0.762936 0.101274
0.43447 0.764187 0.103426
0.462898 0.76556 0.105669
0.490364 0.766766 0.107927
0.517143 0.76788 0.110246
0.543038 0.768902 0.112566
0.568338 0.769909 0.114961
0.592859 0.770825 0.117388
0.616953 0.771756 0.119875
0.640299 0.772381 0.122271
0.663355 0.773205 0.124773
0.685863 0.773907 0.12723
0.708186 0.774594 0.129793
0.73019 0.77525 0.132342
0.751995 0.775891 0.134874
0.773785 0.776562 0.137484
0.795392 0.77705 0.140093
0.817136 0.777691 0.142779
0.838773 0.778088 0.145464
0.033875 0.746563 0.10071
0.0529793 0.751019 0.0988022
0.0727092 0.75552 0.096788
0.0931106 0.760082 0.0947433
0.114702 0.764477 0.0928511
0.139208 0.767575 0.0920729
0.16582 0.77023 0.0919814
0.194171 0.772259 0.0925154
0.223957 0.77435 0.0935225
0.25478 0.776089 0.0948348
0.286244 0.777874 0.0963912
0.318242 0.779522 0.098146
0.350164 0.781247 0.10013
0.381872 0.782956 0.102296
0.412482 0.784436 0.104662
0.442145 0.785641 0.107057
0.470588 0.786831 0.109468
0.498054 0.787869 0.11194
0.524941 0.789105 0.114488
0.550805 0.789914 0.11696
0.57612 0.790936 0.119539
0.600702 0.791806 0.122103
0.624796 0.792752 0.124743
0.648173 0.793515 0.127382
0.671229 0.79411 0.129931
0.693797 0.794797 0.132509
0.716106 0.795377 0.135149
0.738155 0.796063 0.137774
0.759991 0.79675 0.140414
0.781674 0.797147 0.143038
0.803357 0.797787 0.145769
0.825132 0.798413 0.148547
0.846952 0.798962 0.151369
0.03299 0.77319 0.0971847
0.0521553 0.777584 0.0952163
0.0722667 0.781781 0.09337
0.094255 0.785275 0.0921798
0.118685 0.787976 0.0919051
0.1449 0.790082 0.0923171
0.172473 0.792004 0.09308
0.201358 0.793957 0.0941482
0.231144 0.795621 0.095491
0.262043 0.79736 0.0970779
0.293568 0.799084 0.0988937
0.325582 0.800671 0.100954
0.357534 0.80235 0.103258
0.389197 0.803815 0.105715
0.419883 0.805234 0.108324
0.449638 0.8065 0.110948
0.478111 0.80766 0.113588
0.505608 0.808637 0.116243
0.532464 0.809735 0.118959
0.558419 0.810697 0.12163
0.583734 0.811582 0.124331
0.608331 0.812406 0.127047
0.632425 0.81323 0.129824
0.655848 0.813962 0.13254
0.678889 0.814633 0.135225
0.701518 0.815259 0.137926
0.723903 0.815869 0.140642
0.745922 0.81648 0.143328
0.767727 0.81706 0.146029
0.789487 0.817594 0.148806
0.811139 0.818158 0.151598
0.832914 0.818723 0.154406
0.854765 0.819181 0.157244
0.0323644 0.799008 0.0938125
0.0527352 0.80264 0.0925002
0.0753338 0.805371 0.0920577
0.0991836 0.807584 0.0920424
0.12488 0.809659 0.0926833
0.151583 0.811322 0.0935836
0.179492 0.813046 0.0947738
0.208331 0.814786 0.0961776
0.238224 0.816556 0.0978256
0.269139 0.818189 0.0997177
0.300649 0.81973 0.101808
0.332723 0.821347 0.104143
0.364736 0.82298 0.106676
0.39646 0.824384 0.109407
0.427146 0.82562 0.112215
0.456931 0.826856 0.115053
0.48542 0.827955 0.117891
0.512901 0.828901 0.120729
0.539773 0.829984 0.123583
0.565744 0.8309 0.12639
0.591165 0.83183 0.129244
0.615747 0.832441 0.132067
0.639933 0.833295 0.134966
0.66334 0.83389 0.137743
0.686366 0.834577 0.140566
0.709041 0.835218 0.143359
0.731441 0.835828 0.146166
0.753429 0.836301 0.148898
0.77525 0.836957 0.151705
0.79707 0.837522 0.154559
0.81883 0.838117 0.157412
0.840528 0.838437 0.160235
0.862318 0.838972 0.163119
0.0347906 0.822736 0.0921492
0.0569924 0.825208 0.0920577
0.0809339 0.82707 0.0925154
0.105623 0.828702 0.0931411
0.131579 0.830442 0.0941787
0.158373 0.832135 0.0953994
0.186175 0.833677 0.0968643
0.215259 0.835508 0.0985733
0.245151 0.837125 0.100496
0.276051 0.838529 0.102632
0.307637 0.840177 0.105028
0.339757 0.841703 0.107637
0.371771 0.843168 0.11043
0.40354 0.844434 0.113375
0.434318 0.845777 0.116396
0.464057 0.846876 0.119387
0.492653 0.848112 0.122454
0.52018 0.848997 0.125444
0.547005 0.849836 0.128389
0.573022 0.850797 0.131365
0.598428 0.851621 0.134325
0.623087 0.852323 0.137255
0.647288 0.853132 0.14023
0.670726 0.853819 0.143099
0.693797 0.854322 0.145998
0.716442 0.854978 0.148867
0.738827 0.855634 0.151797
