Camo Studio.app/Contents/Resources/CamoContent_CamoContent.bundle/Contents/Resources/BLEACH_BYPASS.cube
TITLE "Generated by Resolve"
LUT_3D_SIZE 5
0 0 0
0.0518959 0 0.0521706
0.189303 0 0.0889601
0.373785 0 0.111025
0.530755 0 0.119265
0 0.137011 0.10312
0.116899 0.158053 0.119203
0.323964 0.171664 0.126162
0.585016 0.171267 0.120623
0.801404 0.159854 0.105638
0 0.398642 0.167956
0.173983 0.430228 0.176883
0.462547 0.457511 0.179339
0.789456 0.474495 0.192859
0.966705 0.495613 0.240879
0.0683757 0.736812 0.276402
0.335424 0.759976 0.342214
0.628641 0.783032 0.412695
0.872648 0.803403 0.482414
0.985611 0.825818 0.556161
0.401022 0.92697 0.562875
0.638346 0.942199 0.643763
0.832563 0.954147 0.723445
0.957031 0.964141 0.799054
0.997589 0.976165 0.87808
0.00337224 0 0.027863
0.0714885 0 0.114
0.22031 0 0.173327
0.405844 0 0.213581
0.56321 0 0.241459
0 0.147402 0.215824
0.12343 0.167163 0.254398
0.336934 0.180011 0.279576
0.607279 0.178454 0.29308
0.828031 0.165835 0.300084
0 0.413565 0.339986
0.179568 0.445686 0.373739
0.474296 0.473442 0.395026
0.796109 0.493233 0.420752
0.967941 0.516533 0.455543
0.0985275 0.746822 0.491157
0.362188 0.771435 0.545907
0.646952 0.796002 0.595926
0.881346 0.817395 0.644251
0.98706 0.840467 0.696712
0.440452 0.932921 0.716121
0.667369 0.947723 0.774899
0.84979 0.959442 0.827512
0.963195 0.969482 0.877775
0.998169 0.982177 0.933639
0.00753796 0 0.0670939
0.0920424 0 0.167193
0.250141 0 0.232303
0.438041 0 0.27982
0.595148 0 0.316014
0 0.161761 0.287022
0.135271 0.181216 0.336004
0.357488 0.193774 0.36968
0.63476 0.192065 0.392309
0.85803 0.179309 0.409369
0 0.435737 0.441611
0.19379 0.468544 0.486824
0.498512 0.497627 0.517571
0.809369 0.519036 0.539727
0.971954 0.544152 0.567529
0.129564 0.763104 0.604913
0.397589 0.7879 0.65185
0.674266 0.812833 0.691783
0.894041 0.834424 0.729534
0.989731 0.857511 0.771221
0.48394 0.941024 0.794842
0.700435 0.954528 0.840497
0.871031 0.965591 0.880461
0.970764 0.97557 0.919219
0.998947 0.988342 0.96379
0.0125124 0 0.114549
0.109728 0.0034638 0.221103
0.279515 0.00389105 0.293645
0.469718 0 0.348287
0.626902 0 0.393851
0 0.176852 0.360174
0.147662 0.195895 0.418051
0.378256 0.208545 0.46067
0.66215 0.206455 0.492348
0.888121 0.194049 0.519356
0 0.458762 0.542535
0.208606 0.492287 0.597711
0.522759 0.522911 0.630472
0.822339 0.54522 0.64625
0.975738 0.572381 0.66746
0.161212 0.779385 0.702815
0.433005 0.804364 0.741466
0.700893 0.829664 0.772946
0.906096 0.85124 0.801892
0.991897 0.873625 0.833448
0.527138 0.948638 0.855573
0.733013 0.961013 0.890166
0.890684 0.971344 0.919875
0.977707 0.981277 0.949828
0.999542 0.994125 0.985107
0.0182193 0.00364691 0.167865
0.128985 0.0103304 0.278233
0.307042 0.00914015 0.354437
0.500984 0 0.415869
0.658198 0 0.470787
0 0.192065 0.431434
0.160266 0.210849 0.496864
0.39881 0.224155 0.548363
0.689982 0.221897 0.589715
0.918288 0.209873 0.628107
0 0.482399 0.637781
0.224338 0.517464 0.70222
0.54612 0.54847 0.725978
0.834958 0.571832 0.737316
0.979004 0.600229 0.753475
0.193439 0.795331 0.783154
0.468467 0.820768 0.814466
0.725612 0.845838 0.838163
0.917098 0.867323 0.859724
0.993652 0.88922 0.883207
0.5691 0.955535 0.902083
0.764187 0.96698 0.927596
0.908736 0.976669 0.948943
0.983978 0.986587 0.971542
0.999969 0.999496 0.998978
