Camo Studio.app/Contents/Resources/CamoContent_CamoContent.bundle/Contents/Resources/BLEACH_BYPASS.cube
TITLE "Generated by Resolve"
LUT_3D_SIZE 9
0 0 0
0.0152285 0 0.0255741
0.0518959 0 0.0521706
0.111452 0 0.0756695
0.189303 0 0.0889601
0.283391 0 0.101122
0.373785 0 0.111025
0.459037 0 0.116701
0.530755 0 0.119265
0 0.0392615 0.0593576
0.030869 0.0510262 0.0768597
0.0897993 0.0610971 0.091249
0.166278 0.0677958 0.101427
0.261173 0.0703136 0.107088
0.37322 0.0686656 0.108751
0.479973 0.0657359 0.109667
0.581384 0.0590982 0.107347
0.668482 0.0490578 0.101808
0 0.137011 0.10312
0.0396582 0.147616 0.111757
0.116899 0.158053 0.119203
0.210239 0.166552 0.124361
0.323964 0.171664 0.126162
0.458152 0.172061 0.123705
0.585016 0.171267 0.120623
0.701991 0.167254 0.114778
0.801404 0.159854 0.105638
0 0.25507 0.135042
0.0473335 0.267277 0.140856
0.143694 0.28014 0.146181
0.256107 0.291402 0.149447
0.390219 0.29929 0.149386
0.546975 0.302235 0.144778
0.693294 0.304402 0.139803
0.825986 0.303593 0.132128
0.936797 0.299138 0.120851
0 0.398642 0.167956
0.0584878 0.413306 0.171939
0.173983 0.430228 0.176883
0.306355 0.445533 0.179843
0.462547 0.457511 0.179339
0.643351 0.464393 0.173922
0.789456 0.474495 0.192859
0.89688 0.48513 0.216907
0.966705 0.495613 0.240879
0 0.570718 0.201984
0.0724956 0.590845 0.205829
0.211749 0.612192 0.216693
0.376501 0.625116 0.246845
0.541985 0.63595 0.275059
0.704906 0.644526 0.301472
0.829709 0.65536 0.33106
0.920287 0.666804 0.362036
0.976669 0.678294 0.393515
0.0683757 0.736812 0.276402
0.184436 0.747158 0.306844
0.335424 0.759976 0.342214
0.482444 0.77232 0.378149
0.628641 0.783032 0.412695
0.768902 0.792462 0.446448
0.872648 0.803403 0.482414
0.943938 0.814618 0.51902
0.985611 0.825818 0.556161
0.22472 0.848493 0.411109
0.347417 0.858717 0.446815
0.480781 0.869947 0.487663
0.607996 0.880385 0.52874
0.730648 0.889311 0.567941
0.841062 0.897017 0.605585
0.917983 0.905211 0.64387
0.966857 0.913359 0.681987
0.992874 0.921691 0.721004
0.401022 0.92697 0.562875
0.527108 0.93463 0.601846
0.638346 0.942199 0.643763
0.739742 0.948699 0.684489
0.832563 0.954147 0.723445
0.908263 0.958892 0.760937
0.957031 0.964141 0.799054
0.98497 0.969787 0.837751
0.997589 0.976165 0.87808
0.00155642 0 0.0116426
0.0207828 0 0.0487678
0.0614023 0 0.0859236
0.124605 0 0.118334
0.204562 0 0.138628
0.29897 0 0.156909
0.389838 0 0.173114
0.475257 0 0.185107
0.547005 0 0.194247
0 0.0435035 0.104845
0.0332341 0.0546578 0.131533
0.0939803 0.0638743 0.15288
0.17145 0.0697642 0.168994
0.268086 0.071931 0.180606
0.382422 0.0698558 0.188174
0.491402 0.0664073 0.195346
0.594125 0.0593423 0.199741
0.681941 0.0487221 0.200946
0 0.14107 0.171756
0.0401312 0.150912 0.188327
0.118715 0.161257 0.20267
0.213275 0.169604 0.213931
0.328573 0.174517 0.221576
0.465049 0.174563 0.225055
0.59469 0.173144 0.228321
0.713252 0.168811 0.229709
0.813703 0.160784 0.227863
0 0.25977 0.223117
0.0472114 0.271321 0.237201
0.144625 0.284413 0.249577
0.258015 0.295689 0.258961
0.39324 0.303258 0.264576
0.552773 0.306249 0.266239
0.702419 0.307851 0.267842
0.837018 0.306889 0.267842
0.949645 0.30222 0.264515
0 0.40441 0.274617
0.0582437 0.418952 0.287694
0.174456 0.435996 0.299763
0.307713 0.45153 0.30898
0.465034 0.463264 0.314214
0.646983 0.471031 0.31809
0.790814 0.481758 0.337041
0.897139 0.492988 0.357031
0.966461 0.504067 0.376761
0 0.578134 0.328588
0.0722057 0.598321 0.342428
0.221012 0.616876 0.363043
0.383261 0.630472 0.387869
0.546334 0.641779 0.410163
0.707835 0.651102 0.431113
0.831998 0.662226 0.455039
0.92108 0.673915 0.480247
0.976837 0.686427 0.506584
0.0832074 0.73991 0.411612
0.197513 0.750866 0.440818
0.346349 0.764218 0.471244
0.491218 0.777142 0.500801
0.635096 0.788296 0.528359
0.77322 0.798169 0.555093
0.875639 0.809308 0.584115
0.94522 0.820706 0.613886
0.985901 0.832303 0.644343
0.241382 0.851438 0.52961
0.362249 0.861982 0.562051
0.493385 0.873487 0.59617
0.61796 0.884123 0.629175
0.738018 0.893263 0.660273
0.845777 0.901106 0.68983
0.920836 0.909285 0.720226
0.968017 0.917525 0.750881
0.993057 0.925994 0.782284
0.419471 0.929213 0.659648
0.542657 0.936889 0.693065
0.651286 0.944427 0.726818
0.749752 0.950912 0.758648
0.83978 0.956451 0.788998
0.912795 0.961288 0.818158
0.959609 0.966537 0.848173
0.986084 0.972412 0.879438
0.997787 0.979019 0.912184
0.00337224 0 0.027863
0.0268711 0 0.0715343
0.0714885 0 0.114
0.137606 0 0.149722
0.22031 0 0.173327
0.315129 0 0.19443
0.405844 0 0.213581
0.491646 0 0.228916
0.56321 0 0.241459
0 0.0490883 0.137804
0.0368353 0.0597696 0.168719
0.0999924 0.0684672 0.193393
0.179171 0.0737621 0.212299
0.277882 0.0756847 0.226993
0.394293 0.0733806 0.23772
0.504799 0.0697185 0.248219
0.608484 0.0624552 0.256123
0.696605 0.0515297 0.260777
0 0.147402 0.215824
0.0428779 0.156924 0.236484
0.12343 0.167163 0.254398
0.219837 0.175372 0.26891
0.336934 0.180011 0.279576
0.475822 0.180072 0.286397
0.607279 0.178454 0.29308
0.726848 0.173968 0.298131
0.828031 0.165835 0.300084
0 0.26746 0.277974
0.0501106 0.278904 0.296376
0.149264 0.291981 0.312367
0.264469 0.303334 0.325109
0.401709 0.310887 0.333913
0.563546 0.313909 0.338918
0.71519 0.315419 0.34406
0.850721 0.314275 0.347845
0.95877 0.312291 0.350637
0 0.413565 0.339986
0.0616465 0.428443 0.35787
0.179568 0.445686 0.373739
0.314702 0.461463 0.386419
0.474296 0.473442 0.395026
0.654383 0.482216 0.404456
0.796109 0.493233 0.420752
0.900114 0.504479 0.437919
0.967941 0.516533 0.455543
0 0.589242 0.405386
0.0764324 0.610178 0.424567
0.235737 0.625711 0.447822
0.395468 0.639277 0.469306
0.557 0.65124 0.488807
0.715999 0.661051 0.506783
0.837736 0.672618 0.527718
0.924422 0.684642 0.549828
0.978286 0.697551 0.572961
0.0985275 0.746822 0.491157
0.215091 0.757916 0.518517
0.362188 0.771435 0.545907
0.504738 0.784344 0.571633
0.646952 0.796002 0.595926
0.78201 0.806134 0.618982
0.881346 0.817395 0.644251
0.948333 0.82884 0.670222
0.98706 0.840467 0.696712
0.258305 0.856886 0.598962
0.381033 0.86746 0.628717
0.510277 0.878981 0.659052
0.632227 0.889448 0.687572
0.74966 0.898619 0.714412
0.853742 0.906386 0.739544
0.925383 0.914321 0.765255
0.970352 0.922683 0.792065
0.993759 0.931167 0.819272
0.440452 0.932921 0.716121
0.561257 0.940398 0.745785
0.667369 0.947723 0.774899
0.763012 0.954025 0.801907
0.84979 0.959442 0.827512
0.919249 0.964248 0.852171
0.963195 0.969482 0.877775
0.987701 0.975479 0.904982
0.998169 0.982177 0.933639
0.00535592 0 0.0464179
0.0331731 0 0.0947433
0.0817578 0 0.140688
0.147951 0 0.175448
0.235721 0 0.20351
0.331441 0 0.22652
0.421958 0 0.247456
0.508049 0 0.265034
0.57908 0 0.279805
0 0.0553597 0.16762
0.0407721 0.0652171 0.200565
0.106355 0.0734875 0.227359
0.187747 0.0784924 0.248356
0.288533 0.0801404 0.265064
0.407172 0.077821 0.278187
0.518837 0.073991 0.291066
0.623285 0.0665599 0.301442
0.711681 0.0555123 0.308629
0 0.154513 0.252461
0.0464027 0.163851 0.276081
0.129152 0.173999 0.296559
0.22771 0.182147 0.313405
0.346853 0.186603 0.326223
0.487938 0.186664 0.335454
0.620829 0.184985 0.344656
0.741222 0.180377 0.352331
0.842924 0.172259 0.357046
0 0.276249 0.322576
0.0540627 0.287663 0.344106
0.15523 0.30074 0.362722
0.27248 0.312123 0.377874
0.41207 0.319799 0.389075
0.576135 0.322881 0.396536
0.72929 0.324453 0.404349
0.865614 0.323262 0.41088
0.960739 0.327001 0.418723
0 0.424323 0.392706
0.0663462 0.439323 0.413931
0.186343 0.456794 0.432609
0.323491 0.472633 0.447715
0.485908 0.4851 0.459007
0.663706 0.494652 0.469932
0.802563 0.505898 0.484245
0.904173 0.517601 0.499626
0.969909 0.53019 0.515404
0 0.602319 0.467018
0.090074 0.621424 0.490135
0.252262 0.635843 0.512154
0.410056 0.6495 0.531289
0.569619 0.661753 0.548501
0.725734 0.671916 0.564218
0.844282 0.683742 0.582834
0.928481 0.696345 0.602914
0.980102 0.70959 0.623667
0.114015 0.754833 0.551904
0.234241 0.766018 0.57763
0.379721 0.779583 0.602625
0.520439 0.792538 0.625681
0.66041 0.804334 0.647257
0.792035 0.814649 0.667613
0.887541 0.825757 0.689784
0.951919 0.837446 0.713237
0.988403 0.848997 0.736736
0.275456 0.86305 0.651911
0.401083 0.873564 0.679377
0.527855 0.884764 0.706386
0.64799 0.895232 0.731945
0.762493 0.90425 0.755474
0.862531 0.911894 0.777295
0.930556 0.919722 0.799832
0.97293 0.927993 0.823453
0.994553 0.936431 0.847547
0.462089 0.936965 0.758953
0.58056 0.944152 0.785504
0.683619 0.95108 0.810697
0.77702 0.957259 0.834424
0.860456 0.962539 0.856489
0.926131 0.9673 0.877852
0.966995 0.972564 0.900313
0.989441 0.978546 0.924529
0.998581 0.985321 0.950195
0.00753796 0 0.0670939
0.0398566 0 0.119219
0.0920424 0 0.167193
0.160067 0 0.202274
0.250141 0 0.232303
0.347066 0 0.257176
0.438041 0 0.27982
0.524163 0 0.299199
0.595148 0 0.316014
0 0.0618296 0.196948
0.0450752 0.0710613 0.231617
0.11281 0.078645 0.259663
0.196567 0.0835431 0.282536
0.299794 0.0851148 0.301167
0.420371 0.0826734 0.316213
0.533165 0.0787518 0.331136
0.637812 0.070985 0.343374
0.726802 0.059968 0.352941
0 0.161761 0.287022
0.050309 0.171115 0.313329
0.135271 0.181216 0.336004
0.236027 0.189349 0.354894
0.357488 0.193774 0.36968
0.500587 0.193774 0.380911
0.63476 0.192065 0.392309
0.755718 0.187274 0.402136
0.85803 0.179309 0.409369
0 0.285374 0.364141
0.0584878 0.296864 0.388464
0.161761 0.310033 0.409384
0.280842 0.321233 0.426429
0.423133 0.329305 0.439948
0.589349 0.332479 0.449561
0.743923 0.334188 0.459724
0.881163 0.333135 0.468742
0.96286 0.342229 0.478172
0 0.435737 0.441611
0.0716564 0.450843 0.465705
0.19379 0.468544 0.486824
0.333089 0.484504 0.504097
0.498512 0.497627 0.517571
0.673594 0.507591 0.527214
0.809369 0.519036 0.539727
0.908431 0.531136 0.553475
0.971954 0.544152 0.567529
0 0.616037 0.523842
0.108736 0.6318 0.548089
0.26923 0.646326 0.568261
0.425391 0.660166 0.585458
0.58294 0.672663 0.600641
0.735943 0.683146 0.614343
0.851072 0.695155 0.630854
0.932647 0.708263 0.649073
0.981933 0.721828 0.66772
0.129564 0.763104 0.604913
0.25388 0.774411 0.629129
0.397589 0.7879 0.65185
0.536706 0.800977 0.672648
0.674266 0.812833 0.691783
0.802197 0.823224 0.709712
0.894041 0.834424 0.729534
0.955505 0.846052 0.750408
0.989731 0.857511 0.771221
0.29279 0.869413 0.697871
0.421561 0.879805 0.723125
0.54612 0.890761 0.74728
0.663935 0.90103 0.76997
0.775372 0.90985 0.79057
0.871107 0.917266 0.80943
0.935699 0.925109 0.829404
0.975479 0.933242 0.850202
0.995315 0.941665 0.871595
0.48394 0.941024 0.794842
0.59997 0.947906 0.818433
0.700435 0.954528 0.840497
0.790982 0.960464 0.861173
0.871031 0.965591 0.880461
0.932616 0.970214 0.898939
0.970764 0.97557 0.919219
0.991104 0.981567 0.940841
0.998947 0.988342 0.96379
0.0099031 0 0.0896468
0.0466621 0 0.144991
0.101778 0 0.194125
0.17293 0.00282292 0.230716
0.264942 0.00128176 0.262135
0.362158 0 0.288426
0.45391 0 0.313191
0.540322 0 0.334737
0.611139 0 0.35378
0 0.0682994 0.227222
0.049546 0.076936 0.263416
0.119417 0.0839857 0.29279
0.205219 0.0886244 0.317449
0.310933 0.0902113 0.338247
0.433402 0.0876631 0.355276
0.547433 0.0836805 0.372229
0.652781 0.0758068 0.386526
0.741894 0.064683 0.398184
0 0.16939 0.322866
0.0544747 0.178561 0.351476
0.141497 0.188571 0.376242
0.244007 0.196445 0.396948
0.368048 0.201144 0.414038
0.513191 0.201114 0.427283
0.648432 0.199191 0.440604
0.770504 0.194598 0.452857
0.873121 0.186633 0.462379
0 0.294759 0.406744
0.0631418 0.306218 0.433539
0.168414 0.319509 0.456764
0.289601 0.330861 0.476005
0.434211 0.339086 0.491646
0.602564 0.342367 0.50338
0.758129 0.343847 0.515526
0.891264 0.345647 0.52697
0.964904 0.357595 0.535241
0 0.447288 0.491249
0.0772412 0.462593 0.518059
0.201434 0.480598 0.541619
0.342977 0.496895 0.561242
0.510979 0.510323 0.574334
0.683207 0.520592 0.582208
0.815961 0.532097 0.592828
0.912627 0.544854 0.605051
0.973938 0.558267 0.617304
0 0.63003 0.581155
0.127489 0.642176 0.603296
0.285618 0.656443 0.621363
0.440513 0.670832 0.636973
0.596078 0.683619 0.650339
0.746044 0.694484 0.662196
0.857847 0.706737 0.676661
0.93666 0.720119 0.692805
0.983642 0.733913 0.709285
0.145266 0.771328 0.654887
0.273487 0.782712 0.677256
0.415366 0.79617 0.697749
0.55285 0.809415 0.716472
0.687922 0.821332 0.733455
0.811963 0.831693 0.749111
0.900267 0.842939 0.766674
0.958846 0.854459 0.785016
0.990936 0.865827 0.803204
0.310185 0.875669 0.739651
0.441917 0.885954 0.76257
0.564355 0.896712 0.7841
0.679576 0.906737 0.804013
0.787823 0.915328 0.821988
0.879286 0.922515 0.8383
0.940566 0.930312 0.856031
0.977829 0.938354 0.874372
0.995987 0.9467 0.893217
0.505699 0.944945 0.82649
0.618891 0.951461 0.847196
0.716976 0.957855 0.866514
0.804562 0.963546 0.884443
0.881163 0.968521 0.901228
0.939101 0.973129 0.917479
0.97435 0.978485 0.9355
0.99266 0.984497 0.954818
0.999268 0.991287 0.975402
0.0125124 0 0.114549
0.0536355 0 0.172534
0.109728 0.0034638 0.221103
0.185611 0.00570687 0.260731
0.279515 0.00389105 0.293645
0.377234 0 0.321386
0.469718 0 0.348287
0.55639 0 0.372168
0.626902 0 0.393851
0 0.0744488 0.258503
0.0539101 0.082475 0.296101
0.125948 0.0892805 0.327291
0.21384 0.0938277 0.354009
0.321859 0.0953994 0.377157
0.446113 0.0926986 0.396597
0.561242 0.0884871 0.415869
0.667536 0.0806287 0.432853
0.756848 0.0694438 0.447013
0 0.176852 0.360174
0.058732 0.185931 0.391104
0.147662 0.195895 0.418051
0.252094 0.203815 0.441093
0.378256 0.208545 0.46067
0.525399 0.208515 0.47657
0.66215 0.206455 0.492348
0.785153 0.201968 0.507286
0.888121 0.194049 0.519356
0 0.304051 0.451072
0.0679026 0.315526 0.480293
0.174807 0.328756 0.505669
0.298039 0.340536 0.527581
0.444907 0.348974 0.545922
0.615396 0.352392 0.560479
0.772702 0.353918 0.575311
0.895125 0.360418 0.586557
0.966751 0.372824 0.59324
0 0.458762 0.542535
0.0828717 0.474311 0.571939
0.208606 0.492287 0.597711
0.35256 0.509438 0.62034
0.522759 0.522911 0.630472
0.691875 0.533165 0.636957
0.822339 0.54522 0.64625
0.916518 0.55848 0.656931
0.975738 0.572381 0.66746
0.0101625 0.641169 0.637125
0.146166 0.652338 0.656794
0.302281 0.666758 0.673014
0.455116 0.681315 0.686839
0.608484 0.694362 0.698543
0.755062 0.705287 0.708659
0.864302 0.718181 0.721691
0.940398 0.731838 0.735958
0.985153 0.745785 0.750317
0.161212 0.779385 0.702815
0.29305 0.790875 0.723186
0.433005 0.804364 0.741466
0.568383 0.81767 0.758022
0.700893 0.829664 0.772946
0.820966 0.839887 0.786389
0.906096 0.85124 0.801892
0.961898 0.862623 0.817868
0.991897 0.873625 0.833448
0.327718 0.881727 0.778927
0.461295 0.891691 0.799146
0.582055 0.902464 0.818311
0.694575 0.912245 0.835615
0.799573 0.920623 0.851057
0.887022 0.927657 0.865034
0.945052 0.935332 0.8804
0.979934 0.943297 0.896391
0.996536 0.951553 0.91284
0.527138 0.948638 0.855573
0.637369 0.954833 0.873442
0.733013 0.961013 0.890166
0.817578 0.966506 0.905516
0.890684 0.971344 0.919875
0.94519 0.975937 0.934035
0.977707 0.981277 0.949828
0.994064 0.987305 0.966857
0.999542 0.994125 0.985107
0.0153353 0.00111391 0.141024
0.0608225 0.00259403 0.20116
0.119066 0.00686656 0.249851
0.197787 0.00843824 0.290593
0.293446 0.00645457 0.324895
0.392294 0.000640879 0.354299
0.485176 0 0.383001
0.572488 0 0.409384
0.642557 0 0.4336
0 0.0806744 0.289998
0.0583352 0.0879072 0.328435
0.132479 0.0946517 0.361486
0.222461 0.0991989 0.390234
0.332677 0.10074 0.415549
0.458762 0.0979477 0.437293
0.57499 0.0934462 0.458717
0.682185 0.0856336 0.478447
0.771725 0.0743725 0.49543
0 0.184298 0.396948
0.0631723 0.193301 0.429999
0.153872 0.203296 0.459022
0.260182 0.211383 0.484352
0.388388 0.216159 0.506279
0.537499 0.216129 0.524758
0.675929 0.213962 0.543084
0.799802 0.209567 0.560937
0.903136 0.201709 0.576104
0 0.313359 0.494285
0.0728923 0.324941 0.525841
0.181384 0.338262 0.553368
0.306477 0.350439 0.577783
0.455512 0.359106 0.598672
0.627924 0.36257 0.61593
0.787366 0.364294 0.633707
0.898848 0.37525 0.642039
0.96849 0.388022 0.647776
0 0.470359 0.592233
0.088716 0.486137 0.624094
0.21622 0.504616 0.652338
0.364736 0.522011 0.674449
0.53434 0.535607 0.68191
0.700496 0.546029 0.687266
0.828565 0.558358 0.695247
0.920256 0.57203 0.704646
0.977386 0.586297 0.713817
0.0249332 0.65095 0.68748
0.164462 0.662181 0.70544
0.318944 0.677073 0.720134
0.469673 0.691875 0.73228
0.620752 0.705165 0.742412
0.764172 0.71635 0.75108
0.870542 0.729503 0.762463
0.943969 0.743435 0.775021
0.986496 0.757229 0.78735
0.17731 0.78735 0.746242
0.312154 0.798764 0.764553
0.450614 0.812528 0.780941
0.583658 0.825864 0.795468
0.713115 0.837705 0.80824
0.829816 0.848096 0.819928
0.911665 0.859358 0.83331
0.964736 0.870604 0.847089
0.992813 0.881483 0.860517
0.348928 0.887694 0.81413
0.481209 0.897536 0.832059
0.59942 0.908049 0.848707
0.709087 0.917586 0.863523
0.810361 0.925597 0.876448
0.894362 0.932647 0.888518
0.94931 0.9402 0.901701
0.981888 0.948089 0.915541
0.99704 0.956359 0.929915
0.54844 0.952193 0.881102
0.655848 0.958114 0.896498
0.748684 0.96405 0.910719
0.830228 0.969345 0.92372
0.899672 0.974014 0.935821
0.950988 0.978637 0.948119
0.980896 0.983978 0.961868
0.995346 0.989944 0.976638
0.999771 0.996872 0.992905
0.0182193 0.00364691 0.167865
0.0679332 0.00578317 0.229328
0.128985 0.0103304 0.278233
0.2103 0.0115358 0.3196
0.307042 0.00914015 0.354437
0.407263 0.00320439 0.385397
0.500984 0 0.415869
0.588586 0 0.444297
0.658198 0 0.470787
0 0.0870069 0.320073
0.0630655 0.0936141 0.359243
0.13904 0.100069 0.393439
0.231235 0.104814 0.424186
0.343618 0.106355 0.451347
0.471534 0.103502 0.475135
0.589151 0.0988632 0.498589
0.696956 0.0910048 0.520607
0.786618 0.0797131 0.540063
0 0.192065 0.431434
0.0679484 0.200977 0.46627
0.160266 0.210849 0.496864
0.268513 0.219272 0.52433
0.39881 0.224155 0.548363
0.549371 0.223896 0.568826
0.689982 0.221897 0.589715
0.814618 0.217609 0.610147
0.918288 0.209873 0.628107
0 0.322988 0.534188
0.078294 0.334707 0.567773
0.188464 0.348302 0.597299
0.315312 0.360784 0.623804
0.466499 0.369696 0.646983
0.640696 0.373175 0.666575
0.797681 0.377264 0.684184
0.902678 0.390372 0.689845
0.970245 0.403433 0.694713
0 0.482399 0.637781
0.0950332 0.498421 0.671763
0.224338 0.517464 0.70222
0.378759 0.53463 0.719585
0.54612 0.54847 0.725978
0.709377 0.559197 0.730434
0.834958 0.571832 0.737316
0.924056 0.585855 0.745586
0.979004 0.600229 0.753475
0.039826 0.660914 0.730571
0.183108 0.672221 0.747036
0.335775 0.68748 0.760311
0.484474 0.702586 0.771069
0.633143 0.71603 0.779782
0.773419 0.72755 0.787243
0.876814 0.740902 0.797177
0.947478 0.754986 0.808209
0.987823 0.768872 0.818952
0.193439 0.795331 0.783154
0.332052 0.806958 0.799893
0.468467 0.820768 0.814466
0.599145 0.834119 0.827192
0.725612 0.845838 0.838163
0.83856 0.856214 0.848188
0.917098 0.867323 0.859724
0.967422 0.87834 0.871534
0.993652 0.88922 0.883207
0.371008 0.893538 0.843656
0.501213 0.903334 0.859724
0.616815 0.913588 0.874144
0.723522 0.92285 0.886809
0.821393 0.930617 0.897749
0.901534 0.93753 0.908003
0.953429 0.944961 0.919326
0.983688 0.952651 0.931212
0.997497 0.961059 0.943999
0.5691 0.955535 0.902083
0.67422 0.961303 0.915511
0.764187 0.96698 0.927596
0.842435 0.972045 0.938521
0.908736 0.976669 0.948943
0.956664 0.981277 0.959564
0.983978 0.986587 0.971542
0.996597 0.992554 0.984558
0.999969 0.999496 0.998978
