Camo Studio.app/Contents/Resources/CamoContent_CamoContent.bundle/Contents/Resources/BLEACH_BYPASS.cube
TITLE "Generated by Resolve"
LUT_3D_SIZE 33
0 0 0
0.00161746 0 0.00590524
0.004654 0 0.0123598
0.00927749 0 0.019089
0.0152285 0 0.0255741
0.0224308 0 0.0321508
0.0308385 0 0.0388342
0.0406348 0 0.0455329
0.0518959 0 0.0521706
0.0648356 0 0.0587778
0.0789654 0 0.0648356
0.0944991 0 0.0704967
0.111452 0 0.0756695
0.129519 0 0.0801404
0.14725 0 0.0823682
0.167742 0 0.0856336
0.189303 0 0.0889601
0.212039 0 0.0921187
0.235676 0 0.0951705
0.25951 0 0.0981308
0.283391 0 0.101122
0.30602 0 0.103853
0.328389 0 0.106493
0.351125 0 0.108904
0.373785 0 0.111025
0.396201 0 0.112902
0.417838 0 0.114427
0.438712 0 0.115648
0.459037 0 0.116701
0.478508 0 0.117586
0.496941 0 0.118273
0.51458 0 0.118868
0.530755 0 0.119265
0.000640879 0.000320439 0.0177462
0.00328069 0.00062562 0.0233616
0.00770581 0.000961318 0.0292821
0.0137789 0.00125124 0.0350347
0.0212253 0.00163272 0.0407111
0.029633 0.00225834 0.0462348
0.0389715 0.00306706 0.0516213
0.0498054 0.00404364 0.0570687
0.0619211 0.00492866 0.06215
0.0755932 0.00581369 0.0670939
0.0909285 0.00665293 0.07187
0.107805 0.00737011 0.0763867
0.126146 0.00791943 0.0805829
0.14612 0.00840772 0.0846113
0.167239 0.00866712 0.0882429
0.189868 0.00880446 0.0916762
0.213565 0.0087129 0.0948043
0.237781 0.00825513 0.0974289
0.262333 0.00753796 0.099733
0.287144 0.00671397 0.101961
0.311467 0.00578317 0.104036
0.335058 0.00480659 0.106096
0.357931 0.00367742 0.107973
0.380514 0.00227359 0.10956
0.403647 0.000534066 0.110903
0.426581 0 0.112032
0.448936 0 0.112871
0.470741 0 0.113436
0.49189 0 0.113787
0.51223 0 0.11397
0.532006 0 0.114076
0.550378 0 0.113954
0.567315 0 0.113603
0 0.00759899 0.0323644
0.00114443 0.00923171 0.0378119
0.00729381 0.0107118 0.043122
0.0152895 0.0121157 0.0482948
0.0246891 0.0135348 0.0533761
0.0349889 0.0151217 0.0584115
0.0463722 0.0170138 0.0636759
0.0589151 0.0187991 0.0685893
0.0728313 0.0204776 0.0732586
0.0880446 0.0219883 0.0775921
0.104677 0.023331 0.0816358
0.122866 0.024567 0.0854963
0.142947 0.0257572 0.0892805
0.163775 0.0265507 0.0924849
0.185565 0.0270237 0.0952621
0.208423 0.0272526 0.0977188
0.232609 0.0273289 0.0999771
0.25803 0.0271458 0.101976
0.284001 0.0266575 0.103655
0.309392 0.0257877 0.104891
0.334371 0.0247654 0.10602
0.35877 0.0238041 0.10721
0.382666 0.022858 0.108461
0.40676 0.0218814 0.109743
0.430579 0.0203861 0.110506
0.454215 0.0186313 0.11104
0.477607 0.0166171 0.11136
0.500557 0.0143587 0.111437
0.523033 0.0118868 0.111345
0.544564 0.00920119 0.111055
0.564874 0.00627146 0.110521
0.5841 0.00317388 0.109819
0.60206 0 0.108965
0 0.0208438 0.0462043
0 0.0234989 0.0513466
0.00640879 0.0258793 0.05626
0.0165408 0.0281529 0.0610361
0.0280308 0.030396 0.0656596
0.0403296 0.0328527 0.0704051
0.0530404 0.0351873 0.0747692
0.0668803 0.0374456 0.0789654
0.0821241 0.0396429 0.0830243
0.0986801 0.0416571 0.0868086
0.116655 0.0435035 0.0903639
0.135485 0.0448463 0.0932937
0.155596 0.0459449 0.0959029
0.17702 0.046891 0.0983597
0.199603 0.0475929 0.100511
0.223148 0.0479744 0.102312
0.24802 0.0482032 0.103944
0.273762 0.0479896 0.105119
0.300435 0.0475013 0.10602
0.327398 0.0467689 0.106706
0.354162 0.0458686 0.107256
0.380224 0.0450141 0.107881
0.405844 0.0443122 0.108721
0.430686 0.0434577 0.109422
0.455604 0.042298 0.109834
0.480369 0.0407874 0.109957
0.504784 0.0390021 0.109819
0.528954 0.0370336 0.109499
0.55259 0.0348363 0.108995
0.57499 0.0323491 0.108217
0.596323 0.0296483 0.107225
0.616449 0.0267796 0.10605
0.635325 0.0237736 0.104753
0 0.0392615 0.0593576
0 0.0427253 0.064271
0.00526436 0.045655 0.0686656
0.0174716 0.0484016 0.0728618
0.030869 0.0510262 0.0768597
0.0446784 0.0537575 0.0808118
0.0588235 0.0564889 0.0846418
0.0738079 0.0589303 0.0881208
0.0897993 0.0610971 0.091249
0.10724 0.0632792 0.0943465
0.125811 0.0651255 0.0970779
0.145495 0.0666514 0.0994583
0.166278 0.0677958 0.101427
0.188037 0.0686656 0.10309
0.211017 0.0693523 0.104555
0.235676 0.0700236 0.10602
0.261173 0.0703136 0.107088
0.287953 0.0703288 0.107897
0.316014 0.0700084 0.108385
0.344564 0.0694285 0.108629
0.37322 0.0686656 0.108751
0.401373 0.06804 0.109041
0.428122 0.0673228 0.10927
0.454139 0.0666056 0.109529
0.479973 0.0657359 0.109667
0.50602 0.0644388 0.109407
0.532036 0.0630655 0.109102
0.557046 0.0612039 0.108339
0.581384 0.0590982 0.107347
0.604807 0.0568246 0.106188
0.627176 0.0543526 0.104845
0.648463 0.0517586 0.10338
0.668482 0.0490578 0.101808
0 0.0612497 0.0719158
0 0.0650492 0.0763409
0.00434882 0.0684367 0.0804303
0.0185092 0.0712902 0.0839704
0.0335393 0.0737469 0.087068
0.0485847 0.0762493 0.0900893
0.063798 0.0789197 0.0931868
0.079881 0.0814679 0.0961318
0.0971389 0.0839399 0.0989395
0.115145 0.0858473 0.101198
0.134249 0.0875257 0.103197
0.15462 0.0890211 0.104997
0.176333 0.0903029 0.106584
0.199451 0.0915389 0.108095
0.223545 0.0924239 0.109255
0.248875 0.0930648 0.110201
0.275517 0.0935378 0.110964
0.303502 0.0937972 0.111513
0.332998 0.0936599 0.111727
0.36347 0.09337 0.111772
0.393622 0.0926528 0.111467
0.42298 0.0919814 0.111238
0.451255 0.0913863 0.111116
0.478523 0.0908217 0.11107
0.505379 0.0901198 0.110918
0.532815 0.0891737 0.110521
0.559442 0.0878157 0.109758
0.585519 0.0861524 0.108736
0.610849 0.0842145 0.107439
0.635126 0.0820783 0.105959
0.658473 0.0798199 0.104356
0.680781 0.0774853 0.102663
0.701335 0.074876 0.100694
0 0.0857557 0.0840009
0 0.0894636 0.0878157
0.00357061 0.0923629 0.0909133
0.0193942 0.0949416 0.0937057
0.0360266 0.0973831 0.0962844
0.0524147 0.0998093 0.0987716
0.0687114 0.102358 0.101289
0.0857557 0.104799 0.103655
0.103761 0.107027 0.105806
0.122881 0.109087 0.107774
0.143114 0.110933 0.109514
0.164569 0.112566 0.111025
0.187625 0.114153 0.112474
0.211749 0.115465 0.113649
0.237049 0.116518 0.11458
0.263554 0.117327 0.115267
0.291341 0.117922 0.115755
0.320485 0.118288 0.11603
0.351797 0.118532 0.116182
0.383398 0.118212 0.115816
0.41503 0.117586 0.115206
0.445731 0.11696 0.114641
0.475303 0.116457 0.114244
0.503792 0.116045 0.113954
0.532158 0.115724 0.113771
0.560159 0.114763 0.112978
0.587701 0.113512 0.111955
0.614725 0.112001 0.110689
0.640986 0.110216 0.109163
0.666621 0.108461 0.107637
0.690593 0.106294 0.10573
0.713252 0.10396 0.10367
0.734478 0.101503 0.101472
0 0.111162 0.0943923
0 0.114672 0.0976272
0.00259403 0.117311 0.100145
0.0198825 0.119463 0.10219
0.0378576 0.121614 0.104143
0.0555886 0.124132 0.106325
0.0730907 0.126833 0.108598
0.0912184 0.12932 0.110658
0.110338 0.131655 0.112551
0.130587 0.133883 0.11429
0.152041 0.135927 0.115846
0.175006 0.137987 0.117357
0.199008 0.139544 0.118441
0.22417 0.140932 0.119326
0.25066 0.142123 0.120043
0.278431 0.143114 0.120546
0.307774 0.14403 0.120958
0.338262 0.144579 0.12105
0.370443 0.144717 0.120775
0.403494 0.144503 0.12018
0.436622 0.144015 0.119356
0.468757 0.143496 0.118547
0.499992 0.143297 0.118059
0.52961 0.143008 0.117556
0.558587 0.142641 0.117006
0.587625 0.141863 0.11606
0.616175 0.140764 0.114839
0.644099 0.139376 0.113359
0.671687 0.137972 0.111803
0.697704 0.136156 0.109895
0.722484 0.134142 0.107805
0.745861 0.131975 0.105547
0.767697 0.129671 0.103151
0 0.137011 0.10312
0 0.140322 0.105898
0.00128176 0.142947 0.108095
0.0201267 0.145235 0.109941
0.0396582 0.147616 0.111757
0.0586252 0.150088 0.113588
0.0772564 0.152834 0.115587
0.0965896 0.15552 0.117494
0.116899 0.158053 0.119203
0.138384 0.160494 0.120821
0.16112 0.162814 0.122271
0.184985 0.164797 0.12343
0.210239 0.166552 0.124361
0.236622 0.168093 0.125063
0.264256 0.169406 0.125566
0.293477 0.170672 0.125994
0.323964 0.171664 0.126162
0.355657 0.172335 0.126055
0.389181 0.172595 0.125582
0.423606 0.172473 0.124758
0.458152 0.172061 0.123705
0.492103 0.171878 0.12285
0.524285 0.171649 0.122042
0.555032 0.171496 0.121355
0.585016 0.171267 0.120623
0.615045 0.170626 0.119509
0.644602 0.169726 0.118135
0.673976 0.16875 0.116686
0.701991 0.167254 0.114778
0.728817 0.165591 0.112688
0.75436 0.163745 0.11043
0.778454 0.16173 0.108003
0.801404 0.159854 0.105638
0 0.164111 0.111238
0 0.167468 0.113787
4.57771e-05 0.170184 0.11577
0.0204776 0.172763 0.117556
0.0413672 0.175082 0.119036
0.0616312 0.177661 0.120684
0.0814374 0.180499 0.122469
0.101915 0.183322 0.124193
0.123476 0.18613 0.125856
0.146212 0.18883 0.127382
0.16997 0.19115 0.128557
0.19498 0.193256 0.129534
0.221408 0.195148 0.130297
0.249027 0.196872 0.130877
0.278294 0.198611 0.131411
0.308507 0.199863 0.131548
0.340078 0.200885 0.131472
0.373068 0.201694 0.131212
0.407965 0.202121 0.130587
0.44416 0.202304 0.129717
0.480323 0.202106 0.128542
0.51519 0.201816 0.127337
0.548577 0.201694 0.126329
0.580514 0.201709 0.125505
0.611582 0.201678 0.124651
0.643 0.201434 0.123568
0.673625 0.200717 0.122087
0.703471 0.19968 0.120287
0.732418 0.198367 0.118227
0.760082 0.196857 0.115999
0.786404 0.195178 0.113588
0.811658 0.193606 0.111208
0.83476 0.191653 0.108492
0 0.192767 0.119173
0 0.196582 0.121798
0 0.199313 0.123552
0.0208591 0.201663 0.12491
0.0431525 0.204074 0.126207
0.0647288 0.206821 0.127703
0.0857404 0.209857 0.129397
0.107546 0.213062 0.131151
0.130175 0.2159 0.132586
0.153948 0.218601 0.133867
0.178897 0.221118 0.134936
0.205097 0.223407 0.13579
0.232822 0.225513 0.136461
0.261875 0.227543 0.137011
0.292042 0.229206 0.137255
0.323568 0.23064 0.137285
0.356435 0.23183 0.137072
0.390707 0.232761 0.13666
0.427192 0.233478 0.135988
0.464805 0.233783 0.134951
0.502251 0.233631 0.133547
0.538476 0.233494 0.132204
0.573114 0.233524 0.131044
0.60618 0.233722 0.130098
0.638682 0.234089 0.12929
0.670909 0.233906 0.127993
0.702449 0.233341 0.126345
0.733242 0.232471 0.124422
0.763073 0.231327 0.12224
0.791592 0.230015 0.11986
0.819165 0.228809 0.117525
0.844648 0.227161 0.114824
0.868391 0.225391 0.111986
0 0.223239 0.127214
0 0.226917 0.129534
0 0.229786 0.131136
0.0214389 0.232227 0.132311
0.0450904 0.234684 0.13341
0.0679179 0.237537 0.134752
0.0903182 0.241032 0.136522
0.113115 0.24419 0.138018
0.136904 0.247181 0.139345
0.161791 0.250019 0.14049
0.187915 0.252689 0.141451
0.215427 0.255238 0.14226
0.244556 0.257679 0.142931
0.274617 0.259693 0.143252
0.30602 0.261509 0.143359
0.338811 0.263096 0.143282
0.373022 0.264485 0.142977
0.40911 0.265904 0.142672
0.446769 0.266636 0.141772
0.485603 0.266957 0.140505
0.524468 0.266957 0.138979
0.562081 0.267002 0.137499
0.598199 0.267353 0.136339
0.63267 0.267903 0.135409
0.665888 0.268269 0.13434
0.699016 0.268208 0.132891
0.731579 0.267842 0.131151
0.763363 0.267185 0.129122
0.794446 0.266468 0.12697
0.823957 0.265446 0.124559
0.85182 0.264149 0.121889
0.878004 0.262715 0.119066
0.902388 0.261158 0.116121
0 0.25507 0.135042
0 0.258839 0.137209
0 0.261799 0.138659
0.0221561 0.264378 0.139696
0.0473335 0.267277 0.140856
0.0714275 0.270268 0.142061
0.0947738 0.273594 0.143511
0.11873 0.276936 0.144915
0.143694 0.28014 0.146181
0.169757 0.283192 0.147265
0.19736 0.286336 0.148333
0.225986 0.288975 0.149004
0.256107 0.291402 0.149447
0.287449 0.293629 0.149706
0.32015 0.295644 0.149737
0.354314 0.29749 0.149599
0.390219 0.29929 0.149386
0.427237 0.300633 0.148791
0.466346 0.301564 0.147814
0.506661 0.302068 0.146441
0.546975 0.302235 0.144778
0.58613 0.302571 0.143282
0.62359 0.303181 0.142046
0.658976 0.303792 0.140932
0.693294 0.304402 0.139803
0.727489 0.30457 0.138277
0.761074 0.304433 0.136431
0.794125 0.304189 0.134447
0.825986 0.303593 0.132128
0.856229 0.302724 0.129564
0.884901 0.301671 0.126802
0.911803 0.300465 0.123888
0.936797 0.299138 0.120851
0 0.288426 0.143008
0 0.292363 0.145068
0 0.295415 0.146365
0.0233005 0.29839 0.147433
0.0497139 0.301167 0.148302
0.0750591 0.304326 0.149416
0.0995651 0.307851 0.15079
0.124651 0.31136 0.152117
0.150774 0.314763 0.153307
0.178317 0.318364 0.154559
0.206851 0.321431 0.155398
0.236713 0.324285 0.156008
0.26807 0.326894 0.156374
0.300694 0.32932 0.156573
0.334752 0.331609 0.156588
0.370581 0.333898 0.156542
0.407523 0.335668 0.1561
0.445945 0.337209 0.155428
0.486503 0.338338 0.154376
0.528298 0.33904 0.152911
0.570565 0.339757 0.151385
0.610895 0.340185 0.149722
0.649332 0.340826 0.148287
0.685878 0.34168 0.147097
0.721294 0.342535 0.145907
0.756756 0.343099 0.144411
0.791714 0.34345 0.142672
0.825467 0.343252 0.140475
0.858045 0.342763 0.137987
0.889113 0.342138 0.135332
0.918593 0.341344 0.132509
0.944259 0.341482 0.131609
0.959991 0.344228 0.136828
0 0.323323 0.151049
0 0.327474 0.153063
0 0.33106 0.154482
0.0246433 0.333852 0.155215
0.0523537 0.336706 0.155917
0.0789349 0.340063 0.15697
0.104616 0.343832 0.158312
0.13109 0.347875 0.159808
0.158434 0.351553 0.160998
0.186877 0.355032 0.16199
0.216632 0.358343 0.162783
0.247745 0.36144 0.163378
0.2804 0.364294 0.163714
0.314717 0.3673 0.164096
0.350072 0.369757 0.164034
0.386892 0.372 0.16376
0.425238 0.374014 0.163272
0.465126 0.375784 0.162554
0.507225 0.377188 0.161456
0.551003 0.378424 0.160143
0.594217 0.379019 0.158312
0.63592 0.379675 0.156573
0.675639 0.380575 0.155093
0.71339 0.381735 0.153887
0.750072 0.382986 0.152743
0.786801 0.383948 0.151278
0.822477 0.38436 0.14934
0.857252 0.384466 0.147097
0.885893 0.385824 0.149157
0.908797 0.388174 0.154253
0.929213 0.390784 0.15967
0.94699 0.393515 0.165179
0.962081 0.396139 0.17055
0 0.360113 0.159411
0 0.364614 0.161456
0 0.368017 0.162554
0.0262608 0.371023 0.163195
0.0552834 0.37409 0.163806
0.0830854 0.37763 0.164782
0.110109 0.381903 0.166278
0.137606 0.386007 0.16762
0.166079 0.389899 0.16878
0.195743 0.393652 0.169757
0.226703 0.397208 0.17055
0.259052 0.400549 0.171115
0.2934 0.404013 0.171679
0.328679 0.406958 0.171817
0.365408 0.409689 0.171756
0.403647 0.412192 0.17145
0.443412 0.41445 0.170932
0.484779 0.41648 0.170184
0.528939 0.418479 0.169284
0.57377 0.419669 0.167712
0.618479 0.420523 0.165835
0.66157 0.421439 0.164034
0.702556 0.422614 0.162509
0.742046 0.424475 0.161547
0.779751 0.425986 0.160357
0.810803 0.428641 0.165881
0.839734 0.431174 0.171435
0.86656 0.4336 0.176898
0.891203 0.436088 0.182452
0.913405 0.43888 0.188388
0.932937 0.441352 0.193896
0.949905 0.443885 0.199466
0.964309 0.44654 0.205173
0 0.398642 0.167956
0 0.403204 0.169848
0 0.406821 0.170855
0.0281682 0.410025 0.171405
0.0584878 0.413306 0.171939
0.0877394 0.417517 0.173144
0.115755 0.421775 0.174441
0.144335 0.426062 0.175738
0.173983 0.430228 0.176883
0.204837 0.434256 0.177874
0.237293 0.438392 0.178866
0.271061 0.442145 0.179522
0.306355 0.445533 0.179843
0.342977 0.448753 0.17998
0.381094 0.451759 0.179904
0.420783 0.454566 0.179629
0.462547 0.457511 0.179339
0.505501 0.459876 0.178607
0.550713 0.461769 0.177447
0.597086 0.463233 0.17583
0.643351 0.464393 0.173922
0.686671 0.465888 0.17435
0.724407 0.468711 0.180514
0.758206 0.471519 0.186587
0.789456 0.474495 0.192859
0.819303 0.477226 0.198901
0.847211 0.479835 0.204822
0.873091 0.482368 0.210727
0.89688 0.48513 0.216907
0.918013 0.487602 0.222736
0.936751 0.490181 0.228687
0.952987 0.492851 0.234745
0.966705 0.495613 0.240879
0 0.438804 0.176562
0 0.443656 0.178454
0 0.447547 0.179385
0.0304417 0.451148 0.179965
0.0621653 0.454917 0.180591
0.0924239 0.459022 0.181506
0.121584 0.4636 0.182834
0.151308 0.468208 0.184161
0.182147 0.472709 0.185351
0.21442 0.477317 0.186542
0.248005 0.481621 0.187472
0.282963 0.485588 0.188083
0.319615 0.489326 0.188449
0.357626 0.492882 0.188632
0.397177 0.496223 0.188586
0.438773 0.499687 0.18854
0.481682 0.502632 0.188067
0.526223 0.505333 0.187366
0.572091 0.507546 0.190906
0.61709 0.509377 0.196201
0.660182 0.51104 0.201358
0.700389 0.51342 0.20737
0.736507 0.515846 0.213367
0.769177 0.518685 0.219791
0.799313 0.521645 0.226337
0.828046 0.524346 0.232639
0.855146 0.527413 0.239475
0.879973 0.529976 0.245716
0.902617 0.532479 0.251896
0.92285 0.535012 0.258106
0.940703 0.537606 0.264393
0.956161 0.540398 0.270954
0.969299 0.543709 0.278141
0 0.48101 0.185138
0 0.486168 0.187045
0.000167849 0.490471 0.188083
0.0328985 0.494469 0.188708
0.0658122 0.498299 0.189166
0.097261 0.502708 0.190112
0.127565 0.507622 0.19147
0.15845 0.512566 0.192844
0.190799 0.517861 0.194369
0.224109 0.522591 0.195468
0.258839 0.527138 0.196384
0.295094 0.531472 0.19704
0.333089 0.535546 0.197452
0.372808 0.539742 0.197864
0.414221 0.543587 0.198459
0.457954 0.546212 0.204807
0.501686 0.548714 0.211002
0.545434 0.551095 0.217136
0.589761 0.553231 0.223041
0.633783 0.555428 0.22916
0.675563 0.557198 0.234775
0.713954 0.559136 0.240558
0.748806 0.561517 0.246815
0.780346 0.56437 0.25359
0.809415 0.567407 0.260578
0.837308 0.570581 0.267842
0.863035 0.573205 0.274449
0.886809 0.575784 0.281041
0.908476 0.578378 0.287678
0.92781 0.581064 0.294438
0.944793 0.58378 0.301259
0.959533 0.586969 0.308675
0.971817 0.589929 0.315785
0 0.524926 0.193561
0 0.530892 0.195789
0.00123598 0.535409 0.196719
0.0351263 0.539498 0.197147
0.0692912 0.543709 0.19762
0.10193 0.548516 0.198596
0.133486 0.554009 0.200153
0.165743 0.559701 0.201801
0.198947 0.564965 0.203143
0.233463 0.570123 0.204318
0.26949 0.575128 0.205325
0.308812 0.579263 0.208713
0.351614 0.582376 0.215885
0.394278 0.585367 0.222919
0.436759 0.588083 0.229633
0.479316 0.590707 0.236286
0.521889 0.59321 0.242847
0.564401 0.595575 0.249302
0.607721 0.597971 0.255894
0.650004 0.599908 0.262028
0.690364 0.601648 0.267964
0.727535 0.603647 0.274205
0.761166 0.606027 0.280827
0.791501 0.608804 0.287892
0.81973 0.612207 0.295796
0.846281 0.615045 0.302998
0.870985 0.617777 0.310155
0.89369 0.620401 0.317174
0.914336 0.62298 0.324208
0.932876 0.626108 0.331991
0.948989 0.628962 0.339391
0.962814 0.631891 0.346899
0.974334 0.634897 0.354482
0 0.570718 0.201984
0 0.576684 0.203983
0.00201419 0.581659 0.204929
0.0371099 0.586206 0.205356
0.0724956 0.590845 0.205829
0.106371 0.596216 0.206928
0.139147 0.602365 0.208713
0.172366 0.60824 0.210315
0.211749 0.612192 0.216693
0.252567 0.615518 0.224277
0.293446 0.618723 0.231724
0.335103 0.622171 0.239628
0.376501 0.625116 0.246845
0.417792 0.627955 0.253986
0.459052 0.630655 0.26099
0.500359 0.633249 0.267918
0.541985 0.63595 0.275059
0.583581 0.638605 0.2822
0.625208 0.640818 0.288853
0.665934 0.642741 0.295201
0.704906 0.644526 0.301472
0.740841 0.646601 0.30811
0.773602 0.649378 0.315648
0.802915 0.652369 0.323354
0.829709 0.65536 0.33106
0.8551 0.658198 0.338643
0.878737 0.661006 0.346258
0.90045 0.663767 0.353918
0.920287 0.666804 0.362036
0.937682 0.669535 0.369711
0.952865 0.672312 0.377462
0.965866 0.675227 0.385397
0.976669 0.678294 0.393515
0 0.617533 0.210285
0 0.623941 0.212329
0.00296025 0.629374 0.213245
0.0392309 0.634409 0.213672
0.0776074 0.639582 0.215534
0.120851 0.64239 0.222843
0.161456 0.645731 0.230701
0.201373 0.649149 0.238697
0.241169 0.652552 0.246662
0.281071 0.65594 0.254688
0.32134 0.659403 0.262913
0.361227 0.66244 0.270542
0.401419 0.665339 0.278035
0.441581 0.668177 0.285542
0.481788 0.670939 0.292973
0.522148 0.673716 0.300496
0.562524 0.676432 0.308019
0.602548 0.678889 0.315206
0.642847 0.681224 0.322316
0.682277 0.683299 0.329213
0.719905 0.685206 0.335943
0.754742 0.687541 0.343297
0.786114 0.690196 0.351003
0.814221 0.693172 0.35906
0.839948 0.696315 0.367346
0.864195 0.699229 0.375402
0.886641 0.702037 0.383368
0.907439 0.705165 0.391928
0.926024 0.707942 0.399985
0.942458 0.710781 0.408148
0.956741 0.713649 0.416342
0.968887 0.716579 0.424674
0.979019 0.719982 0.433692
0 0.665705 0.218875
0.00543221 0.670832 0.224048
0.0203555 0.673198 0.231052
0.0671092 0.675547 0.238178
0.112093 0.67776 0.244999
0.154177 0.680583 0.252583
0.193744 0.683909 0.260792
0.232578 0.687282 0.269047
0.271305 0.690639 0.277333
0.310475 0.694179 0.286015
0.349233 0.697368 0.294194
0.388083 0.700435 0.302235
0.427115 0.703304 0.310094
0.466056 0.706096 0.317891
0.505623 0.709163 0.326238
0.54464 0.711864 0.33402
0.583581 0.714458 0.341726
0.622309 0.71693 0.34931
0.661112 0.719265 0.356786
0.699275 0.721523 0.364324
0.735836 0.723796 0.372
0.769131 0.72604 0.379553
0.799069 0.728588 0.387457
0.825864 0.731502 0.395789
0.85034 0.734585 0.40441
0.873564 0.737758 0.41326
0.894942 0.740795 0.421958
0.914366 0.743587 0.430335
0.931853 0.74638 0.438758
0.947265 0.749249 0.447303
0.960632 0.752178 0.45597
0.972015 0.755428 0.465171
0.981277 0.758526 0.474113
0.0310826 0.703182 0.245396
0.042298 0.706767 0.254154
0.0592203 0.70927 0.261494
0.104005 0.711391 0.26833
0.147631 0.713619 0.275364
0.188449 0.716411 0.283146
0.226902 0.719707 0.291646
0.265385 0.723369 0.300862
0.303014 0.72665 0.309438
0.34052 0.729839 0.317952
0.378103 0.732952 0.326406
0.415854 0.735988 0.334859
0.45391 0.738918 0.343267
0.492302 0.742016 0.352041
0.530037 0.744717 0.360189
0.567773 0.747356 0.368338
0.605493 0.749981 0.376516
0.643061 0.752544 0.38468
0.680613 0.755032 0.392844
0.717327 0.757397 0.400961
0.75198 0.759441 0.408591
0.78381 0.761685 0.416541
0.812436 0.764279 0.424918
0.837964 0.767193 0.433661
0.861295 0.770397 0.442893
0.883177 0.773495 0.452018
0.903243 0.776379 0.460853
0.921492 0.779217 0.469673
0.937835 0.781994 0.478431
0.952148 0.784787 0.487251
0.964645 0.787945 0.496757
0.975021 0.790875 0.505821
0.98349 0.793851 0.514992
0.0683757 0.736812 0.276402
0.0794995 0.740154 0.284932
0.0986038 0.742626 0.292332
0.142031 0.744823 0.299443
0.184436 0.747158 0.306844
0.224094 0.749966 0.314946
0.262013 0.753445 0.324254
0.298772 0.75671 0.333196
0.335424 0.759976 0.342214
0.372 0.763165 0.351217
0.408499 0.766232 0.360082
0.445029 0.769177 0.368856
0.482444 0.77232 0.378149
0.519203 0.775143 0.386923
0.555886 0.77789 0.395636
0.592355 0.780499 0.404211
0.628641 0.783032 0.412695
0.665263 0.785779 0.421759
0.701106 0.78819 0.430182
0.735882 0.790387 0.438407
0.768902 0.792462 0.446448
0.799161 0.79469 0.454719
0.826398 0.797314 0.463554
0.850813 0.800397 0.473121
0.872648 0.803403 0.482414
0.893019 0.806256 0.491539
0.911727 0.809033 0.500603
0.92871 0.811765 0.509667
0.943938 0.814618 0.51902
0.957214 0.817487 0.52845
0.968521 0.820218 0.537575
0.977966 0.82298 0.546792
0.985611 0.825818 0.556161
0.106096 0.767971 0.308171
0.117403 0.771252 0.316884
0.139498 0.773754 0.324498
0.181491 0.775967 0.331807
0.223026 0.778531 0.339925
0.261814 0.78143 0.348623
0.298177 0.784604 0.357809
0.333837 0.787793 0.367071
0.36936 0.790921 0.376379
0.404868 0.794034 0.385763
0.440986 0.797345 0.395712
0.476524 0.800305 0.405035
0.512108 0.803067 0.41413
0.547494 0.805753 0.423178
0.582803 0.808392 0.432212
0.618006 0.810971 0.44123
0.653483 0.813733 0.450736
0.68806 0.816175 0.459556
0.722164 0.818509 0.468299
0.755184 0.820691 0.47689
0.786511 0.822782 0.485359
0.815198 0.825025 0.494072
0.841001 0.82768 0.503471
0.86363 0.830396 0.512779
0.884047 0.833249 0.522301
0.903014 0.835996 0.531716
0.920348 0.838651 0.540993
0.936049 0.841321 0.550439
0.950011 0.844038 0.560021
0.962051 0.846616 0.569329
0.97232 0.84921 0.578698
0.980819 0.851804 0.588083
0.98764 0.854459 0.597559
0.144503 0.796857 0.341009
0.156085 0.800092 0.350011
0.181964 0.80267 0.358038
0.223102 0.805112 0.36611
0.263066 0.807538 0.374273
0.300435 0.810285 0.383078
0.335821 0.813397 0.392676
0.370611 0.816556 0.402472
0.405127 0.819623 0.412222
0.439963 0.822797 0.422385
0.474296 0.825727 0.43212
0.508583 0.82855 0.441749
0.542977 0.83125 0.45127
0.577066 0.833875 0.4607
0.610956 0.836423 0.470039
0.645228 0.839139 0.479912
0.678676 0.841566 0.489189
0.711742 0.843946 0.49839
0.74403 0.846204 0.507439
0.775082 0.84828 0.516243
0.804913 0.850507 0.525505
0.831708 0.852613 0.534401
0.855573 0.854932 0.543572
0.876616 0.857466 0.553017
0.895491 0.860105 0.562631
0.912978 0.862699 0.572229
0.929061 0.865385 0.582193
0.943313 0.867811 0.591592
0.955901 0.870176 0.600931
0.966751 0.872541 0.610315
0.975952 0.874952 0.61976
0.983551 0.877455 0.62948
0.989593 0.880049 0.639445
0.183978 0.823667 0.375311
0.195804 0.82681 0.384512
0.226505 0.829602 0.393423
0.266041 0.831922 0.401556
0.304662 0.834302 0.410025
0.340871 0.836988 0.419196
0.375051 0.839918 0.429007
0.409033 0.84303 0.439384
0.442695 0.846067 0.449714
