Camo Studio.app/Contents/Resources/CamoContent_CamoContent.bundle/Contents/Resources/BLOCKBUSTER.cube
TITLE "Generated by Resolve"
LUT_3D_SIZE 9
0.00979629 0.00872816 0.0100404
0.0569467 0.0369879 0.045182
0.132067 0.0711833 0.0793469
0.248371 0.128481 0.114885
0.394263 0.199954 0.121202
0.570306 0.272007 0.0767071
0.727886 0.311284 0.0269627
0.848478 0.327047 4.57771e-05
0.954314 0.331563 0
0.0921187 0.111269 0.118196
0.150866 0.125673 0.139513
0.22536 0.160891 0.152972
0.317769 0.202487 0.15256
0.441871 0.259632 0.13022
0.603311 0.317281 0.0692607
0.747509 0.344167 0.0218357
0.862654 0.3523 0.00363165
0.965988 0.351492 0
0.0960555 0.221378 0.171572
0.20148 0.195102 0.175677
0.27538 0.226627 0.184588
0.370382 0.282429 0.173373
0.493904 0.33608 0.131807
0.645457 0.37641 0.0682536
0.775845 0.388663 0.0274052
0.886 0.387793 9.15541e-05
0.987442 0.380392 0
0.0737469 0.338155 0.192874
0.177005 0.348409 0.17821
0.302434 0.276402 0.191073
0.396902 0.335134 0.174746
0.534142 0.406058 0.123537
0.682078 0.437781 0.0664378
0.802274 0.437537 0.0183413
0.909224 0.428763 0.000442512
1 0.414664 0
0.0399481 0.451514 0.192798
0.0595407 0.460685 0.16875
0.27808 0.413108 0.155779
0.413489 0.375158 0.165209
0.550835 0.442161 0.115023
0.703609 0.480354 0.0623178
0.829389 0.486198 0.033341
0.934539 0.472023 0.00787366
1 0.451713 0
0.000549325 0.566415 0.175921
0.000289921 0.572549 0.148425
0.155978 0.586053 0.0757
0.398886 0.473259 0.108659
0.563043 0.471641 0.090837
0.711543 0.505196 0.0436103
0.840391 0.514534 0.0133516
0.956039 0.511177 0
1 0.489128 0
0 0.70518 0.125536
0 0.711009 0.0871901
0.000259403 0.722042 0.0207675
0.328542 0.706355 0
0.571603 0.549569 0.00477607
0.732708 0.530129 0.00468452
0.856825 0.536171 0.00155642
0.967544 0.531685 1.5259e-05
1 0.518349 0
0 0.841749 0.122545
0 0.845212 0.00611887
0 0.848997 0
0.10309 0.845365 0
0.526574 0.77641 0
0.751858 0.586404 0
0.889342 0.556634 0
0.99382 0.549187 0
1 0.535485 0
0 0.937484 0.247593
0 0.946609 0.00537118
0 0.946548 0
0 0.945495 0
0.253117 0.924941 0
0.681788 0.852644 0
0.894286 0.651408 0
1 0.577752 0
1 0.56321 0
0.0288701 0.0324712 0.0582895
0.0630503 0.0595712 0.0972457
0.143023 0.0896773 0.156558
0.232212 0.115404 0.179187
0.39144 0.204166 0.227588
0.564263 0.275502 0.237308
0.722545 0.316609 0.221057
0.845838 0.336172 0.201083
0.954513 0.343511 0.171984
0.0943618 0.138384 0.179675
0.155734 0.161059 0.210071
0.219364 0.189075 0.235828
0.311315 0.222126 0.249149
0.431724 0.272343 0.258869
0.591653 0.323705 0.247532
0.73817 0.351598 0.226352
0.856245 0.362615 0.204501
0.963012 0.364004 0.173983
0.0908675 0.241917 0.255421
0.195239 0.250065 0.279973
0.258335 0.282109 0.299428
0.34667 0.311986 0.297032
0.469123 0.351461 0.284932
0.624094 0.386511 0.260792
0.759441 0.399588 0.23772
0.873686 0.400656 0.214542
0.978821 0.39443 0.181765
0.0666819 0.356207 0.295903
0.177783 0.342901 0.297551
0.285542 0.339757 0.314977
0.376867 0.390997 0.319097
0.510384 0.435157 0.298283
0.655192 0.45275 0.269429
0.780438 0.452811 0.246571
0.892027 0.445121 0.221942
0.994537 0.431266 0.185885
0.0306554 0.465003 0.308949
0.0528267 0.475242 0.297719
0.283085 0.406943 0.304479
0.401083 0.429145 0.308873
0.540154 0.483253 0.292363
0.684688 0.509163 0.274693
0.804532 0.506111 0.255634
0.912566 0.491249 0.229358
0.999924 0.470359 0.185428
0 0.578241 0.301366
0 0.585565 0.285069
0.159915 0.590112 0.254963
0.404974 0.481514 0.279057
0.558846 0.509163 0.267918
0.698619 0.534173 0.255512
0.82092 0.542138 0.247669
0.931472 0.534127 0.227146
1 0.507927 0.172519
0 0.713314 0.281849
0 0.721416 0.241321
0.0049897 0.73196 0.209552
0.328862 0.6963 0.157885
0.576165 0.551522 0.208179
0.721645 0.552682 0.20618
0.839673 0.558145 0.201633
0.947066 0.554376 0.186297
1 0.538384 0.111543
0 0.842039 0.306828
0 0.849027 0.174136
0 0.851881 0.136065
0.0971389 0.846845 0.0549477
0.518959 0.768826 0.018555
0.746395 0.590311 0.0689403
0.87747 0.570977 0.06598
0.983429 0.564019 0.0445106
1 0.547585 0
0 0.935119 0.364874
0 0.944045 0.172381
0 0.947143 0.0142824
0 0.947021 0
0.227253 0.927413 0
0.682643 0.850507 0
0.900175 0.64831 0
1 0.578286 0
1 0.563561 0
0.0687572 0.100664 0.176638
0.0737163 0.113878 0.187106
0.130922 0.133776 0.23267
0.244572 0.170794 0.311925
0.359319 0.178012 0.337499
0.516365 0.19852 0.336675
0.707256 0.299275 0.344381
0.837339 0.360098 0.34406
0.947692 0.378149 0.336553
0.0888838 0.194537 0.27071
0.104585 0.190356 0.264912
0.188128 0.218921 0.313466
0.286503 0.237858 0.349874
0.410697 0.256016 0.356298
0.573388 0.311086 0.358236
0.722271 0.368475 0.35642
0.842466 0.390478 0.34995
0.951659 0.399161 0.33817
0.084062 0.275822 0.334401
0.145296 0.289082 0.348531
0.230426 0.309911 0.3673
0.314382 0.333806 0.378317
0.441825 0.370504 0.380697
0.598962 0.404852 0.376135
0.736492 0.423255 0.367315
0.854109 0.431647 0.357549
0.961791 0.431495 0.343969
0.0592203 0.372778 0.391455
0.145281 0.373236 0.384909
0.248981 0.4047 0.408301
0.340856 0.435645 0.416938
0.474006 0.46099 0.404761
0.623636 0.476585 0.38883
0.751965 0.481025 0.376547
0.86569 0.478843 0.364706
0.97229 0.470329 0.349004
0.0203098 0.480491 0.420127
0.04477 0.491142 0.394278
0.264668 0.450324 0.408042
0.377874 0.501656 0.419501
0.516655 0.53431 0.412528
0.649607 0.542626 0.399924
0.768673 0.53782 0.387274
0.878782 0.527276 0.373281
0.983658 0.510765 0.353552
0 0.59266 0.421881
0 0.602487 0.387869
0.17293 0.584604 0.378225
0.402258 0.525154 0.394171
0.54612 0.562219 0.393454
0.674434 0.582208 0.394568
0.787976 0.586954 0.392737
0.894789 0.573388 0.378134
0.995392 0.549538 0.351095
0 0.722545 0.430289
0 0.733837 0.355062
0.00291447 0.742489 0.336385
0.334249 0.683665 0.318425
0.568551 0.581903 0.34931
0.701946 0.592859 0.356329
0.81265 0.600793 0.362799
0.915526 0.600732 0.362264
1 0.581598 0.332555
0 0.843122 0.456886
0 0.852995 0.331395
0 0.856321 0.287617
0.0735485 0.850263 0.248066
0.504784 0.763561 0.226368
0.729519 0.609674 0.274968
0.85272 0.602502 0.284764
0.956436 0.598978 0.284504
1 0.582773 0.253681
0 0.931853 0.500526
0 0.9393 0.399252
0 0.947601 0.223072
0 0.947265 0.164034
0.156954 0.931365 0.0614633
0.657649 0.858579 0.00842298
0.887831 0.6542 0.00386053
1 0.58938 0
1 0.569085 0
0.0883803 0.192218 0.322896
0.0885634 0.200351 0.322576
0.0904707 0.201465 0.320287
0.192752 0.223606 0.379248
0.333669 0.261433 0.460716
0.501427 0.254688 0.495628
0.668879 0.256474 0.485817
0.814649 0.290959 0.449073
0.937072 0.389868 0.436439
0.0820935 0.275929 0.386664
0.0836042 0.267948 0.371756
0.101564 0.259663 0.367956
0.223362 0.289754 0.430594
0.356847 0.311559 0.481956
0.535485 0.306401 0.499672
0.698878 0.314809 0.474296
0.830427 0.368368 0.445136
0.930953 0.44242 0.441566
0.0651255 0.34873 0.430838
0.069398 0.336675 0.413092
0.150195 0.340902 0.427558
0.256123 0.364279 0.463066
0.398138 0.375479 0.486519
0.577691 0.381979 0.480125
0.720836 0.416388 0.458564
0.828962 0.465934 0.454017
0.931731 0.483223 0.451148
0.0445106 0.411261 0.461295
0.0546883 0.417945 0.454261
0.194308 0.430671 0.47187
0.318746 0.44477 0.478019
0.434806 0.469566 0.482002
0.590143 0.49102 0.472724
0.71635 0.511833 0.468284
0.828412 0.522545 0.465446
0.933883 0.525093 0.460105
0.0129397 0.491112 0.496483
0.0157931 0.507836 0.475837
0.210605 0.518074 0.488746
0.357748 0.547555 0.500206
0.478416 0.565469 0.50251
0.602304 0.575845 0.49369
0.721706 0.579492 0.487434
0.832212 0.578103 0.481605
0.939315 0.569848 0.471473
0 0.608011 0.533883
0 0.620218 0.47866
0.176104 0.592355 0.474281
0.381537 0.595895 0.491493
0.514977 0.630274 0.50782
0.626642 0.643183 0.513771
0.734371 0.640604 0.508293
0.841428 0.631067 0.498329
0.951141 0.612863 0.480491
0 0.732113 0.568109
0 0.746242 0.481666
0.0012665 0.755627 0.443259
0.333089 0.682628 0.435737
0.545892 0.63238 0.46273
0.663432 0.655192 0.483497
0.763485 0.670222 0.500481
0.862089 0.671794 0.504234
0.974807 0.646952 0.477943
0 0.842313 0.609979
0 0.851774 0.524956
0 0.861784 0.415305
0.0278325 0.857527 0.385031
0.478859 0.772747 0.366949
0.701762 0.647211 0.406683
0.815381 0.655238 0.42797
0.913725 0.660197 0.44126
0.999603 0.649134 0.430289
0 0.926986 0.653147
0 0.933684 0.583871
0 0.944305 0.440391
0 0.949554 0.330877
0.0489662 0.938796 0.278035
0.609461 0.874205 0.202228
0.854215 0.676905 0.237156
0.989975 0.620554 0.228794
1 0.598184 0.169223
0.0750591 0.302907 0.47921
0.0751659 0.303655 0.467903
0.0750591 0.305135 0.457893
0.0854047 0.285618 0.442679
0.245411 0.308721 0.511101
0.435782 0.336065 0.601175
0.624216 0.33135 0.623728
0.785275 0.334157 0.600412
0.914931 0.36611 0.559503
0.0574044 0.366629 0.512108
0.0608377 0.356985 0.494301
0.0641184 0.347265 0.475883
0.0927749 0.331273 0.472572
0.272709 0.356374 0.54435
0.449317 0.37763 0.608896
0.643641 0.37055 0.619898
0.795026 0.380041 0.5897
0.918227 0.411841 0.549096
0.0348363 0.430228 0.543084
0.0404059 0.416968 0.521706
0.0486458 0.398108 0.497673
0.133043 0.399176 0.516396
0.306386 0.422843 0.576562
0.487434 0.43267 0.612314
0.668696 0.432242 0.604257
0.806119 0.44802 0.569574
0.907195 0.497841 0.547066
0.00680552 0.500374 0.572259
0.0124971 0.486671 0.549447
0.0422065 0.465858 0.531136
0.222095 0.478325 0.558907
0.366842 0.492775 0.57818
0.537377 0.500237 0.590448
0.68191 0.516075 0.572625
0.79089 0.551583 0.559747
0.879072 0.592798 0.563958
0 0.546044 0.581704
0 0.559564 0.569482
0.0787518 0.551156 0.565042
0.303731 0.5635 0.576257
0.442618 0.577737 0.577249
0.550347 0.599695 0.575387
0.667384 0.622232 0.574701
0.770397 0.640757 0.581399
0.873289 0.648692 0.584848
0 0.609659 0.600107
0 0.634836 0.590524
0.108186 0.638972 0.570962
0.327871 0.656947 0.583093
0.465568 0.676127 0.601114
0.556008 0.694301 0.614939
0.659419 0.701152 0.615091
0.766918 0.702846 0.614572
0.876478 0.696559 0.608011
0 0.751522 0.666224
0 0.756756 0.641901
0 0.769314 0.565515
0.285328 0.714443 0.549249
0.483192 0.711467 0.589319
0.586374 0.744793 0.63032
0.67985 0.756451 0.646357
0.780575 0.753048 0.644251
0.894209 0.736248 0.626383
0 0.84918 0.711467
0 0.851652 0.690318
0 0.861112 0.607233
0 0.866865 0.526436
0.421973 0.798199 0.503471
0.638636 0.717845 0.546654
0.739788 0.743984 0.59147
0.83154 0.759899 0.61941
0.937896 0.753079 0.615076
0 0.927642 0.750027
0 0.929915 0.733135
0 0.935836 0.675364
0 0.948486 0.526131
0.00631724 0.946899 0.45658
0.51635 0.892897 0.393927
0.803983 0.72285 0.410147
0.944701 0.683192 0.42652
1 0.667735 0.415305
0.0374914 0.41268 0.641474
0.0391089 0.409857 0.624887
0.0404974 0.407767 0.608026
0.0447852 0.398291 0.581888
0.0740063 0.363714 0.567361
0.304433 0.384466 0.647883
0.545739 0.402808 0.735286
0.706752 0.419532 0.728008
0.866102 0.425864 0.695735
0.0173342 0.463615 0.660655
0.0221256 0.453605 0.639673
0.0274357 0.442359 0.615564
0.0349126 0.425315 0.587243
0.082002 0.402823 0.588556
0.334661 0.421485 0.671244
0.549386 0.440574 0.732509
0.714549 0.450416 0.720241
0.8607 0.467292 0.687251
0 0.519356 0.680552
0.00183108 0.506294 0.657343
0.00814832 0.489464 0.62797
0.0205692 0.462135 0.599039
0.129671 0.461402 0.622477
0.380423 0.478141 0.700526
0.559609 0.497505 0.724941
0.726085 0.505608 0.709346
0.848341 0.535515 0.679515
0 0.589654 0.704936
0 0.572717 0.680217
0 0.54818 0.644617
0.0188754 0.521248 0.622507
0.227222 0.531395 0.663188
0.422248 0.549035 0.706172
0.581125 0.56527 0.709117
0.721523 0.584298 0.692744
0.829587 0.617761 0.676478
0 0.660105 0.726436
0 0.649439 0.700908
0 0.61915 0.665812
0.0774548 0.600549 0.661387
0.335195 0.609812 0.680186
0.46894 0.626795 0.684947
0.59498 0.647425 0.688701
0.709926 0.673487 0.685435
0.808057 0.706996 0.689555
0 0.68986 0.71957
0 0.707607 0.710277
0.00166323 0.700557 0.685298
0.172168 0.69044 0.683848
0.389868 0.701411 0.68661
0.501137 0.719371 0.690547
0.586496 0.741207 0.701717
0.696635 0.757382 0.709072
0.804761 0.766247 0.71548
0 0.717174 0.72636
0 0.74461 0.722545
0.000442512 0.774502 0.709712
0.198947 0.767926 0.681682
0.399924 0.779706 0.704219
0.521889 0.795911 0.728756
0.609491 0.806149 0.742229
0.7122 0.808133 0.743221
0.82417 0.803311 0.739574
0 0.838499 0.791333
0 0.851499 0.784558
0 0.860563 0.766415
0.000656138 0.868925 0.703349
0.316564 0.832715 0.65977
0.547036 0.803357 0.699535
0.660334 0.83122 0.745815
0.759091 0.837964 0.760388
0.863966 0.828077 0.751446
0 0.924849 0.842481
0 0.927687 0.831327
0 0.931212 0.811887
0 0.936614 0.773816
0 0.947188 0.660258
0.374792 0.913069 0.599573
0.715572 0.795773 0.597848
0.847791 0.78674 0.634546
0.96553 0.785916 0.646159
3.0518e-05 0.522347 0.791257
0.000122072 0.518715 0.779889
0 0.515007 0.766339
0.000381476 0.505776 0.744564
0.00843824 0.484535 0.714061
0.0614023 0.452659 0.714992
0.359167 0.466041 0.78323
0.627863 0.484657 0.842481
0.750546 0.529656 0.811048
0 0.566979 0.801389
0 0.557137 0.787442
0 0.546471 0.770031
0 0.531777 0.745693
0.00300603 0.503258 0.716274
0.0706493 0.484428 0.727855
0.386236 0.497139 0.794919
0.625254 0.518685 0.83389
0.747616 0.556909 0.803174
0 0.623102 0.813764
0 0.609934 0.798917
0 0.594003 0.779202
0 0.572931 0.751507
0 0.539651 0.726574
0.119936 0.535851 0.750698
0.432258 0.547738 0.811444
0.613275 0.576562 0.818555
0.746609 0.605097 0.796078
0 0.69337 0.826246
0 0.677607 0.811978
0 0.65536 0.790295
0 0.625544 0.759319
0.00250248 0.592615 0.742702
0.204959 0.598764 0.772534
0.475334 0.612802 0.813901
0.605219 0.644175 0.802609
0.743755 0.666392 0.791058
0 0.762753 0.832868
0 0.750637 0.819593
0 0.726635 0.800839
0 0.691035 0.771481
0.0266728 0.663035 0.761578
0.317311 0.669505 0.785229
0.482368 0.690929 0.795529
0.613611 0.711727 0.793667
0.745983 0.72929 0.790005
0.026154 0.800046 0.835721
0.0443275 0.800778 0.822858
0.0242924 0.78938 0.804547
0 0.762036 0.781949
0.147662 0.739727 0.774517
0.396612 0.744259 0.777081
0.515145 0.759274 0.780407
0.636469 0.77348 0.789441
0.758968 0.787442 0.791287
0.00810254 0.804288 0.825513
0.0700694 0.811414 0.817761
0.141405 0.820829 0.807187
0.147631 0.814511 0.78529
0.274846 0.803632 0.780789
0.460334 0.809842 0.787121
0.569146 0.820645 0.794354
0.661891 0.834684 0.804562
0.779355 0.84065 0.810941
0 0.81001 0.83061
0.0087892 0.822202 0.825956
0.0497139 0.836606 0.818219
0.145159 0.854459 0.807935
0.285756 0.857496 0.780987
0.491035 0.857542 0.8
0.623011 0.869718 0.824384
0.715785 0.874205 0.83563
0.817533 0.870039 0.832425
0 0.890852 0.88304
0 0.903456 0.882368
0 0.917586 0.879255
0.023209 0.92636 0.866789
0.0442359 0.932265 0.836988
0.250782 0.92813 0.76141
0.623621 0.863294 0.753033
0.772 0.86685 0.792477
0.895109 0.871672 0.81001
0 0.649042 0.901381
0 0.643961 0.894591
0 0.637873 0.886137
0 0.626291 0.872831
0 0.61001 0.854719
0 0.577569 0.831815
0.0143587 0.560113 0.84033
0.38967 0.571084 0.881666
0.670039 0.595773 0.909056
0 0.690135 0.903609
0 0.679545 0.895613
0 0.66833 0.886015
0 0.652964 0.87248
0 0.632792 0.854002
0 0.59704 0.833768
0.0408026 0.587442 0.84741
0.413016 0.596811 0.881575
0.663371 0.624216 0.899214
0 0.742229 0.905364
0 0.73048 0.897917
0 0.716152 0.888212
0 0.695918 0.874327
0 0.670344 0.855619
0 0.63241 0.840284
0.0920424 0.632029 0.85626
0.448981 0.641657 0.882231
0.654032 0.670924 0.88806
0 0.795636 0.905943
0 0.785763 0.899214
0 0.771405 0.889632
0 0.749386 0.875746
0 0.718624 0.856809
0 0.682994 0.847456
0.182971 0.68574 0.857298
0.489036 0.696208 0.879835
0.646616 0.720592 0.877043
0.0683146 0.832944 0.900923
0.0431678 0.826596 0.895232
0.0119478 0.816251 0.887892
0.000411994 0.799756 0.876982
0 0.771099 0.858106
0.00645457 0.741207 0.849485
0.284657 0.738842 0.854276
0.524865 0.747295 0.874891
0.648768 0.76527 0.868803
0.201907 0.858732 0.905196
0.202136 0.85713 0.89659
0.184405 0.851514 0.886107
0.130983 0.838636 0.874861
0.04094 0.816953 0.858335
0.122301 0.790249 0.845182
0.3906 0.786725 0.853849
0.55172 0.796124 0.866102
0.685756 0.805417 0.868254
0.237369 0.868574 0.905653
0.268421 0.873106 0.901732
0.296574 0.876722 0.894194
0.286488 0.871794 0.879026
0.221958 0.854246 0.859159
0.275181 0.833524 0.846998
0.48365 0.832303 0.854459
0.606165 0.84065 0.860655
0.734462 0.846784 0.87042
0.208225 0.868132 0.899168
0.241657 0.872526 0.895491
0.287098 0.878843 0.890623
0.33904 0.886091 0.884306
0.369619 0.888319 0.870756
0.394263 0.874601 0.856672
0.568719 0.877028 0.866545
0.682094 0.883925 0.875959
0.778744 0.893034 0.885878
0.0663767 0.868009 0.907973
0.103639 0.872908 0.905058
0.159792 0.87953 0.901167
0.228733 0.891615 0.896193
0.307317 0.908553 0.890517
0.371908 0.921523 0.874403
0.565545 0.90457 0.852338
0.743023 0.915755 0.890745
0.854673 0.924331 0.91194
0 0.787182 0.967651
0 0.783017 0.96437
0 0.777844 0.960327
0 0.769055 0.954604
0 0.755779 0.947158
0 0.734035 0.936126
0 0.697383 0.925155
0.0559854 0.692851 0.933379
0.430701 0.695781 0.935149
0 0.809308 0.964431
0 0.802991 0.960494
0 0.795422 0.955734
0 0.785016 0.949676
0 0.770169 0.941894
0 0.747402 0.931136
0 0.71191 0.922408
0.0799268 0.710155 0.929686
0.449012 0.712108 0.931899
0.000900282 0.83505 0.961456
0 0.830152 0.958221
0 0.823392 0.953811
0 0.813397 0.947646
0 0.798535 0.939483
0 0.775906 0.928649
0 0.743084 0.922286
0.149935 0.73814 0.924559
0.479957 0.738598 0.929519
0.106172 0.855802 0.955596
0.0809339 0.851331 0.95201
0.0461128 0.845716 0.947829
0.0191196 0.838697 0.943145
0.00103761 0.827451 0.936812
0 0.807904 0.926833
0 0.779568 0.921782
0.232029 0.769879 0.91899
0.520317 0.768734 0.929885
0.23856 0.878248 0.954086
0.220447 0.874418 0.950515
0.19295 0.868833 0.946166
0.154376 0.861219 0.940017
0.0951705 0.850462 0.932158
0.0156863 0.834638 0.922881
0.0117952 0.809827 0.917556
0.307836 0.800092 0.914305
0.566903 0.798901 0.932754
0.329931 0.895796 0.960067
0.331792 0.89543 0.954818
0.325765 0.893584 0.948592
0.294011 0.887144 0.942901
0.244327 0.876783 0.934173
0.168154 0.860868 0.920821
0.153948 0.838437 0.911131
0.390661 0.831052 0.913924
0.615991 0.829206 0.934493
0.396674 0.908812 0.96669
0.410803 0.910506 0.963363
0.422889 0.911864 0.958206
0.423148 0.911009 0.949783
0.388617 0.904097 0.940383
0.324239 0.890944 0.927245
0.29015 0.870085 0.911696
0.486458 0.860609 0.917067
0.668177 0.859617 0.935195
0.394568 0.912154 0.968627
0.41857 0.915206 0.966659
0.454704 0.919844 0.964294
0.499199 0.925399 0.961334
0.524453 0.927886 0.953994
0.482963 0.91989 0.938598
0.416999 0.900801 0.91841
0.594553 0.889952 0.922896
0.726146 0.893568 0.933379
0.355673 0.91136 0.966217
0.380285 0.914382 0.964813
0.416785 0.918822 0.962875
0.462806 0.924315 0.960449
0.51574 0.930343 0.957214
0.573297 0.936568 0.953017
0.59176 0.936599 0.939391
0.669734 0.932494 0.940764
0.820035 0.949905 0.972442
