Camo Studio.app/Contents/Resources/CamoContent_CamoContent.bundle/Contents/Resources/BLOCKBUSTER.cube
TITLE "Generated by Resolve"
LUT_3D_SIZE 5
0.00979629 0.00872816 0.0100404
0.132067 0.0711833 0.0793469
0.394263 0.199954 0.121202
0.727886 0.311284 0.0269627
0.954314 0.331563 0
0.0960555 0.221378 0.171572
0.27538 0.226627 0.184588
0.493904 0.33608 0.131807
0.775845 0.388663 0.0274052
0.987442 0.380392 0
0.0399481 0.451514 0.192798
0.27808 0.413108 0.155779
0.550835 0.442161 0.115023
0.829389 0.486198 0.033341
1 0.451713 0
0 0.70518 0.125536
0.000259403 0.722042 0.0207675
0.571603 0.549569 0.00477607
0.856825 0.536171 0.00155642
1 0.518349 0
0 0.937484 0.247593
0 0.946548 0
0.253117 0.924941 0
0.894286 0.651408 0
1 0.56321 0
0.0687572 0.100664 0.176638
0.130922 0.133776 0.23267
0.359319 0.178012 0.337499
0.707256 0.299275 0.344381
0.947692 0.378149 0.336553
0.084062 0.275822 0.334401
0.230426 0.309911 0.3673
0.441825 0.370504 0.380697
0.736492 0.423255 0.367315
0.961791 0.431495 0.343969
0.0203098 0.480491 0.420127
0.264668 0.450324 0.408042
0.516655 0.53431 0.412528
0.768673 0.53782 0.387274
0.983658 0.510765 0.353552
0 0.722545 0.430289
0.00291447 0.742489 0.336385
0.568551 0.581903 0.34931
0.81265 0.600793 0.362799
1 0.581598 0.332555
0 0.931853 0.500526
0 0.947601 0.223072
0.156954 0.931365 0.0614633
0.887831 0.6542 0.00386053
1 0.569085 0
0.0750591 0.302907 0.47921
0.0750591 0.305135 0.457893
0.245411 0.308721 0.511101
0.624216 0.33135 0.623728
0.914931 0.36611 0.559503
0.0348363 0.430228 0.543084
0.0486458 0.398108 0.497673
0.306386 0.422843 0.576562
0.668696 0.432242 0.604257
0.907195 0.497841 0.547066
0 0.546044 0.581704
0.0787518 0.551156 0.565042
0.442618 0.577737 0.577249
0.667384 0.622232 0.574701
0.873289 0.648692 0.584848
0 0.751522 0.666224
0 0.769314 0.565515
0.483192 0.711467 0.589319
0.67985 0.756451 0.646357
0.894209 0.736248 0.626383
0 0.927642 0.750027
0 0.935836 0.675364
0.00631724 0.946899 0.45658
0.803983 0.72285 0.410147
1 0.667735 0.415305
3.0518e-05 0.522347 0.791257
0 0.515007 0.766339
0.00843824 0.484535 0.714061
0.359167 0.466041 0.78323
0.750546 0.529656 0.811048
0 0.623102 0.813764
0 0.594003 0.779202
0 0.539651 0.726574
0.432258 0.547738 0.811444
0.746609 0.605097 0.796078
0 0.762753 0.832868
0 0.726635 0.800839
0.0266728 0.663035 0.761578
0.482368 0.690929 0.795529
0.745983 0.72929 0.790005
0.00810254 0.804288 0.825513
0.141405 0.820829 0.807187
0.274846 0.803632 0.780789
0.569146 0.820645 0.794354
0.779355 0.84065 0.810941
0 0.890852 0.88304
0 0.917586 0.879255
0.0442359 0.932265 0.836988
0.623621 0.863294 0.753033
0.895109 0.871672 0.81001
0 0.787182 0.967651
0 0.777844 0.960327
0 0.755779 0.947158
0 0.697383 0.925155
0.430701 0.695781 0.935149
0.000900282 0.83505 0.961456
0 0.823392 0.953811
0 0.798535 0.939483
0 0.743084 0.922286
0.479957 0.738598 0.929519
0.23856 0.878248 0.954086
0.19295 0.868833 0.946166
0.0951705 0.850462 0.932158
0.0117952 0.809827 0.917556
0.566903 0.798901 0.932754
0.396674 0.908812 0.96669
0.422889 0.911864 0.958206
0.388617 0.904097 0.940383
0.29015 0.870085 0.911696
0.668177 0.859617 0.935195
0.355673 0.91136 0.966217
0.416785 0.918822 0.962875
0.51574 0.930343 0.957214
0.59176 0.936599 0.939391
0.820035 0.949905 0.972442
