Camo Studio.app/Contents/Resources/CamoContent_CamoContent.bundle/Contents/Resources/BLOCKBUSTER.cube
TITLE "Generated by Resolve"
LUT_3D_SIZE 33
0.00979629 0.00872816 0.0100404
0.0161898 0.0147097 0.0188602
0.0291752 0.0227512 0.0274662
0.0429999 0.030457 0.0370642
0.0569467 0.0369879 0.045182
0.0719921 0.0435798 0.0528115
0.0885328 0.0506294 0.0600748
0.107607 0.0589609 0.0677653
0.132067 0.0711833 0.0793469
0.158083 0.0839246 0.0899367
0.186114 0.0976425 0.0995651
0.216144 0.112459 0.108049
0.248371 0.128481 0.114885
0.282094 0.145327 0.119982
0.317662 0.162997 0.123476
0.35491 0.181155 0.123888
0.394263 0.199954 0.121202
0.43566 0.21886 0.115145
0.478874 0.237385 0.10573
0.52401 0.25536 0.092607
0.570306 0.272007 0.0767071
0.614908 0.285725 0.0606851
0.655634 0.296361 0.0489509
0.693294 0.304723 0.0383459
0.727886 0.311284 0.0269627
0.760449 0.316854 0.0158999
0.790829 0.321096 0.00756847
0.820233 0.324422 0.00231937
0.848478 0.327047 4.57771e-05
0.8757 0.329 0
0.902388 0.330373 0
0.928649 0.331212 0
0.954314 0.331563 0
0.0357824 0.0326238 0.0438087
0.0491646 0.0448615 0.0594186
0.0605478 0.0515908 0.0649577
0.0716564 0.0563363 0.0687877
0.0852369 0.0619669 0.0742809
0.101488 0.0690929 0.0809491
0.120089 0.0776074 0.0884871
0.141619 0.0877852 0.0969558
0.164492 0.0986191 0.104829
0.188998 0.110216 0.112062
0.215 0.122621 0.118196
0.242573 0.135836 0.123369
0.271611 0.149874 0.127306
0.302129 0.164569 0.129534
0.33431 0.180087 0.130159
0.368948 0.196735 0.128679
0.406577 0.214298 0.123995
0.44593 0.2318 0.116258
0.488319 0.249638 0.105074
0.531991 0.266484 0.0904097
0.576608 0.281834 0.073579
0.619898 0.294636 0.057435
0.660151 0.30457 0.0457618
0.6972 0.312337 0.0350805
0.731594 0.318547 0.0235752
0.763684 0.323308 0.0126345
0.794079 0.327092 0.00479133
0.823148 0.330068 0.00062562
0.851545 0.332418 0.000244144
0.878752 0.333974 0.000106813
0.905455 0.335088 0
0.931319 0.335637 0
0.957046 0.335668 0
0.0606088 0.0571756 0.0716564
0.0747845 0.0682536 0.0863508
0.0852979 0.0750744 0.0937514
0.0980545 0.0811322 0.0987259
0.112352 0.0872511 0.103349
0.128435 0.0941329 0.108171
0.146883 0.102342 0.113771
0.167086 0.111391 0.119341
0.18851 0.12105 0.124758
0.210697 0.130999 0.129122
0.234684 0.14197 0.132616
0.260304 0.153887 0.135439
0.287434 0.166659 0.137011
0.316426 0.180484 0.137469
0.347768 0.195392 0.136263
0.381125 0.211292 0.13315
0.417319 0.227924 0.126665
0.456413 0.245121 0.117006
0.497307 0.261845 0.104067
0.540291 0.277821 0.0881819
0.583978 0.292271 0.0704051
0.626444 0.304265 0.0544137
0.665385 0.313313 0.0433051
0.702327 0.320577 0.0329442
0.735821 0.32607 0.021561
0.767163 0.330419 0.010956
0.797238 0.3337 0.00370794
0.826093 0.336263 0.00158694
0.854124 0.338277 0.00115969
0.881193 0.339467 0.000488289
0.907652 0.340215 7.62951e-05
0.933425 0.340459 0
0.958968 0.34023 0
0.0804608 0.0851453 0.0977188
0.0922866 0.0879835 0.104738
0.10457 0.0932174 0.111986
0.117739 0.100175 0.118181
0.133227 0.107805 0.123629
0.150347 0.115908 0.12874
0.168093 0.123735 0.13286
0.187259 0.132052 0.136599
0.20766 0.140963 0.139757
0.229267 0.150515 0.14255
0.25214 0.16083 0.144671
0.276738 0.172076 0.145632
0.30277 0.184131 0.14551
0.330999 0.197375 0.144076
0.361105 0.211627 0.141024
0.394003 0.2271 0.136233
0.429511 0.243198 0.128328
0.467445 0.259464 0.117418
0.508171 0.275547 0.103517
0.550286 0.290623 0.0871595
0.59295 0.304082 0.0696727
0.634913 0.315389 0.0543069
0.67303 0.323552 0.0436103
0.708278 0.329793 0.0328222
0.741314 0.334691 0.0213169
0.772168 0.33846 0.0115969
0.801678 0.341283 0.00576791
0.830655 0.343465 0.00418097
0.858228 0.344976 0.00257877
0.884901 0.345769 0.000961318
0.911208 0.346151 0.000122072
0.936889 0.346059 0
0.962219 0.34551 0
0.0921187 0.111269 0.118196
0.108034 0.107668 0.120714
0.12192 0.111803 0.127443
0.135531 0.117433 0.133562
0.150866 0.125673 0.139513
0.167727 0.134142 0.144121
0.186419 0.143435 0.148501
0.205371 0.152056 0.151186
0.22536 0.160891 0.152972
0.246326 0.170184 0.154223
0.268254 0.179767 0.154589
0.291905 0.190524 0.15404
0.317769 0.202487 0.15256
0.345205 0.215259 0.149645
0.375189 0.229419 0.145281
0.407385 0.244266 0.13901
0.441871 0.259632 0.13022
0.479652 0.275349 0.11812
0.519478 0.290486 0.103395
0.561242 0.304753 0.0864118
0.603311 0.317281 0.0692607
0.643458 0.32726 0.0546883
0.681071 0.334646 0.0440681
0.71545 0.340002 0.0330053
0.747509 0.344167 0.0218357
0.777981 0.34728 0.0134279
0.807279 0.349676 0.00943008
0.83534 0.351308 0.00653086
0.862654 0.3523 0.00363165
0.889174 0.352819 0.000839246
0.915022 0.352789 9.15541e-05
0.940887 0.352331 0
0.965988 0.351492 0
0.09897 0.136034 0.134142
0.123156 0.135912 0.137896
0.136065 0.130007 0.140246
0.150774 0.133471 0.145541
0.165789 0.140856 0.151217
0.183124 0.150546 0.156466
0.201343 0.160327 0.160281
0.221012 0.170901 0.163348
0.241398 0.180835 0.164767
0.262242 0.190417 0.164935
0.284215 0.200259 0.163943
0.307134 0.210361 0.162005
0.332143 0.221881 0.15935
0.359579 0.234714 0.155276
0.388846 0.248188 0.149386
0.420813 0.262592 0.14168
0.454871 0.277409 0.131716
0.491905 0.292317 0.118639
0.532067 0.306935 0.103212
0.572992 0.319951 0.0858625
0.613809 0.331151 0.0688487
0.652705 0.339925 0.0547189
0.689082 0.346365 0.0439765
0.722667 0.350973 0.0323949
0.754101 0.354498 0.0224155
0.783856 0.356924 0.0158694
0.812772 0.358663 0.0117037
0.840543 0.359762 0.0078584
0.867384 0.360281 0.0037995
0.893812 0.360357 0.000183108
0.919738 0.359991 1.5259e-05
0.945006 0.359152 0
0.970184 0.3579 0
0.104875 0.166033 0.15024
0.131304 0.167636 0.153994
0.148592 0.152377 0.15198
0.163607 0.151736 0.155734
0.179141 0.155596 0.160204
0.195941 0.164706 0.165255
0.214801 0.175875 0.169574
0.234073 0.186648 0.17203
0.254429 0.197848 0.17348
0.275639 0.208942 0.17319
0.297948 0.219989 0.172
0.321263 0.231006 0.169223
0.345861 0.242344 0.165347
0.372961 0.254734 0.159686
0.402075 0.267811 0.152407
0.433402 0.281544 0.143343
0.467399 0.295903 0.132052
0.504021 0.310079 0.118624
0.543816 0.323751 0.102647
0.584115 0.335607 0.0852827
0.623499 0.345388 0.0691234
0.661585 0.353017 0.0554055
0.697002 0.358633 0.0443275
0.729931 0.362585 0.0329747
0.760845 0.365347 0.0245975
0.790143 0.367117 0.0185855
0.818494 0.368261 0.0132753
0.846143 0.368811 0.00784314
0.872908 0.368887 0.00303655
0.89926 0.368612 0
0.925032 0.367803 0
0.95021 0.366506 0
0.97525 0.36492 0
0.10309 0.193561 0.162066
0.12929 0.196033 0.164813
0.158724 0.188617 0.165698
0.174441 0.173953 0.165286
0.191012 0.173083 0.168292
0.208042 0.178927 0.172412
0.226108 0.189441 0.17612
0.245396 0.200946 0.178729
0.265812 0.213123 0.180224
0.287388 0.225696 0.179889
0.310018 0.238285 0.177981
0.333974 0.251026 0.174807
0.35906 0.263401 0.170092
0.385763 0.275776 0.163485
0.415076 0.288746 0.154803
0.446586 0.302037 0.144701
0.480735 0.315724 0.132601
0.516838 0.328954 0.118181
0.556207 0.341543 0.101381
0.595514 0.352071 0.0841688
0.634165 0.360494 0.0688334
0.671138 0.367056 0.0560922
0.705791 0.371679 0.0446479
0.737942 0.374807 0.033463
0.768048 0.37673 0.0264591
0.797024 0.377859 0.019852
0.825193 0.37847 0.0131991
0.852583 0.378576 0.00665293
0.879255 0.378103 0.00140383
0.905257 0.377325 0
0.930678 0.376043 0
0.956069 0.37438 0
0.981292 0.372366 0
0.0960555 0.221378 0.171572
0.12253 0.227649 0.173266
0.15938 0.22681 0.17528
0.184039 0.204166 0.174868
0.20148 0.195102 0.175677
0.218585 0.194278 0.177874
0.236088 0.202182 0.181262
0.255161 0.21413 0.183688
0.27538 0.226627 0.184588
0.29723 0.240345 0.184527
0.320592 0.254597 0.182361
0.344747 0.268513 0.178607
0.370382 0.282429 0.173373
0.397787 0.296559 0.166155
0.427466 0.309911 0.156603
0.459693 0.323247 0.145281
0.493904 0.33608 0.131807
0.530373 0.348531 0.116579
0.569116 0.360143 0.0998856
0.607965 0.369223 0.0830701
0.645457 0.37641 0.0682536
0.681239 0.381659 0.0556649
0.714565 0.385275 0.0446174
0.746136 0.387472 0.0352789
0.775845 0.388663 0.0274052
0.804623 0.389166 0.0195315
0.832624 0.389258 0.011841
0.859724 0.388708 0.00442512
0.886 0.387793 9.15541e-05
0.911864 0.386496 0
0.937163 0.384833 0
0.962341 0.382727 0
0.987442 0.380392 0
0.0898146 0.250446 0.17937
0.111833 0.256977 0.179156
0.147234 0.259434 0.180224
0.185275 0.249683 0.181018
0.20856 0.221836 0.181552
0.22768 0.212848 0.183093
0.244892 0.215503 0.185168
0.263508 0.226658 0.187457
0.283726 0.239628 0.188434
0.305074 0.25333 0.187564
0.328023 0.267887 0.185031
0.353216 0.283406 0.180957
0.379797 0.299046 0.174945
0.408148 0.314595 0.167163
0.438819 0.330037 0.157046
0.471305 0.343587 0.144427
0.506218 0.356268 0.130465
0.542992 0.367941 0.115343
0.581186 0.378073 0.0988174
0.619547 0.386419 0.0827192
0.655833 0.392111 0.0684215
0.689967 0.396048 0.0558938
0.722683 0.398657 0.0447852
0.753338 0.400168 0.0351873
0.783062 0.400809 0.0260471
0.811536 0.400854 0.017258
0.838987 0.400168 0.00846876
0.865827 0.399145 0.00236515
0.891981 0.397696 0
0.917662 0.395987 0
0.943084 0.393835 0
0.968154 0.391455 0
0.992767 0.388647 0
0.0847791 0.280339 0.185657
0.0972763 0.285237 0.184192
0.128573 0.289876 0.182925
0.172442 0.28809 0.182086
0.207385 0.26244 0.18439
0.231861 0.241474 0.186374
0.252781 0.231952 0.188251
0.271107 0.237827 0.189685
0.29073 0.251026 0.189975
0.311955 0.265019 0.189059
0.334585 0.27982 0.18645
0.359533 0.295918 0.182025
0.387045 0.313161 0.175708
0.416403 0.330266 0.1673
0.447807 0.347066 0.156603
0.481544 0.362188 0.14345
0.517296 0.375219 0.128618
0.554757 0.386572 0.112856
0.592844 0.396216 0.0968338
0.630152 0.403159 0.0814984
0.665171 0.407568 0.0677501
0.698589 0.410407 0.0551766
0.730159 0.412161 0.0436255
0.760601 0.412863 0.0328679
0.789792 0.412985 0.0229496
0.81796 0.41236 0.0130159
0.845106 0.411261 0.00411994
0.871656 0.409781 0.000640879
0.897642 0.407935 0
0.923232 0.405707 0
0.948516 0.403159 0
0.973465 0.400244 0
0.996887 0.397131 0
0.0797131 0.309438 0.190265
0.0841382 0.312184 0.187594
0.110842 0.318257 0.184451
0.151812 0.320119 0.182284
0.196765 0.309636 0.181399
0.229664 0.27982 0.185763
0.256214 0.261097 0.188754
0.277516 0.253986 0.190555
0.297093 0.262684 0.190951
0.317968 0.275883 0.189639
0.340429 0.290959 0.186938
0.365026 0.307362 0.182742
0.392813 0.324941 0.17528
0.422675 0.342733 0.165805
0.454597 0.360449 0.154803
0.489555 0.377874 0.141741
0.527138 0.392416 0.126497
0.565454 0.404395 0.11075
0.603204 0.413413 0.0949111
0.639582 0.419364 0.080354
0.673945 0.422812 0.0669413
0.706172 0.424735 0.0542306
0.737575 0.42565 0.0423743
0.767269 0.425696 0.0299077
0.796231 0.425147 0.0175784
0.824033 0.424018 0.00680552
0.851133 0.422431 0.000915541
0.877455 0.420584 0
0.903304 0.418296 0
0.928862 0.41561 0
0.953902 0.412665 0
0.978439 0.409415 0
0.9991 0.405783 0
0.0737469 0.338155 0.192874
0.0741741 0.340017 0.189776
0.0909743 0.344823 0.186007
0.125856 0.349294 0.181827
0.177005 0.348409 0.17821
0.219577 0.322774 0.181262
0.252903 0.297505 0.185687
0.28043 0.279911 0.189364
0.302434 0.276402 0.191073
0.323583 0.287953 0.189853
0.346075 0.30193 0.186679
0.370108 0.317876 0.181765
0.396902 0.335134 0.174746
0.4271 0.35317 0.164736
0.459983 0.371435 0.152682
0.495552 0.389502 0.139116
0.534142 0.406058 0.123537
0.573678 0.419226 0.107988
0.611856 0.428733 0.0929732
0.648112 0.43476 0.078996
0.682078 0.437781 0.0664378
0.713924 0.439048 0.0549172
0.744244 0.439277 0.0428931
0.77377 0.438575 0.0306554
0.802274 0.437537 0.0183413
0.830259 0.43592 0.00846876
0.857145 0.433768 0.00440986
0.88368 0.43154 0.00225834
0.909224 0.428763 0.000442512
0.934646 0.425681 0
0.959609 0.422309 0
0.983322 0.418647 0
1 0.414664 0
0.0666209 0.366796 0.194186
0.0663005 0.368307 0.190723
0.0716869 0.371252 0.186786
0.100603 0.376959 0.181323
0.149554 0.379843 0.175235
0.201389 0.36849 0.173236
0.243122 0.338613 0.178836
0.277501 0.313298 0.184466
0.305562 0.296788 0.188495
0.328054 0.300664 0.188449
0.350835 0.312718 0.185183
0.374884 0.328054 0.180163
0.401007 0.344976 0.173114
0.431113 0.363073 0.162951
0.464363 0.381476 0.151156
0.500664 0.399619 0.137011
0.539742 0.416724 0.121035
0.579812 0.430655 0.105653
0.618753 0.441184 0.0911879
0.655726 0.448478 0.0778058
0.690501 0.452308 0.0660105
0.722148 0.4533 0.054612
0.751934 0.452842 0.0432288
0.780987 0.451698 0.0311284
0.809369 0.450019 0.0209964
0.836988 0.448066 0.0151522
0.863844 0.445533 0.0113222
0.889937 0.442756 0.0080415
0.915663 0.43949 0.00517281
0.940932 0.436011 0.00273136
0.96585 0.432212 0.000869764
0.987854 0.428244 9.15541e-05
1 0.423789 0
0.0585794 0.395071 0.194415
0.0582437 0.39649 0.191028
0.0580148 0.398596 0.186801
0.0775616 0.403311 0.180743
0.118059 0.408057 0.172961
0.175784 0.409827 0.164034
0.225422 0.383597 0.168414
0.267994 0.352987 0.175677
0.303212 0.326802 0.182239
0.330968 0.315511 0.185489
0.354894 0.324361 0.183139
0.37937 0.338033 0.178408
0.405707 0.355184 0.171221
0.435187 0.373144 0.161471
0.468559 0.391196 0.148821
0.504967 0.408957 0.134707
0.544335 0.425818 0.118868
0.585184 0.440269 0.102754
0.624292 0.451057 0.0892958
0.661677 0.4589 0.0771191
0.696727 0.463966 0.0655375
0.729534 0.466407 0.0545357
0.760143 0.466346 0.0432898
0.788846 0.46479 0.0327153
0.8168 0.462699 0.0256352
0.84419 0.460166 0.0208896
0.870649 0.457191 0.0162814
0.896712 0.453971 0.0119326
0.922072 0.45037 0.0078584
0.947372 0.446433 0.00416571
0.97229 0.442451 0.00122072
0.991653 0.437797 4.57771e-05
1 0.432975 0
0.0496834 0.423255 0.194232
0.0493782 0.424536 0.19057
0.0489204 0.426352 0.186099
0.055787 0.429358 0.179522
0.0854658 0.434607 0.170336
0.142596 0.439979 0.159243
0.20177 0.428 0.155535
0.251347 0.397955 0.162417
0.29424 0.365972 0.171496
0.329992 0.340337 0.179217
0.357122 0.339284 0.179416
0.3832 0.349493 0.175525
0.410269 0.365042 0.168734
0.438804 0.382483 0.15935
0.471977 0.400412 0.14699
0.508797 0.417884 0.132387
0.54789 0.434211 0.116686
0.588739 0.448722 0.100954
0.628367 0.459449 0.0872511
0.665599 0.467292 0.0752422
0.701106 0.472923 0.0640726
0.734569 0.476524 0.0538796
0.766171 0.477943 0.0430152
0.79585 0.477195 0.0364233
0.823819 0.47509 0.0307317
0.850797 0.47216 0.0252079
0.877226 0.468742 0.0196536
0.903014 0.465217 0.0142977
0.928771 0.461219 0.00907912
0.953811 0.457008 0.00396735
0.978729 0.452461 0.000823987
0.994659 0.447578 1.5259e-05
1 0.442313 0
0.0399481 0.451514 0.192798
0.039704 0.452598 0.18912
0.0392767 0.454307 0.183948
0.0393378 0.456443 0.177691
0.0595407 0.460685 0.16875
0.104829 0.466056 0.156939
0.171054 0.467872 0.142855
0.227298 0.445716 0.146258
0.27808 0.413108 0.155779
0.322072 0.379767 0.166964
0.357046 0.360449 0.173404
0.385275 0.364019 0.171191
0.413489 0.375158 0.165209
0.442588 0.391348 0.156024
0.475196 0.40914 0.144152
0.511757 0.426291 0.129976
0.550835 0.442161 0.115023
0.590982 0.455955 0.0991836
0.630335 0.466667 0.0851148
0.668101 0.47454 0.0730907
0.703609 0.480354 0.0623178
0.737942 0.48455 0.0532387
0.770581 0.487083 0.0454261
0.800824 0.487617 0.0395056
0.829389 0.486198 0.033341
0.856641 0.483635 0.0269017
0.88307 0.480247 0.0205692
0.909102 0.476219 0.0142214
0.934539 0.472023 0.00787366
0.95967 0.467353 0.00155642
0.98439 0.46244 0.000183108
0.996902 0.457252 0
1 0.451713 0
0.0297704 0.479255 0.190372
0.0295567 0.480186 0.186435
0.02916 0.481804 0.180896
0.0284733 0.484215 0.174914
0.038056 0.48719 0.166323
0.0695048 0.491585 0.153933
0.134142 0.497963 0.137133
0.198688 0.488609 0.12903
0.255375 0.462562 0.135012
0.305776 0.428397 0.148104
0.350912 0.393332 0.161349
0.384512 0.383246 0.163622
0.415396 0.387488 0.159869
0.445441 0.399954 0.15201
0.477348 0.416999 0.140566
0.514488 0.434272 0.126528
0.552865 0.449409 0.111666
0.592477 0.462669 0.0966506
0.63209 0.473442 0.0821546
0.66952 0.481056 0.0699626
0.705394 0.486854 0.06009
0.739879 0.491279 0.05243
0.772824 0.494194 0.0462196
0.80441 0.495872 0.0402075
0.833555 0.495613 0.0336309
0.861616 0.49395 0.0269017
0.888777 0.491127 0.0197299
0.914946 0.487266 0.0118868
0.9402 0.482643 0.00457771
0.965331 0.477729 0
0.990219 0.47245 0
0.998535 0.467002 0
1 0.461051 0
0.0189975 0.507164 0.187152
0.0187381 0.508278 0.182422
0.018204 0.510185 0.177035
0.0177615 0.51191 0.170764
0.0196841 0.514397 0.162509
0.0406958 0.518349 0.150683
0.0919051 0.523674 0.134524
0.163821 0.525017 0.116243
0.226841 0.507485 0.114931
0.283726 0.477623 0.123751
0.334325 0.441566 0.139071
0.378698 0.412451 0.150362
0.414801 0.405219 0.151446
0.448554 0.410697 0.146517
0.481025 0.425116 0.136095
0.516838 0.441794 0.12195
0.555276 0.456657 0.107179
0.594522 0.469383 0.0927596
0.63331 0.479713 0.0789807
0.671427 0.487617 0.0663767
0.706981 0.493065 0.0573587
0.741421 0.497246 0.0494545
0.774502 0.500237 0.0427405
0.805966 0.502266 0.0368658
0.836622 0.503151 0.0305028
0.865583 0.502663 0.0238193
0.893553 0.500725 0.0158236
0.920134 0.497536 0.00762951
0.946059 0.49308 0.00155642
0.971222 0.48809 0
0.996216 0.482582 0
0.999588 0.476844 0
1 0.470481 0
0.00766003 0.536004 0.182498
0.00740063 0.537209 0.177569
0.00704967 0.538796 0.172107
0.00669871 0.540566 0.165057
0.00630198 0.542672 0.156374
0.0177005 0.545998 0.145342
0.0508736 0.550561 0.13019
0.123522 0.555901 0.108049
0.195148 0.548135 0.0945754
0.258137 0.526101 0.0959487
0.313329 0.493507 0.108705
0.365133 0.455589 0.12639
0.410086 0.432135 0.136233
0.448844 0.425895 0.136431
0.48455 0.433249 0.128969
0.520012 0.449409 0.115404
0.558038 0.463722 0.100603
0.596765 0.475898 0.0861982
0.635264 0.485924 0.0730907
0.67274 0.493645 0.0614786
0.708598 0.499031 0.0525216
0.742809 0.503014 0.0445411
0.775708 0.505898 0.0369421
0.807523 0.507897 0.0301976
0.838376 0.509117 0.0235599
0.868116 0.509361 0.0165255
0.896971 0.508537 0.00889601
0.924681 0.506371 0.00276188
0.951339 0.502831 0
0.977203 0.498116 0
0.999069 0.492653 0
0.999985 0.486595 0
1 0.479896 0
0.000549325 0.566415 0.175921
0.000503548 0.567376 0.170672
0.000427253 0.568582 0.165026
0.000350958 0.570596 0.157244
0.000289921 0.572549 0.148425
0.00375372 0.575494 0.137575
0.0223392 0.579187 0.122744
0.0770581 0.584573 0.101198
0.155978 0.586053 0.0757
0.226963 0.57258 0.0679332
0.290044 0.546807 0.0733349
0.346639 0.50985 0.090425
0.398886 0.473259 0.108659
0.44506 0.452811 0.117159
0.486717 0.447807 0.116335
0.524498 0.457099 0.105821
0.563043 0.471641 0.090837
0.601404 0.483207 0.0766308
0.639048 0.492531 0.063859
0.675944 0.499855 0.0528573
0.711543 0.505196 0.0436103
0.745495 0.508965 0.0354467
0.778347 0.511711 0.0277104
0.809674 0.513497 0.0204166
0.840391 0.514534 0.0133516
0.870192 0.5149 0.00584421
0.899397 0.51458 0.00122072
0.927932 0.513497 0
0.956039 0.511177 0
0.981811 0.507454 0
1 0.502419 0
1 0.496239 0
1 0.489128 0
0 0.598245 0.167269
0 0.599008 0.161578
0 0.60032 0.155596
0 0.602548 0.147463
0 0.604547 0.138048
0 0.607202 0.126726
0.00747692 0.61033 0.112444
0.0319982 0.614954 0.091722
0.111345 0.620157 0.0617227
0.191119 0.615946 0.0433509
0.263645 0.59881 0.0377966
0.325612 0.568063 0.0471046
0.383352 0.526818 0.0685435
0.436805 0.494362 0.0843824
0.485069 0.475532 0.0915847
0.529595 0.471489 0.0893568
0.569436 0.480552 0.0775311
0.607492 0.490974 0.0638132
0.645045 0.499794 0.0510567
0.681407 0.5066 0.0398566
0.716731 0.511833 0.0297551
0.7505 0.515328 0.0207675
0.78262 0.517723 0.0127718
0.813947 0.51931 0.00596628
0.8439 0.52018 0.00148013
0.873549 0.520348 0.000503548
0.902464 0.519982 4.57771e-05
0.931487 0.519036 0
0.959594 0.51754 0
0.985031 0.515068 0
1 0.511147 0
1 0.505592 0
1 0.498329 0
0 0.632441 0.155917
0 0.633158 0.150088
0 0.63473 0.143221
0 0.636713 0.135302
0 0.638773 0.124926
0 0.641337 0.112963
0 0.644205 0.0979782
0.00582895 0.647883 0.0791638
0.0615396 0.653529 0.0509957
0.14786 0.65536 0.0241855
0.231083 0.646662 0.0101015
0.303914 0.624247 0.0124971
0.364767 0.589136 0.0260166
0.423209 0.548867 0.039765
0.479255 0.516945 0.0523842
0.530251 0.49691 0.0608835
0.574716 0.492332 0.0582742
0.613931 0.499641 0.0462806
0.651041 0.506889 0.0345922
0.68716 0.513344 0.0231327
0.722057 0.518181 0.0130007
0.755245 0.521477 0.00843824
0.78706 0.523568 0.00488289
0.817624 0.524895 0.00205997
0.84741 0.525536 0
0.876524 0.525567 0
0.905303 0.525063 0
0.933715 0.524041 0
0.962036 0.522469 0
0.987121 0.520272 0
1 0.517311 0
1 0.513222 0
1 0.506752 0
0 0.667811 0.142123
0 0.668971 0.135012
0 0.670344 0.127733
0 0.672114 0.119265
0 0.674159 0.108309
0 0.676707 0.0953078
0 0.679713 0.0793164
0.00154116 0.683009 0.061799
0.0109102 0.687205 0.038056
0.0964218 0.691157 0.0114137
0.190295 0.689509 0
0.277501 0.677623 0
0.347066 0.650416 1.5259e-05
0.408087 0.609369 0.00132753
0.468147 0.56878 0.0155489
0.524865 0.535332 0.0275425
0.576242 0.513985 0.0302739
0.618357 0.510796 0.024155
0.656657 0.514595 0.0170748
0.692912 0.519722 0.0108949
0.727184 0.524224 0.00636301
0.760311 0.527413 0.00514229
0.791608 0.52929 0.00416571
0.821973 0.530404 0.00314336
0.851484 0.530892 0.0024567
0.880034 0.530739 0.0015259
0.908186 0.530068 0.00062562
0.936172 0.528847 0.000137331
0.964416 0.527108 0
0.989303 0.524788 0
1 0.521981 0
1 0.51838 0
1 0.513451 0
0 0.70518 0.125536
0 0.705928 0.115984
0 0.70724 0.108309
0 0.708934 0.0988327
0 0.711009 0.0871901
0 0.713436 0.0723735
0 0.716045 0.0575113
9.15541e-05 0.718883 0.0405432
0.000259403 0.722042 0.0207675
0.0491035 0.725582 0.00543221
0.14197 0.727825 0
0.244083 0.723232 0
0.328542 0.706355 0
0.392294 0.671092 0
0.454322 0.627771 0.00111391
0.514702 0.585657 0.0028687
0.571603 0.549569 0.00477607
0.621378 0.528405 0.00605783
0.661738 0.524819 0.00633249
0.698238 0.526467 0.00555428
0.732708 0.530129 0.00468452
0.765698 0.533135 0.00383001
0.797482 0.535012 0.00277714
0.827756 0.535912 0.00222782
0.856825 0.536171 0.00155642
0.885267 0.535866 0.000991836
0.912673 0.534997 0.000518807
0.939895 0.533608 7.62951e-05
0.967544 0.531685 1.5259e-05
0.992172 0.529198 0
1 0.526268 0
1 0.522789 0
1 0.518349 0
0 0.741894 0.110948
0 0.742641 0.0948806
0 0.743954 0.0857252
0 0.745449 0.075227
0 0.747646 0.0623484
0 0.749477 0.0488899
0 0.751858 0.0347448
0 0.754131 0.0192721
0 0.75668 0.00299077
0.00604257 0.759152 0.000549325
0.0849165 0.760693 0
0.192645 0.759396 0
0.300038 0.751583 0
0.376699 0.72845 0
0.439628 0.689845 0
0.501045 0.644877 0
0.561959 0.599008 0.000442512
0.619577 0.558679 0.00204471
0.66479 0.541039 0.00267033
0.703929 0.535592 0.00216678
0.73901 0.536294 0.0012665
0.77229 0.538888 0.000427253
0.804074 0.540581 1.5259e-05
0.834287 0.541329 0
0.863493 0.541344 0
0.891478 0.54081 0
0.91902 0.539742 0
0.945647 0.538186 0
0.97229 0.536095 0
0.994858 0.533578 0
1 0.530526 0
1 0.526925 0
1 0.522408 0
0 0.777996 0.103761
0 0.778836 0.0725261
0 0.779675 0.0609751
0 0.781262 0.0496376
0 0.782559 0.0394446
0 0.783948 0.0277562
0 0.78613 0.0149386
0 0.787732 0.00422675
0 0.7897 0
0 0.791699 0
0.0383917 0.792447 0
0.127962 0.791302 0
0.252628 0.786236 0
0.352804 0.774243 0
0.425238 0.745235 0
0.488548 0.706416 0
0.548455 0.659419 0
0.6094 0.609369 0
0.66479 0.568978 0
0.708293 0.550576 0
0.746548 0.543999 0
0.780026 0.544594 0
0.811475 0.546105 0
0.841825 0.546624 0
0.870832 0.546456 0
0.89926 0.545708 0
0.92668 0.544442 0
0.953246 0.542687 0
0.978775 0.540475 0
0.99765 0.537896 0
1 0.534798 0
1 0.53109 0
1 0.526375 0
0 0.81149 0.106645
0 0.812467 0.0550546
0 0.813184 0.0385138
0 0.814115 0.0287175
0 0.815213 0.0198215
0 0.815976 0.0106813
0 0.817349 0.00341802
0 0.818845 0
0 0.820279 0
