Camo Studio.app/Contents/Resources/CamoContent_CamoContent.bundle/Contents/Resources/BW.cube
TITLE "Generated by Resolve"
LUT_3D_SIZE 33
0 0 0
0.0180972 0.0180972 0.0180972
0.0362097 0.0362097 0.0362097
0.0540627 0.0540627 0.0540627
0.0717784 0.0717784 0.0717784
0.0894789 0.0894789 0.0894789
0.107256 0.107256 0.107256
0.125231 0.125231 0.125231
0.143511 0.143511 0.143511
0.162219 0.162219 0.162219
0.181445 0.181445 0.181445
0.201312 0.201312 0.201312
0.221912 0.221912 0.221912
0.243397 0.243397 0.243397
0.265934 0.265934 0.265934
0.289616 0.289616 0.289616
0.314443 0.314443 0.314443
0.340475 0.340475 0.340475
0.367742 0.367742 0.367742
0.396277 0.396277 0.396277
0.426108 0.426108 0.426108
0.457267 0.457267 0.457267
0.489616 0.489616 0.489616
0.523018 0.523018 0.523018
0.55726 0.55726 0.55726
0.592187 0.592187 0.592187
0.627634 0.627634 0.627634
0.663432 0.663432 0.663432
0.699397 0.699397 0.699397
0.735378 0.735378 0.735378
0.771191 0.771191 0.771191
0.806653 0.806653 0.806653
0.841718 0.841718 0.841718
0.00848402 0.00848402 0.00848402
0.0267491 0.0267491 0.0267491
0.0447242 0.0447242 0.0447242
0.062501 0.062501 0.062501
0.0802014 0.0802014 0.0802014
0.0979171 0.0979171 0.0979171
0.115785 0.115785 0.115785
0.133883 0.133883 0.133883
0.152361 0.152361 0.152361
0.171298 0.171298 0.171298
0.190814 0.190814 0.190814
0.211017 0.211017 0.211017
0.232029 0.232029 0.232029
0.253986 0.253986 0.253986
0.277058 0.277058 0.277058
0.301289 0.301289 0.301289
0.32668 0.32668 0.32668
0.353307 0.353307 0.353307
0.38117 0.38117 0.38117
0.410315 0.410315 0.410315
0.440772 0.440772 0.440772
0.472526 0.472526 0.472526
0.505394 0.505394 0.505394
0.539208 0.539208 0.539208
0.573816 0.573816 0.573816
0.609003 0.609003 0.609003
0.644648 0.644648 0.644648
0.680537 0.680537 0.680537
0.716533 0.716533 0.716533
0.752453 0.752453 0.752453
0.788113 0.788113 0.788113
0.823362 0.823362 0.823362
0.858763 0.858763 0.858763
0.0172427 0.0172427 0.0172427
0.0353399 0.0353399 0.0353399
0.0532082 0.0532082 0.0532082
0.0709392 0.0709392 0.0709392
0.0886244 0.0886244 0.0886244
0.106401 0.106401 0.106401
0.124361 0.124361 0.124361
0.142626 0.142626 0.142626
0.161318 0.161318 0.161318
0.180514 0.180514 0.180514
0.200336 0.200336 0.200336
0.22092 0.22092 0.22092
0.242344 0.242344 0.242344
0.264836 0.264836 0.264836
0.288457 0.288457 0.288457
0.313222 0.313222 0.313222
0.339208 0.339208 0.339208
0.366415 0.366415 0.366415
0.394888 0.394888 0.394888
0.424659 0.424659 0.424659
0.455741 0.455741 0.455741
0.488045 0.488045 0.488045
0.521401 0.521401 0.521401
0.555596 0.555596 0.555596
0.590509 0.590509 0.590509
0.62594 0.62594 0.62594
0.661723 0.661723 0.661723
0.697673 0.697673 0.697673
0.733654 0.733654 0.733654
0.769482 0.769482 0.769482
0.804959 0.804959 0.804959
0.840024 0.840024 0.840024
0.875853 0.875853 0.875853
0.0258946 0.0258946 0.0258946
0.0438697 0.0438697 0.0438697
0.0616617 0.0616617 0.0616617
0.0793622 0.0793622 0.0793622
0.0970779 0.0970779 0.0970779
0.114931 0.114931 0.114931
0.133028 0.133028 0.133028
0.151476 0.151476 0.151476
0.170382 0.170382 0.170382
0.189868 0.189868 0.189868
0.21004 0.21004 0.21004
0.231006 0.231006 0.231006
0.252918 0.252918 0.252918
0.275929 0.275929 0.275929
0.300099 0.300099 0.300099
0.325444 0.325444 0.325444
0.35201 0.35201 0.35201
0.379812 0.379812 0.379812
0.408896 0.408896 0.408896
0.439292 0.439292 0.439292
0.470985 0.470985 0.470985
0.503807 0.503807 0.503807
0.537591 0.537591 0.537591
0.572152 0.572152 0.572152
0.607324 0.607324 0.607324
0.642939 0.642939 0.642939
0.678828 0.678828 0.678828
0.714824 0.714824 0.714824
0.750744 0.750744 0.750744
0.786419 0.786419 0.786419
0.821698 0.821698 0.821698
0.857053 0.857053 0.857053
0.892485 0.892485 0.892485
0.0345006 0.0345006 0.0345006
0.0523537 0.0523537 0.0523537
0.0700847 0.0700847 0.0700847
0.0877852 0.0877852 0.0877852
0.105547 0.105547 0.105547
0.123507 0.123507 0.123507
0.141756 0.141756 0.141756
0.160403 0.160403 0.160403
0.179583 0.179583 0.179583
0.199374 0.199374 0.199374
0.219913 0.219913 0.219913
0.241306 0.241306 0.241306
0.263737 0.263737 0.263737
0.287297 0.287297 0.287297
0.312016 0.312016 0.312016
0.337942 0.337942 0.337942
0.365087 0.365087 0.365087
0.3935 0.3935 0.3935
0.423209 0.423209 0.423209
0.454231 0.454231 0.454231
0.486488 0.486488 0.486488
0.519783 0.519783 0.519783
0.553948 0.553948 0.553948
0.58883 0.58883 0.58883
0.624231 0.624231 0.624231
0.659998 0.659998 0.659998
0.695964 0.695964 0.695964
0.731945 0.731945 0.731945
0.767773 0.767773 0.767773
0.803281 0.803281 0.803281
0.838346 0.838346 0.838346
0.874144 0.874144 0.874144
0.908232 0.908232 0.908232
0.0430304 0.0430304 0.0430304
0.0608225 0.0608225 0.0608225
0.0785077 0.0785077 0.0785077
0.0962234 0.0962234 0.0962234
0.114076 0.114076 0.114076
0.132158 0.132158 0.132158
0.150576 0.150576 0.150576
0.169467 0.169467 0.169467
0.188922 0.188922 0.188922
0.209064 0.209064 0.209064
0.229984 0.229984 0.229984
0.25185 0.25185 0.25185
0.274815 0.274815 0.274815
0.298924 0.298924 0.298924
0.324208 0.324208 0.324208
0.350713 0.350713 0.350713
0.378454 0.378454 0.378454
0.407477 0.407477 0.407477
0.437812 0.437812 0.437812
0.469459 0.469459 0.469459
0.50222 0.50222 0.50222
0.535958 0.535958 0.535958
0.570489 0.570489 0.570489
0.605631 0.605631 0.605631
0.64123 0.64123 0.64123
0.677119 0.677119 0.677119
0.713115 0.713115 0.713115
0.749035 0.749035 0.749035
0.784741 0.784741 0.784741
0.820035 0.820035 0.820035
0.855344 0.855344 0.855344
0.890852 0.890852 0.890852
0.922652 0.922652 0.922652
0.0515297 0.0515297 0.0515297
0.0692454 0.0692454 0.0692454
0.0869459 0.0869459 0.0869459
0.104707 0.104707 0.104707
0.122652 0.122652 0.122652
0.140871 0.140871 0.140871
0.159518 0.159518 0.159518
0.178653 0.178653 0.178653
0.198413 0.198413 0.198413
0.218921 0.218921 0.218921
0.240269 0.240269 0.240269
0.262638 0.262638 0.262638
0.286152 0.286152 0.286152
0.310826 0.310826 0.310826
0.336675 0.336675 0.336675
0.363775 0.363775 0.363775
0.392126 0.392126 0.392126
0.421759 0.421759 0.421759
0.452735 0.452735 0.452735
0.484932 0.484932 0.484932
0.518181 0.518181 0.518181
0.552316 0.552316 0.552316
0.587152 0.587152 0.587152
0.622538 0.622538 0.622538
0.658289 0.658289 0.658289
0.694255 0.694255 0.694255
0.730236 0.730236 0.730236
0.766079 0.766079 0.766079
0.801602 0.801602 0.801602
0.836667 0.836667 0.836667
0.87245 0.87245 0.87245
0.906706 0.906706 0.906706
0.935607 0.935607 0.935607
0.0599832 0.0599832 0.0599832
0.0776684 0.0776684 0.0776684
0.0953841 0.0953841 0.0953841
0.113222 0.113222 0.113222
0.131289 0.131289 0.131289
0.149691 0.149691 0.149691
0.168551 0.168551 0.168551
0.187976 0.187976 0.187976
0.208087 0.208087 0.208087
0.228962 0.228962 0.228962
0.250782 0.250782 0.250782
0.273701 0.273701 0.273701
0.297749 0.297749 0.297749
0.322988 0.322988 0.322988
0.349432 0.349432 0.349432
0.377111 0.377111 0.377111
0.406073 0.406073 0.406073
0.436347 0.436347 0.436347
0.467918 0.467918 0.467918
0.500633 0.500633 0.500633
0.53434 0.53434 0.53434
0.568826 0.568826 0.568826
0.603952 0.603952 0.603952
0.639536 0.639536 0.639536
0.67541 0.67541 0.67541
0.711391 0.711391 0.711391
0.747326 0.747326 0.747326
0.783047 0.783047 0.783047
0.818357 0.818357 0.818357
0.853635 0.853635 0.853635
0.88922 0.88922 0.88922
0.921263 0.921263 0.921263
0.947188 0.947188 0.947188
0.0684215 0.0684215 0.0684215
0.0860914 0.0860914 0.0860914
0.103853 0.103853 0.103853
0.121782 0.121782 0.121782
0.140002 0.140002 0.140002
0.158618 0.158618 0.158618
0.177737 0.177737 0.177737
0.197467 0.197467 0.197467
0.217929 0.217929 0.217929
0.239216 0.239216 0.239216
0.261555 0.261555 0.261555
0.285008 0.285008 0.285008
0.309621 0.309621 0.309621
0.335424 0.335424 0.335424
0.362448 0.362448 0.362448
0.390738 0.390738 0.390738
0.420325 0.420325 0.420325
0.451225 0.451225 0.451225
0.483375 0.483375 0.483375
0.516579 0.516579 0.516579
0.550668 0.550668 0.550668
0.585489 0.585489 0.585489
0.620844 0.620844 0.620844
0.656596 0.656596 0.656596
0.692531 0.692531 0.692531
0.728527 0.728527 0.728527
0.76437 0.76437 0.76437
0.799924 0.799924 0.799924
0.835004 0.835004 0.835004
0.870756 0.870756 0.870756
0.90518 0.90518 0.90518
0.934371 0.934371 0.934371
0.957534 0.957534 0.957534
0.0768444 0.0768444 0.0768444
0.0945449 0.0945449 0.0945449
0.112367 0.112367 0.112367
0.130419 0.130419 0.130419
0.148806 0.148806 0.148806
0.167651 0.167651 0.167651
0.187045 0.187045 0.187045
0.207111 0.207111 0.207111
0.227955 0.227955 0.227955
0.249714 0.249714 0.249714
0.272572 0.272572 0.272572
0.296574 0.296574 0.296574
0.321752 0.321752 0.321752
0.348135 0.348135 0.348135
0.375769 0.375769 0.375769
0.404669 0.404669 0.404669
0.434867 0.434867 0.434867
0.466392 0.466392 0.466392
0.499062 0.499062 0.499062
0.532708 0.532708 0.532708
0.567163 0.567163 0.567163
0.602258 0.602258 0.602258
0.637827 0.637827 0.637827
0.673686 0.673686 0.673686
0.709682 0.709682 0.709682
0.745617 0.745617 0.745617
0.781353 0.781353 0.781353
0.816693 0.816693 0.816693
0.851926 0.851926 0.851926
0.887572 0.887572 0.887572
0.919875 0.919875 0.919875
0.946105 0.946105 0.946105
0.966949 0.966949 0.966949
0.0852674 0.0852674 0.0852674
0.102998 0.102998 0.102998
0.120928 0.120928 0.120928
0.139132 0.139132 0.139132
0.157717 0.157717 0.157717
0.176806 0.176806 0.176806
0.196506 0.196506 0.196506
0.216938 0.216938 0.216938
0.238193 0.238193 0.238193
0.260456 0.260456 0.260456
0.283864 0.283864 0.283864
0.308415 0.308415 0.308415
0.334173 0.334173 0.334173
0.361135 0.361135 0.361135
0.389364 0.389364 0.389364
0.418891 0.418891 0.418891
0.449729 0.449729 0.449729
0.481819 0.481819 0.481819
0.514977 0.514977 0.514977
0.54902 0.54902 0.54902
0.58381 0.58381 0.58381
0.61915 0.61915 0.61915
0.654871 0.654871 0.654871
0.690822 0.690822 0.690822
0.726818 0.726818 0.726818
0.762676 0.762676 0.762676
0.798245 0.798245 0.798245
0.833341 0.833341 0.833341
0.869047 0.869047 0.869047
0.903624 0.903624 0.903624
0.93312 0.93312 0.93312
0.956558 0.956558 0.956558
0.975753 0.975753 0.975753
0.0937057 0.0937057 0.0937057
0.111513 0.111513 0.111513
0.129549 0.129549 0.129549
0.147921 0.147921 0.147921
0.166735 0.166735 0.166735
0.186114 0.186114 0.186114
0.206134 0.206134 0.206134
0.226947 0.226947 0.226947
0.248661 0.248661 0.248661
0.271458 0.271458 0.271458
0.295415 0.295415 0.295415
0.320531 0.320531 0.320531
0.346853 0.346853 0.346853
0.374426 0.374426 0.374426
0.403265 0.403265 0.403265
0.433402 0.433402 0.433402
0.464866 0.464866 0.464866
0.497475 0.497475 0.497475
0.53109 0.53109 0.53109
0.565515 0.565515 0.565515
0.60058 0.60058 0.60058
0.636133 0.636133 0.636133
0.671977 0.671977 0.671977
0.707973 0.707973 0.707973
0.743908 0.743908 0.743908
0.77966 0.77966 0.77966
0.81503 0.81503 0.81503
0.850202 0.850202 0.850202
0.885908 0.885908 0.885908
0.918471 0.918471 0.918471
0.944976 0.944976 0.944976
0.966049 0.966049 0.966049
0.984237 0.984237 0.984237
0.102159 0.102159 0.102159
0.120073 0.120073 0.120073
0.138247 0.138247 0.138247
0.156817 0.156817 0.156817
0.175891 0.175891 0.175891
0.19556 0.19556 0.19556
0.215946 0.215946 0.215946
0.237156 0.237156 0.237156
0.259373 0.259373 0.259373
0.282719 0.282719 0.282719
0.307225 0.307225 0.307225
0.332906 0.332906 0.332906
0.359823 0.359823 0.359823
0.387991 0.387991 0.387991
0.417441 0.417441 0.417441
0.448234 0.448234 0.448234
0.480262 0.480262 0.480262
0.513375 0.513375 0.513375
0.547387 0.547387 0.547387
0.582132 0.582132 0.582132
0.617456 0.617456 0.617456
0.653178 0.653178 0.653178
0.689113 0.689113 0.689113
0.725093 0.725093 0.725093
0.760967 0.760967 0.760967
0.796551 0.796551 0.796551
0.831678 0.831678 0.831678
0.867338 0.867338 0.867338
0.902068 0.902068 0.902068
0.931868 0.931868 0.931868
0.95555 0.95555 0.95555
0.974884 0.974884 0.974884
0.992691 0.992691 0.992691
0.110674 0.110674 0.110674
0.128679 0.128679 0.128679
0.147036 0.147036 0.147036
0.165835 0.165835 0.165835
0.185168 0.185168 0.185168
0.205173 0.205173 0.205173
0.22594 0.22594 0.22594
0.247593 0.247593 0.247593
0.270344 0.270344 0.270344
0.29424 0.29424 0.29424
0.31931 0.31931 0.31931
0.345571 0.345571 0.345571
0.373068 0.373068 0.373068
0.401846 0.401846 0.401846
0.431937 0.431937 0.431937
0.463325 0.463325 0.463325
0.495903 0.495903 0.495903
0.529473 0.529473 0.529473
0.563851 0.563851 0.563851
0.598901 0.598901 0.598901
0.634424 0.634424 0.634424
0.670268 0.670268 0.670268
0.706249 0.706249 0.706249
0.742199 0.742199 0.742199
0.777966 0.777966 0.777966
0.813352 0.813352 0.813352
0.848508 0.848508 0.848508
0.884245 0.884245 0.884245
0.917052 0.917052 0.917052
0.943862 0.943862 0.943862
0.965118 0.965118 0.965118
0.983383 0.983383 0.983383
1 1 1
0.119219 0.119219 0.119219
0.137377 0.137377 0.137377
0.155932 0.155932 0.155932
0.17496 0.17496 0.17496
0.194598 0.194598 0.194598
0.214954 0.214954 0.214954
0.236118 0.236118 0.236118
0.258289 0.258289 0.258289
0.281575 0.281575 0.281575
0.306035 0.306035 0.306035
0.331655 0.331655 0.331655
0.358511 0.358511 0.358511
0.386618 0.386618 0.386618
0.416022 0.416022 0.416022
0.446723 0.446723 0.446723
0.478706 0.478706 0.478706
0.511772 0.511772 0.511772
0.545754 0.545754 0.545754
0.580468 0.580468 0.580468
0.615763 0.615763 0.615763
0.651469 0.651469 0.651469
0.687388 0.687388 0.687388
0.723384 0.723384 0.723384
0.759258 0.759258 0.759258
0.794873 0.794873 0.794873
0.830014 0.830014 0.830014
0.865614 0.865614 0.865614
0.900496 0.900496 0.900496
0.930587 0.930587 0.930587
0.954543 0.954543 0.954543
0.974029 0.974029 0.974029
0.991836 0.991836 0.991836
1 1 1
0.127825 0.127825 0.127825
0.146151 0.146151 0.146151
0.16492 0.16492 0.16492
0.184237 0.184237 0.184237
0.204196 0.204196 0.204196
0.224918 0.224918 0.224918
0.24654 0.24654 0.24654
0.269245 0.269245 0.269245
0.29308 0.29308 0.29308
0.31809 0.31809 0.31809
0.344289 0.344289 0.344289
0.37174 0.37174 0.37174
0.400458 0.400458 0.400458
0.430472 0.430472 0.430472
0.461814 0.461814 0.461814
0.494331 0.494331 0.494331
0.52784 0.52784 0.52784
0.562203 0.562203 0.562203
0.597223 0.597223 0.597223
0.632731 0.632731 0.632731
0.668559 0.668559 0.668559
0.70454 0.70454 0.70454
0.74049 0.74049 0.74049
0.776272 0.776272 0.776272
0.811673 0.811673 0.811673
0.846799 0.846799 0.846799
0.882582 0.882582 0.882582
0.915618 0.915618 0.915618
0.942718 0.942718 0.942718
0.964202 0.964202 0.964202
0.982544 0.982544 0.982544
1 1 1
1 1 1
0.136507 0.136507 0.136507
0.155032 0.155032 0.155032
0.174044 0.174044 0.174044
0.193652 0.193652 0.193652
0.213962 0.213962 0.213962
0.235096 0.235096 0.235096
0.257206 0.257206 0.257206
0.280446 0.280446 0.280446
0.304845 0.304845 0.304845
0.330404 0.330404 0.330404
0.357198 0.357198 0.357198
0.38526 0.38526 0.38526
0.414588 0.414588 0.414588
0.445243 0.445243 0.445243
0.477165 0.477165 0.477165
0.51017 0.51017 0.51017
0.544106 0.544106 0.544106
0.578805 0.578805 0.578805
0.614069 0.614069 0.614069
0.64976 0.64976 0.64976
0.685679 0.685679 0.685679
0.721675 0.721675 0.721675
0.757565 0.757565 0.757565
0.793179 0.793179 0.793179
0.828351 0.828351 0.828351
0.863905 0.863905 0.863905
0.898924 0.898924 0.898924
0.929305 0.929305 0.929305
0.953536 0.953536 0.953536
0.973159 0.973159 0.973159
0.990982 0.990982 0.990982
1 1 1
1 1 1
0.145281 0.145281 0.145281
0.164019 0.164019 0.164019
0.183307 0.183307 0.183307
0.203235 0.203235 0.203235
0.223926 0.223926 0.223926
0.245487 0.245487 0.245487
0.268132 0.268132 0.268132
0.29192 0.29192 0.29192
0.316869 0.316869 0.316869
0.343023 0.343023 0.343023
0.370398 0.370398 0.370398
0.399054 0.399054 0.399054
0.429007 0.429007 0.429007
0.460288 0.460288 0.460288
0.49276 0.49276 0.49276
0.526238 0.526238 0.526238
0.560555 0.560555 0.560555
0.595529 0.595529 0.595529
0.631022 0.631022 0.631022
0.66685 0.66685 0.66685
0.702815 0.702815 0.702815
0.738781 0.738781 0.738781
0.774563 0.774563 0.774563
0.809995 0.809995 0.809995
0.845106 0.845106 0.845106
0.880903 0.880903 0.880903
0.914168 0.914168 0.914168
0.941558 0.941558 0.941558
0.963272 0.963272 0.963272
0.981704 0.981704 0.981704
0.999649 0.999649 0.999649
1 1 1
1 1 1
0.154147 0.154147 0.154147
0.173129 0.173129 0.173129
0.192706 0.192706 0.192706
0.212985 0.212985 0.212985
0.234073 0.234073 0.234073
0.256138 0.256138 0.256138
0.279316 0.279316 0.279316
0.303655 0.303655 0.303655
0.329168 0.329168 0.329168
0.355901 0.355901 0.355901
0.383886 0.383886 0.383886
0.413153 0.413153 0.413153
0.443748 0.443748 0.443748
0.475608 0.475608 0.475608
0.508583 0.508583 0.508583
0.542473 0.542473 0.542473
0.577142 0.577142 0.577142
0.61239 0.61239 0.61239
0.648051 0.648051 0.648051
0.68397 0.68397 0.68397
0.719966 0.719966 0.719966
0.755856 0.755856 0.755856
0.791485 0.791485 0.791485
0.826688 0.826688 0.826688
0.862196 0.862196 0.862196
0.897322 0.897322 0.897322
0.927993 0.927993 0.927993
0.952514 0.952514 0.952514
0.97229 0.97229 0.97229
0.990143 0.990143 0.990143
1 1 1
1 1 1
1 1 1
0.163119 0.163119 0.163119
0.182376 0.182376 0.182376
0.202258 0.202258 0.202258
0.222919 0.222919 0.222919
0.244434 0.244434 0.244434
0.267033 0.267033 0.267033
0.290761 0.290761 0.290761
0.315648 0.315648 0.315648
0.341741 0.341741 0.341741
0.36907 0.36907 0.36907
0.397665 0.397665 0.397665
0.427558 0.427558 0.427558
0.458778 0.458778 0.458778
0.491188 0.491188 0.491188
0.52462 0.52462 0.52462
0.558892 0.558892 0.558892
0.593866 0.593866 0.593866
0.629328 0.629328 0.629328
0.665125 0.665125 0.665125
0.701106 0.701106 0.701106
0.737072 0.737072 0.737072
0.772869 0.772869 0.772869
0.808316 0.808316 0.808316
0.843412 0.843412 0.843412
0.879225 0.879225 0.879225
0.912718 0.912718 0.912718
0.940398 0.940398 0.940398
0.962341 0.962341 0.962341
0.980865 0.980865 0.980865
0.998764 0.998764 0.998764
1 1 1
1 1 1
1 1 1
0.172213 0.172213 0.172213
0.19176 0.19176 0.19176
0.211994 0.211994 0.211994
0.233036 0.233036 0.233036
0.255055 0.255055 0.255055
0.278187 0.278187 0.278187
0.302464 0.302464 0.302464
0.327932 0.327932 0.327932
0.354604 0.354604 0.354604
0.382528 0.382528 0.382528
0.411734 0.411734 0.411734
0.442252 0.442252 0.442252
0.474067 0.474067 0.474067
0.506996 0.506996 0.506996
0.540841 0.540841 0.540841
0.575479 0.575479 0.575479
0.610697 0.610697 0.610697
0.646342 0.646342 0.646342
0.682261 0.682261 0.682261
0.718242 0.718242 0.718242
0.754147 0.754147 0.754147
0.789807 0.789807 0.789807
0.82504 0.82504 0.82504
0.860487 0.860487 0.860487
0.89572 0.89572 0.89572
0.92668 0.92668 0.92668
0.951476 0.951476 0.951476
0.971405 0.971405 0.971405
0.989288 0.989288 0.989288
1 1 1
1 1 1
1 1 1
1 1 1
0.181445 0.181445 0.181445
0.201297 0.201297 0.201297
0.221912 0.221912 0.221912
0.243397 0.243397 0.243397
0.265934 0.265934 0.265934
0.289601 0.289601 0.289601
0.314443 0.314443 0.314443
0.340475 0.340475 0.340475
0.367742 0.367742 0.367742
0.396277 0.396277 0.396277
0.426108 0.426108 0.426108
0.457252 0.457252 0.457252
0.489616 0.489616 0.489616
0.523003 0.523003 0.523003
0.557244 0.557244 0.557244
0.592187 0.592187 0.592187
0.627634 0.627634 0.627634
0.663417 0.663417 0.663417
0.699397 0.699397 0.699397
0.735363 0.735363 0.735363
0.771176 0.771176 0.771176
0.806653 0.806653 0.806653
0.841718 0.841718 0.841718
0.877531 0.877531 0.877531
0.911238 0.911238 0.911238
0.939223 0.939223 0.939223
0.961395 0.961395 0.961395
0.980011 0.980011 0.980011
0.997879 0.997879 0.997879
1 1 1
1 1 1
1 1 1
1 1 1
0.190814 0.190814 0.190814
0.211017 0.211017 0.211017
0.232029 0.232029 0.232029
0.253986 0.253986 0.253986
0.277058 0.277058 0.277058
0.301289 0.301289 0.301289
0.32668 0.32668 0.32668
0.353307 0.353307 0.353307
0.38117 0.38117 0.38117
0.410315 0.410315 0.410315
0.440772 0.440772 0.440772
0.472526 0.472526 0.472526
0.505394 0.505394 0.505394
0.539208 0.539208 0.539208
0.573816 0.573816 0.573816
0.609003 0.609003 0.609003
0.644648 0.644648 0.644648
0.680537 0.680537 0.680537
0.716533 0.716533 0.716533
0.752453 0.752453 0.752453
0.788113 0.788113 0.788113
0.823362 0.823362 0.823362
0.858763 0.858763 0.858763
0.894102 0.894102 0.894102
0.925353 0.925353 0.925353
0.950423 0.950423 0.950423
0.970535 0.970535 0.970535
0.988449 0.988449 0.988449
1 1 1
1 1 1
1 1 1
1 1 1
1 1 1
0.200351 0.200351 0.200351
0.22092 0.22092 0.22092
0.242344 0.242344 0.242344
0.264836 0.264836 0.264836
0.288457 0.288457 0.288457
0.313222 0.313222 0.313222
0.339208 0.339208 0.339208
0.366415 0.366415 0.366415
0.394888 0.394888 0.394888
0.424659 0.424659 0.424659
0.455741 0.455741 0.455741
0.488045 0.488045 0.488045
0.521401 0.521401 0.521401
0.555596 0.555596 0.555596
0.590509 0.590509 0.590509
0.62594 0.62594 0.62594
0.661723 0.661723 0.661723
0.697673 0.697673 0.697673
0.733654 0.733654 0.733654
0.769482 0.769482 0.769482
0.804959 0.804959 0.804959
0.840024 0.840024 0.840024
0.875853 0.875853 0.875853
0.909743 0.909743 0.909743
0.938033 0.938033 0.938033
0.960449 0.960449 0.960449
0.979156 0.979156 0.979156
0.997009 0.997009 0.997009
1 1 1
1 1 1
1 1 1
1 1 1
1 1 1
0.21004 0.21004 0.21004
0.231006 0.231006 0.231006
0.252918 0.252918 0.252918
0.275929 0.275929 0.275929
0.300099 0.300099 0.300099
0.325444 0.325444 0.325444
0.35201 0.35201 0.35201
0.379812 0.379812 0.379812
0.408896 0.408896 0.408896
0.439292 0.439292 0.439292
0.470985 0.470985 0.470985
0.503807 0.503807 0.503807
0.537591 0.537591 0.537591
0.572152 0.572152 0.572152
0.607324 0.607324 0.607324
0.642939 0.642939 0.642939
0.678828 0.678828 0.678828
0.714824 0.714824 0.714824
0.750744 0.750744 0.750744
0.786419 0.786419 0.786419
0.821698 0.821698 0.821698
0.857053 0.857053 0.857053
0.892485 0.892485 0.892485
0.92401 0.92401 0.92401
0.949355 0.949355 0.949355
0.969635 0.969635 0.969635
0.98761 0.98761 0.98761
1 1 1
1 1 1
1 1 1
1 1 1
1 1 1
1 1 1
0.219928 0.219928 0.219928
0.241306 0.241306 0.241306
0.263737 0.263737 0.263737
0.287297 0.287297 0.287297
0.312016 0.312016 0.312016
0.337942 0.337942 0.337942
0.365087 0.365087 0.365087
0.3935 0.3935 0.3935
0.423209 0.423209 0.423209
0.454231 0.454231 0.454231
0.486488 0.486488 0.486488
0.519783 0.519783 0.519783
0.553948 0.553948 0.553948
0.58883 0.58883 0.58883
0.624231 0.624231 0.624231
0.659998 0.659998 0.659998
0.695964 0.695964 0.695964
0.731945 0.731945 0.731945
0.767773 0.767773 0.767773
0.803281 0.803281 0.803281
0.838346 0.838346 0.838346
0.874144 0.874144 0.874144
0.908232 0.908232 0.908232
0.936828 0.936828 0.936828
0.959487 0.959487 0.959487
0.978317 0.978317 0.978317
0.996139 0.996139 0.996139
1 1 1
1 1 1
1 1 1
1 1 1
1 1 1
1 1 1
0.229999 0.229999 0.229999
0.25185 0.25185 0.25185
0.274815 0.274815 0.274815
0.298924 0.298924 0.298924
0.324208 0.324208 0.324208
0.350713 0.350713 0.350713
0.378454 0.378454 0.378454
0.407477 0.407477 0.407477
0.437812 0.437812 0.437812
0.469459 0.469459 0.469459
0.50222 0.50222 0.50222
0.535958 0.535958 0.535958
0.570489 0.570489 0.570489
0.605631 0.605631 0.605631
0.64123 0.64123 0.64123
0.677119 0.677119 0.677119
0.713115 0.713115 0.713115
0.749035 0.749035 0.749035
0.784741 0.784741 0.784741
0.820035 0.820035 0.820035
0.855344 0.855344 0.855344
0.890852 0.890852 0.890852
0.922652 0.922652 0.922652
0.948287 0.948287 0.948287
0.96875 0.96875 0.96875
0.986755 0.986755 0.986755
1 1 1
1 1 1
1 1 1
1 1 1
1 1 1
1 1 1
1 1 1
0.240269 0.240269 0.240269
0.262638 0.262638 0.262638
0.286152 0.286152 0.286152
0.310826 0.310826 0.310826
0.336675 0.336675 0.336675
0.363775 0.363775 0.363775
0.392126 0.392126 0.392126
0.421759 0.421759 0.421759
0.452735 0.452735 0.452735
