Camo Studio.app/Contents/Resources/CamoContent_CamoContent.bundle/Contents/Resources/BW.cube
TITLE "Generated by Resolve"
LUT_3D_SIZE 5
0 0 0
0.143511 0.143511 0.143511
0.314443 0.314443 0.314443
0.55726 0.55726 0.55726
0.841718 0.841718 0.841718
0.0684215 0.0684215 0.0684215
0.217929 0.217929 0.217929
0.420325 0.420325 0.420325
0.692531 0.692531 0.692531
0.957534 0.957534 0.957534
0.136507 0.136507 0.136507
0.304845 0.304845 0.304845
0.544106 0.544106 0.544106
0.828351 0.828351 0.828351
1 1 1
0.21004 0.21004 0.21004
0.408896 0.408896 0.408896
0.678828 0.678828 0.678828
0.949355 0.949355 0.949355
1 1 1
0.295415 0.295415 0.295415
0.53109 0.53109 0.53109
0.81503 0.81503 0.81503
1 1 1
1 1 1
0 0 0
0.102159 0.102159 0.102159
0.259388 0.259388 0.259388
0.480278 0.480278 0.480278
0.760983 0.760983 0.760983
0.0276341 0.0276341 0.0276341
0.172213 0.172213 0.172213
0.354604 0.354604 0.354604
0.610697 0.610697 0.610697
0.89572 0.89572 0.89572
0.0953994 0.0953994 0.0953994
0.250782 0.250782 0.250782
0.467933 0.467933 0.467933
0.747341 0.747341 0.747341
0.985916 0.985916 0.985916
0.164935 0.164935 0.164935
0.344289 0.344289 0.344289
0.597223 0.597223 0.597223
0.882582 0.882582 0.882582
1 1 1
0.242359 0.242359 0.242359
0.455756 0.455756 0.455756
0.733654 0.733654 0.733654
0.979171 0.979171 0.979171
1 1 1
0 0 0
0.0616617 0.0616617 0.0616617
0.21004 0.21004 0.21004
0.408911 0.408911 0.408911
0.678843 0.678843 0.678843
0 0 0
0.129549 0.129549 0.129549
0.295415 0.295415 0.295415
0.53109 0.53109 0.53109
0.81503 0.81503 0.81503
0.0549172 0.0549172 0.0549172
0.202274 0.202274 0.202274
0.397665 0.397665 0.397665
0.665141 0.665141 0.665141
0.940398 0.940398 0.940398
0.122652 0.122652 0.122652
0.286152 0.286152 0.286152
0.518181 0.518181 0.518181
0.801617 0.801617 0.801617
1 1 1
0.194614 0.194614 0.194614
0.386618 0.386618 0.386618
0.651469 0.651469 0.651469
0.930587 0.930587 0.930587
1 1 1
0 0 0
0.0207065 0.0207065 0.0207065
0.164935 0.164935 0.164935
0.344305 0.344305 0.344305
0.597223 0.597223 0.597223
0 0 0
0.0886244 0.0886244 0.0886244
0.242344 0.242344 0.242344
0.455756 0.455756 0.455756
0.733654 0.733654 0.733654
0.0137484 0.0137484 0.0137484
0.157717 0.157717 0.157717
0.334173 0.334173 0.334173
0.58381 0.58381 0.58381
0.869047 0.869047 0.869047
0.0818952 0.0818952 0.0818952
0.234073 0.234073 0.234073
0.443748 0.443748 0.443748
0.719966 0.719966 0.719966
0.97229 0.97229 0.97229
0.150591 0.150591 0.150591
0.324224 0.324224 0.324224
0.570489 0.570489 0.570489
0.855344 0.855344 0.855344
1 1 1
0 0 0
0 0 0
0.122652 0.122652 0.122652
0.286168 0.286168 0.286168
0.518196 0.518196 0.518196
0 0 0
0.048127 0.048127 0.048127
0.194614 0.194614 0.194614
0.386618 0.386618 0.386618
0.651469 0.651469 0.651469
0 0 0
0.115785 0.115785 0.115785
0.277058 0.277058 0.277058
0.505394 0.505394 0.505394
0.788128 0.788128 0.788128
0.0413367 0.0413367 0.0413367
0.187045 0.187045 0.187045
0.375769 0.375769 0.375769
0.637842 0.637842 0.637842
0.91989 0.91989 0.91989
0.108965 0.108965 0.108965
0.268132 0.268132 0.268132
0.49276 0.49276 0.49276
0.774578 0.774578 0.774578
1 1 1
