Camo Studio.app/Contents/Resources/CamoContent_CamoContent.bundle/Contents/Resources/BW.cube
TITLE "Generated by Resolve"
LUT_3D_SIZE 9
0 0 0
0.0717784 0.0717784 0.0717784
0.143511 0.143511 0.143511
0.221912 0.221912 0.221912
0.314443 0.314443 0.314443
0.426108 0.426108 0.426108
0.55726 0.55726 0.55726
0.699397 0.699397 0.699397
0.841718 0.841718 0.841718
0.0345006 0.0345006 0.0345006
0.105547 0.105547 0.105547
0.179583 0.179583 0.179583
0.263737 0.263737 0.263737
0.365087 0.365087 0.365087
0.486488 0.486488 0.486488
0.624231 0.624231 0.624231
0.767773 0.767773 0.767773
0.908232 0.908232 0.908232
0.0684215 0.0684215 0.0684215
0.140002 0.140002 0.140002
0.217929 0.217929 0.217929
0.309621 0.309621 0.309621
0.420325 0.420325 0.420325
0.550668 0.550668 0.550668
0.692531 0.692531 0.692531
0.835004 0.835004 0.835004
0.957534 0.957534 0.957534
0.102159 0.102159 0.102159
0.175891 0.175891 0.175891
0.259373 0.259373 0.259373
0.359823 0.359823 0.359823
0.480262 0.480262 0.480262
0.617456 0.617456 0.617456
0.760967 0.760967 0.760967
0.902068 0.902068 0.902068
0.992691 0.992691 0.992691
0.136507 0.136507 0.136507
0.213962 0.213962 0.213962
0.304845 0.304845 0.304845
0.414588 0.414588 0.414588
0.544106 0.544106 0.544106
0.685679 0.685679 0.685679
0.828351 0.828351 0.828351
0.953536 0.953536 0.953536
1 1 1
0.172213 0.172213 0.172213
0.255055 0.255055 0.255055
0.354604 0.354604 0.354604
0.474067 0.474067 0.474067
0.610697 0.610697 0.610697
0.754147 0.754147 0.754147
0.89572 0.89572 0.89572
0.989288 0.989288 0.989288
1 1 1
0.21004 0.21004 0.21004
0.300099 0.300099 0.300099
0.408896 0.408896 0.408896
0.537591 0.537591 0.537591
0.678828 0.678828 0.678828
0.821698 0.821698 0.821698
0.949355 0.949355 0.949355
1 1 1
1 1 1
0.250797 0.250797 0.250797
0.349432 0.349432 0.349432
0.467918 0.467918 0.467918
0.603952 0.603952 0.603952
0.747326 0.747326 0.747326
0.88922 0.88922 0.88922
0.985916 0.985916 0.985916
1 1 1
1 1 1
0.295415 0.295415 0.295415
0.403265 0.403265 0.403265
0.53109 0.53109 0.53109
0.671977 0.671977 0.671977
0.81503 0.81503 0.81503
0.944976 0.944976 0.944976
1 1 1
1 1 1
1 1 1
0 0 0
0.0515297 0.0515297 0.0515297
0.122652 0.122652 0.122652
0.198428 0.198428 0.198428
0.286168 0.286168 0.286168
0.392126 0.392126 0.392126
0.518196 0.518196 0.518196
0.658305 0.658305 0.658305
0.801617 0.801617 0.801617
0.0137484 0.0137484 0.0137484
0.0852522 0.0852522 0.0852522
0.157717 0.157717 0.157717
0.238193 0.238193 0.238193
0.334173 0.334173 0.334173
0.449729 0.449729 0.449729
0.58381 0.58381 0.58381
0.726818 0.726818 0.726818
0.869047 0.869047 0.869047
0.048127 0.048127 0.048127
0.119203 0.119203 0.119203
0.194614 0.194614 0.194614
0.28159 0.28159 0.28159
0.386618 0.386618 0.386618
0.511772 0.511772 0.511772
0.651469 0.651469 0.651469
0.794873 0.794873 0.794873
0.930587 0.930587 0.930587
0.0818952 0.0818952 0.0818952
0.154147 0.154147 0.154147
0.234073 0.234073 0.234073
0.329168 0.329168 0.329168
0.443748 0.443748 0.443748
0.577142 0.577142 0.577142
0.719966 0.719966 0.719966
0.862196 0.862196 0.862196
0.97229 0.97229 0.97229
0.115801 0.115801 0.115801
0.190814 0.190814 0.190814
0.277058 0.277058 0.277058
0.38117 0.38117 0.38117
0.505394 0.505394 0.505394
0.644648 0.644648 0.644648
0.788128 0.788128 0.788128
0.925353 0.925353 0.925353
1 1 1
0.150591 0.150591 0.150591
0.229984 0.229984 0.229984
0.324224 0.324224 0.324224
0.437827 0.437827 0.437827
0.570489 0.570489 0.570489
0.713115 0.713115 0.713115
0.855344 0.855344 0.855344
0.96875 0.96875 0.96875
1 1 1
0.18706 0.18706 0.18706
0.272587 0.272587 0.272587
0.375769 0.375769 0.375769
0.499062 0.499062 0.499062
0.637842 0.637842 0.637842
0.781353 0.781353 0.781353
0.91989 0.91989 0.91989
1 1 1
1 1 1
0.22594 0.22594 0.22594
0.31931 0.31931 0.31931
0.431937 0.431937 0.431937
0.563851 0.563851 0.563851
0.706249 0.706249 0.706249
0.848508 0.848508 0.848508
0.965133 0.965133 0.965133
1 1 1
1 1 1
0.268147 0.268147 0.268147
0.370413 0.370413 0.370413
0.49276 0.49276 0.49276
0.631037 0.631037 0.631037
0.774578 0.774578 0.774578
0.914183 0.914183 0.914183
1 1 1
1 1 1
1 1 1
0 0 0
0.0310674 0.0310674 0.0310674
0.102159 0.102159 0.102159
0.175891 0.175891 0.175891
0.259388 0.259388 0.259388
0.359838 0.359838 0.359838
0.480278 0.480278 0.480278
0.617472 0.617472 0.617472
0.760983 0.760983 0.760983
0 0 0
0.0650339 0.0650339 0.0650339
0.136507 0.136507 0.136507
0.213962 0.213962 0.213962
0.304845 0.304845 0.304845
0.414588 0.414588 0.414588
0.544121 0.544121 0.544121
0.685695 0.685695 0.685695
0.828367 0.828367 0.828367
0.0276341 0.0276341 0.0276341
0.0987716 0.0987716 0.0987716
0.172213 0.172213 0.172213
0.255055 0.255055 0.255055
0.354604 0.354604 0.354604
0.474067 0.474067 0.474067
0.610697 0.610697 0.610697
0.754162 0.754162 0.754162
0.89572 0.89572 0.89572
0.061677 0.061677 0.061677
0.133028 0.133028 0.133028
0.21004 0.21004 0.21004
0.300099 0.300099 0.300099
0.408896 0.408896 0.408896
0.537591 0.537591 0.537591
0.678828 0.678828 0.678828
0.821698 0.821698 0.821698
0.949371 0.949371 0.949371
0.0953994 0.0953994 0.0953994
0.168566 0.168566 0.168566
0.250782 0.250782 0.250782
0.349432 0.349432 0.349432
0.467933 0.467933 0.467933
0.603952 0.603952 0.603952
0.747341 0.747341 0.747341
0.88922 0.88922 0.88922
0.985916 0.985916 0.985916
0.129564 0.129564 0.129564
0.206134 0.206134 0.206134
0.295415 0.295415 0.295415
0.403265 0.403265 0.403265
0.53109 0.53109 0.53109
0.671992 0.671992 0.671992
0.81503 0.81503 0.81503
0.944991 0.944991 0.944991
1 1 1
0.164935 0.164935 0.164935
0.24654 0.24654 0.24654
0.344289 0.344289 0.344289
0.461814 0.461814 0.461814
0.597223 0.597223 0.597223
0.740505 0.740505 0.740505
0.882582 0.882582 0.882582
0.982544 0.982544 0.982544
1 1 1
0.202274 0.202274 0.202274
0.290761 0.290761 0.290761
0.397665 0.397665 0.397665
0.52462 0.52462 0.52462
0.665141 0.665141 0.665141
0.808331 0.808331 0.808331
0.940398 0.940398 0.940398
1 1 1
1 1 1
0.242359 0.242359 0.242359
0.339208 0.339208 0.339208
0.455756 0.455756 0.455756
0.590509 0.590509 0.590509
0.733654 0.733654 0.733654
0.875853 0.875853 0.875853
0.979171 0.979171 0.979171
1 1 1
1 1 1
0 0 0
0.0102388 0.0102388 0.0102388
0.0818952 0.0818952 0.0818952
0.154147 0.154147 0.154147
0.234073 0.234073 0.234073
0.329183 0.329183 0.329183
0.443763 0.443763 0.443763
0.577157 0.577157 0.577157
0.719982 0.719982 0.719982
0 0 0
0.0447242 0.0447242 0.0447242
0.115785 0.115785 0.115785
0.190814 0.190814 0.190814
0.277058 0.277058 0.277058
0.38117 0.38117 0.38117
0.505394 0.505394 0.505394
0.644648 0.644648 0.644648
0.788128 0.788128 0.788128
0.00672923 0.00672923 0.00672923
0.0785229 0.0785229 0.0785229
0.150576 0.150576 0.150576
0.229984 0.229984 0.229984
0.324224 0.324224 0.324224
0.437827 0.437827 0.437827
0.570489 0.570489 0.570489
0.713115 0.713115 0.713115
0.855344 0.855344 0.855344
0.0413367 0.0413367 0.0413367
0.112367 0.112367 0.112367
0.187045 0.187045 0.187045
0.272587 0.272587 0.272587
0.375769 0.375769 0.375769
0.499062 0.499062 0.499062
0.637842 0.637842 0.637842
0.781353 0.781353 0.781353
0.91989 0.91989 0.91989
0.0751507 0.0751507 0.0751507
0.147036 0.147036 0.147036
0.22594 0.22594 0.22594
0.31931 0.31931 0.31931
0.431937 0.431937 0.431937
0.563851 0.563851 0.563851
0.706249 0.706249 0.706249
0.848508 0.848508 0.848508
0.965133 0.965133 0.965133
0.108965 0.108965 0.108965
0.183307 0.183307 0.183307
0.268132 0.268132 0.268132
0.370413 0.370413 0.370413
0.49276 0.49276 0.49276
0.631037 0.631037 0.631037
0.774578 0.774578 0.774578
0.914183 0.914183 0.914183
1 1 1
0.143526 0.143526 0.143526
0.221912 0.221912 0.221912
0.314443 0.314443 0.314443
0.426108 0.426108 0.426108
0.55726 0.55726 0.55726
0.699397 0.699397 0.699397
0.841718 0.841718 0.841718
0.961395 0.961395 0.961395
1 1 1
0.179599 0.179599 0.179599
0.263737 0.263737 0.263737
0.365087 0.365087 0.365087
0.486488 0.486488 0.486488
0.624247 0.624247 0.624247
0.767773 0.767773 0.767773
0.908232 0.908232 0.908232
0.996139 0.996139 0.996139
1 1 1
0.217945 0.217945 0.217945
0.309621 0.309621 0.309621
0.420325 0.420325 0.420325
0.550683 0.550683 0.550683
0.692546 0.692546 0.692546
0.835004 0.835004 0.835004
0.957549 0.957549 0.957549
1 1 1
1 1 1
0 0 0
0 0 0
0.0616617 0.0616617 0.0616617
0.133028 0.133028 0.133028
0.21004 0.21004 0.21004
0.300114 0.300114 0.300114
0.408911 0.408911 0.408911
0.537591 0.537591 0.537591
0.678843 0.678843 0.678843
0 0 0
0.0241703 0.0241703 0.0241703
0.0953841 0.0953841 0.0953841
0.168566 0.168566 0.168566
0.250782 0.250782 0.250782
0.349432 0.349432 0.349432
0.467933 0.467933 0.467933
0.603952 0.603952 0.603952
0.747341 0.747341 0.747341
0 0 0
0.0582895 0.0582895 0.0582895
0.129549 0.129549 0.129549
0.206134 0.206134 0.206134
0.295415 0.295415 0.295415
0.403265 0.403265 0.403265
0.53109 0.53109 0.53109
0.671992 0.671992 0.671992
0.81503 0.81503 0.81503
0.0207065 0.0207065 0.0207065
0.0920119 0.0920119 0.0920119
0.16492 0.16492 0.16492
0.24654 0.24654 0.24654
0.344289 0.344289 0.344289
0.461814 0.461814 0.461814
0.597223 0.597223 0.597223
0.740505 0.740505 0.740505
0.882582 0.882582 0.882582
0.0549172 0.0549172 0.0549172
0.126101 0.126101 0.126101
0.202274 0.202274 0.202274
0.290761 0.290761 0.290761
0.397665 0.397665 0.397665
0.52462 0.52462 0.52462
0.665141 0.665141 0.665141
0.808331 0.808331 0.808331
0.940398 0.940398 0.940398
0.0886397 0.0886397 0.0886397
0.161318 0.161318 0.161318
0.242344 0.242344 0.242344
0.339208 0.339208 0.339208
0.455756 0.455756 0.455756
0.590509 0.590509 0.590509
0.733654 0.733654 0.733654
0.875853 0.875853 0.875853
0.979171 0.979171 0.979171
0.122652 0.122652 0.122652
0.198428 0.198428 0.198428
0.286152 0.286152 0.286152
0.392126 0.392126 0.392126
0.518181 0.518181 0.518181
0.658305 0.658305 0.658305
0.801617 0.801617 0.801617
0.935607 0.935607 0.935607
1 1 1
0.157733 0.157733 0.157733
0.238193 0.238193 0.238193
0.334173 0.334173 0.334173
0.449729 0.449729 0.449729
0.58381 0.58381 0.58381
0.726818 0.726818 0.726818
0.869047 0.869047 0.869047
0.975753 0.975753 0.975753
1 1 1
0.194614 0.194614 0.194614
0.28159 0.28159 0.28159
0.386618 0.386618 0.386618
0.511772 0.511772 0.511772
0.651469 0.651469 0.651469
0.794873 0.794873 0.794873
0.930587 0.930587 0.930587
1 1 1
1 1 1
0 0 0
0 0 0
0.0413214 0.0413214 0.0413214
0.112367 0.112367 0.112367
0.187045 0.187045 0.187045
0.272587 0.272587 0.272587
0.375769 0.375769 0.375769
0.499062 0.499062 0.499062
0.637842 0.637842 0.637842
0 0 0
0.00318914 0.00318914 0.00318914
0.0751507 0.0751507 0.0751507
0.147036 0.147036 0.147036
0.22594 0.22594 0.22594
0.31931 0.31931 0.31931
0.431937 0.431937 0.431937
0.563851 0.563851 0.563851
0.706249 0.706249 0.706249
0 0 0
0.0379034 0.0379034 0.0379034
0.108965 0.108965 0.108965
0.183307 0.183307 0.183307
0.268132 0.268132 0.268132
0.370413 0.370413 0.370413
0.49276 0.49276 0.49276
0.631037 0.631037 0.631037
0.774578 0.774578 0.774578
0 0 0
0.0717784 0.0717784 0.0717784
0.143511 0.143511 0.143511
0.221912 0.221912 0.221912
0.314443 0.314443 0.314443
0.426108 0.426108 0.426108
0.55726 0.55726 0.55726
0.699397 0.699397 0.699397
0.841718 0.841718 0.841718
0.0345006 0.0345006 0.0345006
0.105547 0.105547 0.105547
0.179583 0.179583 0.179583
0.263737 0.263737 0.263737
0.365087 0.365087 0.365087
0.486488 0.486488 0.486488
0.624247 0.624247 0.624247
0.767773 0.767773 0.767773
0.908232 0.908232 0.908232
0.0684215 0.0684215 0.0684215
0.140002 0.140002 0.140002
0.217929 0.217929 0.217929
0.309621 0.309621 0.309621
0.420325 0.420325 0.420325
0.550683 0.550683 0.550683
0.692546 0.692546 0.692546
0.835004 0.835004 0.835004
0.957549 0.957549 0.957549
0.102174 0.102174 0.102174
0.175891 0.175891 0.175891
0.259373 0.259373 0.259373
0.359823 0.359823 0.359823
0.480262 0.480262 0.480262
0.617456 0.617456 0.617456
0.760983 0.760983 0.760983
0.902068 0.902068 0.902068
0.992691 0.992691 0.992691
0.136522 0.136522 0.136522
0.213962 0.213962 0.213962
0.304845 0.304845 0.304845
0.414588 0.414588 0.414588
0.544121 0.544121 0.544121
0.685695 0.685695 0.685695
0.828367 0.828367 0.828367
0.953536 0.953536 0.953536
1 1 1
0.172229 0.172229 0.172229
0.255055 0.255055 0.255055
0.354604 0.354604 0.354604
0.474067 0.474067 0.474067
0.610697 0.610697 0.610697
0.754162 0.754162 0.754162
0.89572 0.89572 0.89572
0.989303 0.989303 0.989303
1 1 1
0 0 0
0 0 0
0.0207065 0.0207065 0.0207065
0.0920119 0.0920119 0.0920119
0.164935 0.164935 0.164935
0.246555 0.246555 0.246555
0.344305 0.344305 0.344305
0.46183 0.46183 0.46183
0.597223 0.597223 0.597223
0 0 0
0 0 0
0.054902 0.054902 0.054902
0.126101 0.126101 0.126101
0.202274 0.202274 0.202274
0.290761 0.290761 0.290761
0.397665 0.397665 0.397665
0.52462 0.52462 0.52462
0.665141 0.665141 0.665141
0 0 0
0.0172274 0.0172274 0.0172274
0.0886244 0.0886244 0.0886244
0.161318 0.161318 0.161318
0.242344 0.242344 0.242344
0.339208 0.339208 0.339208
0.455756 0.455756 0.455756
0.590509 0.590509 0.590509
0.733654 0.733654 0.733654
0 0 0
0.0515145 0.0515145 0.0515145
0.122652 0.122652 0.122652
0.198428 0.198428 0.198428
0.286152 0.286152 0.286152
0.392126 0.392126 0.392126
0.518181 0.518181 0.518181
0.658305 0.658305 0.658305
0.801617 0.801617 0.801617
0.0137484 0.0137484 0.0137484
0.0852522 0.0852522 0.0852522
0.157717 0.157717 0.157717
0.238193 0.238193 0.238193
0.334173 0.334173 0.334173
0.449729 0.449729 0.449729
0.58381 0.58381 0.58381
0.726818 0.726818 0.726818
0.869047 0.869047 0.869047
0.048127 0.048127 0.048127
0.119203 0.119203 0.119203
0.194614 0.194614 0.194614
0.28159 0.28159 0.28159
0.386618 0.386618 0.386618
0.511772 0.511772 0.511772
0.651469 0.651469 0.651469
0.794873 0.794873 0.794873
0.930587 0.930587 0.930587
0.0818952 0.0818952 0.0818952
0.154147 0.154147 0.154147
0.234073 0.234073 0.234073
0.329168 0.329168 0.329168
0.443748 0.443748 0.443748
0.577142 0.577142 0.577142
0.719966 0.719966 0.719966
0.862196 0.862196 0.862196
0.97229 0.97229 0.97229
0.115801 0.115801 0.115801
0.190814 0.190814 0.190814
0.277058 0.277058 0.277058
0.38117 0.38117 0.38117
0.505394 0.505394 0.505394
0.644648 0.644648 0.644648
0.788128 0.788128 0.788128
0.925353 0.925353 0.925353
1 1 1
0.150591 0.150591 0.150591
0.229984 0.229984 0.229984
0.324224 0.324224 0.324224
0.437827 0.437827 0.437827
0.570489 0.570489 0.570489
0.713115 0.713115 0.713115
0.855344 0.855344 0.855344
0.96875 0.96875 0.96875
1 1 1
0 0 0
0 0 0
0 0 0
0.0717784 0.0717784 0.0717784
0.143526 0.143526 0.143526
0.221927 0.221927 0.221927
0.314443 0.314443 0.314443
0.426123 0.426123 0.426123
0.55726 0.55726 0.55726
0 0 0
0 0 0
0.0344854 0.0344854 0.0344854
0.105547 0.105547 0.105547
0.179583 0.179583 0.179583
0.263737 0.263737 0.263737
0.365087 0.365087 0.365087
0.486488 0.486488 0.486488
0.624247 0.624247 0.624247
0 0 0
0 0 0
0.0684062 0.0684062 0.0684062
0.140002 0.140002 0.140002
0.217929 0.217929 0.217929
0.309621 0.309621 0.309621
0.420325 0.420325 0.420325
0.550683 0.550683 0.550683
0.692546 0.692546 0.692546
0 0 0
0.0310521 0.0310521 0.0310521
0.102159 0.102159 0.102159
0.175891 0.175891 0.175891
0.259373 0.259373 0.259373
0.359823 0.359823 0.359823
0.480262 0.480262 0.480262
0.617456 0.617456 0.617456
0.760983 0.760983 0.760983
0 0 0
0.0650339 0.0650339 0.0650339
0.136507 0.136507 0.136507
0.213962 0.213962 0.213962
0.304845 0.304845 0.304845
0.414588 0.414588 0.414588
0.544121 0.544121 0.544121
0.685695 0.685695 0.685695
0.828367 0.828367 0.828367
0.0276341 0.0276341 0.0276341
0.0987716 0.0987716 0.0987716
0.172213 0.172213 0.172213
0.255055 0.255055 0.255055
0.354604 0.354604 0.354604
0.474067 0.474067 0.474067
0.610697 0.610697 0.610697
0.754162 0.754162 0.754162
0.89572 0.89572 0.89572
0.061677 0.061677 0.061677
0.133028 0.133028 0.133028
0.21004 0.21004 0.21004
0.300099 0.300099 0.300099
0.408896 0.408896 0.408896
0.537591 0.537591 0.537591
0.678828 0.678828 0.678828
0.821698 0.821698 0.821698
0.949371 0.949371 0.949371
0.0953994 0.0953994 0.0953994
0.168566 0.168566 0.168566
0.250782 0.250782 0.250782
0.349432 0.349432 0.349432
0.467933 0.467933 0.467933
0.603952 0.603952 0.603952
0.747341 0.747341 0.747341
0.88922 0.88922 0.88922
0.985916 0.985916 0.985916
0.129564 0.129564 0.129564
0.206134 0.206134 0.206134
0.295415 0.295415 0.295415
0.403265 0.403265 0.403265
0.53109 0.53109 0.53109
0.671992 0.671992 0.671992
0.81503 0.81503 0.81503
0.944991 0.944991 0.944991
1 1 1
0 0 0
0 0 0
0 0 0
0.0515297 0.0515297 0.0515297
0.122652 0.122652 0.122652
0.198428 0.198428 0.198428
0.286168 0.286168 0.286168
0.392126 0.392126 0.392126
0.518196 0.518196 0.518196
0 0 0
0 0 0
0.0137484 0.0137484 0.0137484
0.0852522 0.0852522 0.0852522
0.157717 0.157717 0.157717
0.238193 0.238193 0.238193
0.334173 0.334173 0.334173
0.449729 0.449729 0.449729
0.58381 0.58381 0.58381
0 0 0
0 0 0
0.048127 0.048127 0.048127
0.119203 0.119203 0.119203
0.194614 0.194614 0.194614
0.28159 0.28159 0.28159
0.386618 0.386618 0.386618
0.511772 0.511772 0.511772
0.651469 0.651469 0.651469
0 0 0
0.0102388 0.0102388 0.0102388
0.0818799 0.0818799 0.0818799
0.154147 0.154147 0.154147
0.234073 0.234073 0.234073
0.329168 0.329168 0.329168
0.443748 0.443748 0.443748
0.577142 0.577142 0.577142
0.719966 0.719966 0.719966
0 0 0
0.0447242 0.0447242 0.0447242
0.115785 0.115785 0.115785
0.190814 0.190814 0.190814
0.277058 0.277058 0.277058
0.38117 0.38117 0.38117
0.505394 0.505394 0.505394
0.644648 0.644648 0.644648
0.788128 0.788128 0.788128
0.00672923 0.00672923 0.00672923
0.0785229 0.0785229 0.0785229
0.150576 0.150576 0.150576
0.229984 0.229984 0.229984
0.324224 0.324224 0.324224
0.437827 0.437827 0.437827
0.570489 0.570489 0.570489
0.713115 0.713115 0.713115
0.855344 0.855344 0.855344
0.0413367 0.0413367 0.0413367
0.112367 0.112367 0.112367
0.187045 0.187045 0.187045
0.272587 0.272587 0.272587
0.375769 0.375769 0.375769
0.499062 0.499062 0.499062
0.637842 0.637842 0.637842
0.781353 0.781353 0.781353
0.91989 0.91989 0.91989
0.0751507 0.0751507 0.0751507
0.147036 0.147036 0.147036
0.22594 0.22594 0.22594
0.31931 0.31931 0.31931
0.431937 0.431937 0.431937
0.563851 0.563851 0.563851
0.706249 0.706249 0.706249
0.848508 0.848508 0.848508
0.965133 0.965133 0.965133
0.108965 0.108965 0.108965
0.183307 0.183307 0.183307
0.268132 0.268132 0.268132
0.370413 0.370413 0.370413
0.49276 0.49276 0.49276
0.631037 0.631037 0.631037
0.774578 0.774578 0.774578
0.914183 0.914183 0.914183
1 1 1
