Camo Studio.app/Contents/Resources/CamoContent_CamoContent.bundle/Contents/Resources/COOL.cube
TITLE "Generated by Resolve"
LUT_3D_SIZE 33
0.0212406 0.0227054 0.0258793
0.0212406 0.0227054 0.0258793
0.0438392 0.0230716 0.0262608
0.0747997 0.0237583 0.0273136
0.106325 0.0247196 0.0287785
0.138476 0.0261082 0.0308537
0.170336 0.0279545 0.0334478
0.203098 0.029984 0.0363775
0.236164 0.0323644 0.0395972
0.269337 0.0348516 0.0430304
0.3028 0.037583 0.0467689
0.33611 0.0403449 0.0505226
0.369345 0.0432746 0.0544442
0.402762 0.0462959 0.0584573
0.435615 0.0492714 0.0624399
0.468559 0.052369 0.0665446
0.500801 0.0554818 0.0706493
0.532555 0.0585031 0.0746624
0.563882 0.0614939 0.0786603
0.594537 0.0644846 0.0824445
0.624323 0.0674754 0.0862593
0.653635 0.0702983 0.0900587
0.681636 0.0730449 0.0937209
0.708629 0.0757763 0.0971695
0.734447 0.0783703 0.100572
0.758694 0.0807202 0.10367
0.781704 0.0829786 0.106706
0.802792 0.0851759 0.109483
0.821958 0.0870375 0.112047
0.839139 0.0888075 0.114153
0.853788 0.0903487 0.116152
0.865919 0.0914321 0.117723
0.874922 0.0924392 0.118807
0.0212406 0.0227054 0.0258793
0.0212406 0.0227054 0.0258793
0.0438392 0.0230716 0.0262608
0.0744335 0.0237583 0.0272984
0.105959 0.0247044 0.0287633
0.138109 0.0260929 0.0308232
0.170459 0.0279698 0.033463
0.20322 0.0299992 0.0363928
0.236545 0.0323949 0.0396277
0.269718 0.0348821 0.043061
0.303059 0.0376135 0.0467994
0.33637 0.0403754 0.0505531
0.369604 0.0433051 0.0544747
0.403021 0.0463111 0.0585031
0.436118 0.0493172 0.062501
0.468818 0.0523842 0.0665751
0.50106 0.0555123 0.0706798
0.532677 0.0585184 0.0746777
0.564004 0.0615091 0.0786755
0.594781 0.0644999 0.082475
0.624659 0.0675059 0.086305
0.653742 0.0703136 0.090074
0.681743 0.0730449 0.0937362
0.708736 0.0757916 0.0971695
0.734539 0.0783856 0.100587
0.758984 0.0807355 0.103716
0.781888 0.0829938 0.106722
0.802884 0.0851911 0.109499
0.822034 0.0870375 0.112062
0.8392 0.0888228 0.114153
0.85391 0.0903639 0.116167
0.866102 0.0914473 0.117754
0.874952 0.0924392 0.118807
0.0190585 0.0454871 0.0262608
0.019028 0.0457313 0.0262608
0.04271 0.0460822 0.0267643
0.0742199 0.0463264 0.0277256
0.105928 0.0467842 0.0292515
0.13814 0.0474861 0.0312505
0.170748 0.0485542 0.0338445
0.203677 0.0500191 0.0366979
0.236774 0.0514076 0.0398718
0.269932 0.0530098 0.0433356
0.303258 0.0547951 0.0470283
0.336629 0.0565805 0.050782
0.36997 0.058793 0.0547036
0.403479 0.0609751 0.0587472
0.436408 0.0633402 0.0627298
0.469093 0.0656596 0.066743
0.501335 0.0680858 0.0707561
0.533028 0.0704509 0.0747387
0.564614 0.0730449 0.0787518
0.595163 0.0755627 0.0826886
0.625101 0.0779431 0.0864881
0.6542 0.0803998 0.0902419
0.682078 0.0827192 0.0938582
0.709041 0.0850843 0.0973373
0.735042 0.08748 0.10071
0.75935 0.0895705 0.103883
0.782147 0.0915236 0.106813
0.803204 0.0935073 0.10956
0.822232 0.0951095 0.112093
0.839521 0.096788 0.114336
0.854185 0.0981003 0.116243
0.866224 0.0991379 0.117769
0.875059 0.0999771 0.118975
0.0107118 0.07776 0.0273289
0.0107118 0.07776 0.0273289
0.038941 0.0779278 0.0277409
0.0730144 0.0780499 0.028748
0.10518 0.0782635 0.0302281
0.137591 0.0786145 0.0321508
0.170413 0.0794232 0.0346075
0.203372 0.0800336 0.0374609
0.2365 0.0807355 0.040528
0.269688 0.0816358 0.0439307
0.303014 0.0827192 0.0476081
0.33666 0.0839704 0.0513619
0.369909 0.0853132 0.0551919
0.403326 0.0866102 0.0591745
0.436286 0.0881361 0.0631571
0.468986 0.0897383 0.0671397
0.501289 0.0914015 0.0711376
0.533257 0.0932631 0.0751354
0.564462 0.0950637 0.0790417
0.595041 0.0968032 0.0829328
0.624964 0.0986648 0.0867628
0.654078 0.100465 0.0905165
0.682185 0.102373 0.0940871
0.709239 0.104326 0.0975967
0.73489 0.106065 0.100923
0.759289 0.107774 0.104112
0.781903 0.109377 0.106981
0.803082 0.110979 0.109743
0.82237 0.112413 0.112291
0.839506 0.113725 0.11458
0.85417 0.114763 0.116426
0.866026 0.115602 0.117952
0.875029 0.116365 0.119219
0.002121 0.110338 0.0291142
0.00209049 0.11046 0.0291295
0.034287 0.110628 0.0294804
0.0708934 0.110704 0.0302892
0.104143 0.111147 0.0316625
0.136904 0.111299 0.0335546
0.169696 0.111635 0.0359197
0.202777 0.11194 0.0386664
0.236042 0.112383 0.0416724
0.269368 0.113039 0.0449073
0.302876 0.11397 0.0485542
0.336263 0.114626 0.0521859
0.36965 0.115557 0.0559243
0.403098 0.116396 0.0598764
0.435996 0.117433 0.0638285
0.468772 0.118547 0.067689
0.501213 0.119921 0.0716716
0.533059 0.121172 0.075639
0.564294 0.122484 0.0795911
0.594888 0.123735 0.0834058
0.624796 0.125139 0.0872206
0.654017 0.126528 0.0909438
0.682109 0.128084 0.0945296
0.709072 0.129458 0.098024
0.734798 0.130724 0.10132
0.75906 0.132082 0.104417
0.781826 0.133379 0.107378
0.803082 0.134859 0.110048
0.822217 0.135866 0.112551
0.839338 0.136919 0.114855
0.853941 0.137667 0.116686
0.86595 0.13843 0.118212
0.875044 0.139101 0.119493
0 0.14374 0.031342
0 0.14374 0.031342
0.0296941 0.143923 0.0317082
0.0675822 0.144183 0.0325322
0.101991 0.144289 0.033753
0.135363 0.14435 0.0354772
0.168582 0.144594 0.0376745
0.201724 0.1449 0.0402838
0.235096 0.145174 0.043122
0.268742 0.14583 0.0463264
0.302266 0.146197 0.0497749
0.335698 0.146914 0.0533455
0.369085 0.147478 0.0570382
0.402487 0.148089 0.0608225
0.435721 0.149126 0.064744
0.468482 0.149874 0.068574
0.500832 0.150866 0.0725261
0.532692 0.151736 0.0763561
0.56376 0.152758 0.0802777
0.594537 0.153811 0.0840772
0.624674 0.155016 0.0878767
0.653773 0.156054 0.0915236
0.681773 0.157015 0.0950332
0.708675 0.158083 0.0985122
0.734417 0.159152 0.101793
0.758831 0.160204 0.104891
0.78172 0.161364 0.107897
0.802792 0.16228 0.110613
0.821958 0.163149 0.113008
0.839109 0.163958 0.115282
0.853788 0.164691 0.117113
0.865782 0.165377 0.118654
0.874846 0.165881 0.119921
0 0.177508 0.0341497
0 0.17763 0.034165
0.0232853 0.177905 0.0344396
0.0625162 0.177813 0.0352331
0.099321 0.177966 0.036286
0.133532 0.177935 0.0378729
0.167117 0.178119 0.0399786
0.200824 0.178637 0.0423896
0.234363 0.17882 0.0450599
0.267933 0.17911 0.0481575
0.301427 0.179538 0.0514534
0.334997 0.179767 0.0548867
0.368444 0.180423 0.0584421
0.402274 0.181247 0.0621958
0.435111 0.181674 0.0659342
0.467903 0.182376 0.069749
0.500267 0.183124 0.0735637
0.532143 0.183703 0.0773785
0.563439 0.184497 0.081178
0.594385 0.185611 0.0849622
0.624277 0.186389 0.0886854
0.653407 0.187213 0.0923323
0.681529 0.187945 0.0957961
0.708446 0.188846 0.0992294
0.734173 0.18967 0.102495
0.758587 0.190753 0.105592
0.781384 0.191546 0.108568
0.802472 0.19237 0.111223
0.821744 0.192996 0.11368
0.838911 0.193576 0.115831
0.853651 0.194415 0.117784
0.865538 0.194781 0.119326
0.874601 0.195117 0.12047
0 0.211734 0.0373846
0 0.211872 0.0373846
0.00598154 0.211994 0.0375982
0.052491 0.211872 0.0382391
0.0955978 0.211917 0.0393072
0.131136 0.211948 0.0407721
0.165454 0.212314 0.0426184
0.199344 0.212512 0.0449226
0.23299 0.21265 0.0474556
0.266819 0.212894 0.0502785
0.300526 0.213291 0.0534218
0.334173 0.213519 0.0567025
0.367987 0.214252 0.0601816
0.401511 0.214466 0.0637675
0.434592 0.214939 0.0674144
0.467399 0.215595 0.0711376
0.499779 0.216052 0.074876
0.53196 0.216861 0.0786603
0.563256 0.217548 0.0823987
0.593912 0.218219 0.0861067
0.62388 0.218784 0.0897078
0.653101 0.219486 0.09337
0.681147 0.220111 0.096788
0.708202 0.221103 0.100191
0.733989 0.221836 0.103456
0.758328 0.222354 0.106538
0.78114 0.223087 0.109361
0.802228 0.223819 0.112047
0.821485 0.224369 0.114458
0.838727 0.225055 0.11667
0.853407 0.225437 0.118563
0.865293 0.225895 0.120104
0.874357 0.226169 0.121172
0 0.246067 0.0408179
0 0.246189 0.0408331
0.000793469 0.246189 0.0410468
0.0455024 0.246189 0.0416419
0.0911421 0.246357 0.0426184
0.128222 0.246525 0.0439002
0.163195 0.246586 0.0456703
0.197436 0.246632 0.0477455
0.23154 0.246876 0.0501564
0.265583 0.24712 0.0528267
0.299596 0.247532 0.0557565
0.333516 0.247837 0.0589151
0.367178 0.248157 0.062211
0.400748 0.248417 0.0656443
0.43389 0.248768 0.0691539
0.466773 0.249271 0.0728313
0.499474 0.249882 0.0765087
0.531334 0.250385 0.0801404
0.562631 0.250919 0.0838331
0.593439 0.251392 0.0874037
0.623407 0.251987 0.0909743
0.652567 0.252445 0.0945754
0.680888 0.253391 0.0979629
0.707927 0.253956 0.101289
0.733593 0.254597 0.104509
0.758007 0.25507 0.10753
0.78085 0.255634 0.110353
0.801923 0.256184 0.113069
0.821302 0.256825 0.115419
0.838346 0.257282 0.117556
0.853132 0.257649 0.119493
0.865003 0.257969 0.12105
0.874037 0.258228 0.122103
0 0.280491 0.0445411
0 0.280613 0.0445563
0.000167849 0.280629 0.0447395
0.038468 0.280858 0.0453346
0.0852522 0.281041 0.0461738
0.124514 0.28098 0.0473335
0.160388 0.281102 0.0489815
0.1953 0.281102 0.0508888
0.22977 0.28127 0.0531319
0.26421 0.281636 0.0556344
0.298466 0.281865 0.0584115
0.33228 0.282124 0.0613565
0.366049 0.282399 0.0645304
0.399786 0.282597 0.0678721
0.433082 0.282933 0.0712444
0.466163 0.283604 0.0748455
0.49865 0.283909 0.0783551
0.530663 0.284337 0.0818799
0.562066 0.284764 0.0854047
0.592828 0.285145 0.0890211
0.623072 0.285893 0.0925917
0.652277 0.286259 0.095964
0.680415 0.286793 0.0993668
0.707469 0.287388 0.102647
0.733211 0.287831 0.10576
0.757488 0.288365 0.108751
0.780484 0.289128 0.111574
0.801602 0.289631 0.114183
0.820859 0.28983 0.116594
0.83801 0.290288 0.118685
0.852644 0.290501 0.120546
0.864729 0.290761 0.122057
0.873838 0.291264 0.123171
0 0.315068 0.0484779
0 0.315068 0.0484779
0 0.315572 0.0487068
0.0271153 0.315633 0.0491798
0.0767987 0.315648 0.049897
0.120089 0.315435 0.0510109
0.157214 0.315587 0.0524605
0.19292 0.315816 0.0542153
0.228 0.316106 0.0563821
0.262455 0.316243 0.0586862
0.296803 0.316335 0.0612955
0.330968 0.316564 0.0641031
0.364874 0.316808 0.0671092
0.398886 0.317082 0.0702983
0.432288 0.317571 0.0736095
0.465293 0.317815 0.076936
0.497887 0.31812 0.0803693
0.5299 0.318532 0.0838331
0.561364 0.318746 0.0873121
0.592294 0.319478 0.0908522
0.622446 0.319921 0.094255
0.651713 0.320272 0.097612
0.679805 0.320653 0.100908
0.706905 0.321126 0.104158
0.732631 0.321492 0.10721
0.757183 0.322255 0.110155
0.779995 0.322713 0.112871
0.801221 0.322942 0.115526
0.820386 0.323339 0.117891
0.837552 0.323705 0.119966
0.852201 0.323842 0.121767
0.864332 0.324361 0.123308
0.873396 0.324468 0.124376
0 0.349828 0.0524605
0 0.350103 0.052491
0 0.350256 0.0526894
0.007187 0.350271 0.0531319
0.0639506 0.350149 0.0538033
0.114397 0.350195 0.0548104
0.15346 0.350347 0.056199
0.190188 0.35053 0.0578775
0.225528 0.350713 0.0598459
0.260502 0.350713 0.0619364
0.295094 0.350881 0.0643931
0.329427 0.35108 0.0670787
0.363714 0.351461 0.0698863
0.397726 0.351705 0.0729839
0.431189 0.35198 0.0761578
0.464271 0.352193 0.0793469
0.496986 0.352453 0.0826276
0.529091 0.352819 0.0860151
0.560693 0.353323 0.0893873
0.591546 0.353689 0.0928206
0.621714 0.35407 0.0961318
0.651026 0.35433 0.0994583
0.679118 0.354742 0.102678
0.706386 0.355306 0.105791
0.732174 0.355703 0.108812
0.756634 0.3561 0.111727
0.779492 0.356481 0.114488
0.800717 0.356725 0.117067
0.819883 0.357061 0.119356
0.83711 0.357565 0.121431
0.851896 0.357885 0.123232
0.863828 0.358083 0.12459
0.872892 0.358083 0.125795
0 0.384756 0.056672
0 0.384756 0.056672
0 0.384894 0.0568704
0.00161746 0.384894 0.0572213
0.0547646 0.384756 0.0578164
0.108064 0.385046 0.058793
0.149142 0.385 0.0600137
0.186679 0.385122 0.0616007
0.222751 0.385214 0.063386
0.258183 0.385229 0.0653849
0.293126 0.385519 0.0677348
0.327977 0.38584 0.0702831
0.362127 0.385901 0.0729534
0.396368 0.38613 0.0758373
0.429999 0.386236 0.0788281
0.463172 0.386542 0.0819562
0.495933 0.386969 0.0851453
0.528237 0.387381 0.0883955
0.559838 0.387564 0.0916304
0.590738 0.38793 0.0949569
0.620798 0.388266 0.0982071
0.650172 0.38851 0.101427
0.67863 0.388983 0.104662
0.705653 0.389334 0.107713
0.731533 0.389731 0.110674
0.755962 0.390082 0.113512
0.778881 0.390326 0.116136
0.799985 0.390631 0.118639
0.81944 0.391165 0.120958
0.836606 0.391318 0.123003
0.851301 0.391577 0.124743
0.863279 0.391684 0.126192
0.872358 0.391897 0.127291
0 0.419196 0.0608988
0 0.419318 0.060914
0 0.419318 0.0610208
0.000289921 0.419318 0.061387
0.0445258 0.419593 0.0620279
0.0994888 0.419471 0.0628672
0.143893 0.419623 0.0639811
0.182528 0.419562 0.0654154
0.219394 0.419684 0.0670787
0.255497 0.419791 0.0690318
0.290913 0.420203 0.0711681
0.32578 0.420218 0.0735637
0.360296 0.420401 0.0761273
0.394598 0.420462 0.0788434
0.42829 0.420691 0.0817578
0.461753 0.420951 0.0847639
0.494728 0.421347 0.0878157
0.527031 0.421592 0.0909438
0.558602 0.421912 0.0940871
0.589578 0.422095 0.0972152
0.619715 0.42237 0.100435
0.649424 0.422858 0.103624
0.677577 0.423194 0.106691
0.704692 0.423499 0.109697
0.730602 0.423667 0.112551
0.755123 0.424079 0.115312
0.778149 0.424506 0.118029
0.799451 0.424918 0.120424
0.818677 0.425055 0.122683
0.835782 0.425299 0.124712
0.850629 0.425406 0.126421
0.862669 0.42565 0.127825
0.871672 0.425864 0.128878
0 0.453376 0.0651255
0 0.453376 0.0651255
0 0.453513 0.0652323
0 0.453864 0.0656596
0.0274052 0.45388 0.0661784
0.0877546 0.453758 0.0669718
0.137789 0.453803 0.0679942
0.178256 0.453758 0.0693675
0.216281 0.454139 0.0709544
0.252796 0.454261 0.0727092
0.288533 0.454246 0.0747539
0.32369 0.454383 0.0770275
0.358267 0.454566 0.0794385
0.392874 0.454597 0.0820325
0.427039 0.4551 0.0848249
0.460472 0.455207 0.0876326
0.493339 0.455451 0.090547
0.525719 0.455695 0.0935988
0.557458 0.455955 0.0966812
0.588663 0.456214 0.0997024
0.618967 0.456596 0.102861
0.648402 0.456794 0.105959
0.676692 0.457115 0.108934
0.703853 0.457389 0.111818
0.729824 0.457542 0.114672
0.754482 0.457969 0.117433
0.777508 0.458442 0.120058
0.798657 0.458579 0.122377
0.81796 0.458839 0.12462
0.835157 0.458946 0.126574
0.849943 0.459098 0.128237
0.862058 0.459525 0.129671
0.871122 0.459724 0.130724
0 0.487327 0.0693675
0 0.487602 0.069398
0 0.487724 0.0695659
0 0.487755 0.0698558
0.00801099 0.487694 0.0703593
0.0740673 0.487709 0.071107
0.130968 0.487602 0.0721141
0.173663 0.487953 0.0734112
0.212497 0.48806 0.0748302
0.249653 0.488136 0.076524
0.28571 0.488106 0.0784009
0.321263 0.488289 0.0805219
0.356268 0.488441 0.0828107
0.391348 0.488731 0.0853285
0.425437 0.48893 0.0879835
0.458839 0.488991 0.0906996
0.491936 0.489235 0.0935073
0.524453 0.489479 0.096437
0.55639 0.489693 0.0994125
0.58761 0.490074 0.102419
0.617945 0.490318 0.10544
0.647395 0.490455 0.108385
0.675776 0.490745 0.111254
0.703014 0.490898 0.114137
0.729122 0.491417 0.11696
0.753628 0.491676 0.1196
0.776593 0.491936 0.122072
0.797894 0.492058 0.124422
0.817243 0.492302 0.126619
0.834485 0.492683 0.128557
0.849256 0.492897 0.13022
0.861341 0.49305 0.131548
0.87042 0.493065 0.13257
0 0.521187 0.0736248
0 0.521187 0.0736248
0 0.521309 0.0738231
0 0.521309 0.0740826
0.00236515 0.521202 0.0745251
0.0634623 0.521279 0.075227
0.123339 0.521431 0.0762036
0.168246 0.521462 0.0773938
0.208148 0.521569 0.0786908
0.246067 0.521538 0.0802777
0.282811 0.521645 0.0820935
0.319036 0.52192 0.0841688
0.354299 0.522194 0.0863508
0.389242 0.52221 0.0887312
0.423499 0.522255 0.0911879
0.457252 0.522438 0.0938277
0.49044 0.522637 0.0965286
0.523278 0.523095 0.0994125
0.555245 0.523201 0.102235
0.586297 0.523445 0.105104
0.616754 0.523705 0.108003
0.646326 0.523827 0.110933
0.674784 0.524071 0.113725
0.702266 0.524468 0.116579
0.728176 0.524712 0.119295
0.752758 0.524971 0.121859
0.775784 0.525078 0.124269
0.79704 0.525322 0.126574
0.816464 0.525704 0.128725
0.833722 0.525795 0.130648
0.848508 0.526024 0.132235
0.860502 0.526238 0.133593
0.869581 0.526162 0.134539
0 0.554192 0.0778515
0 0.554192 0.0778515
0 0.554314 0.0780499
0 0.554253 0.078294
0.000366217 0.554543 0.0787671
0.0515602 0.554559 0.0794537
0.113832 0.554513 0.0802472
0.162112 0.554543 0.0813764
0.203632 0.554635 0.0826581
0.24239 0.554559 0.0841382
0.279942 0.554925 0.085893
0.31632 0.555062 0.0877852
0.351965 0.555062 0.0898299
0.387106 0.555184 0.0920882
0.421592 0.555245 0.0945144
0.455512 0.555428 0.0970321
0.489143 0.555825 0.0996719
0.521675 0.555917 0.102388
0.553719 0.556115 0.105135
0.585016 0.556359 0.107942
0.615473 0.556451 0.110704
0.645212 0.556695 0.113497
0.673732 0.557198 0.116304
0.701137 0.557321 0.119051
0.727199 0.557534 0.121675
0.751781 0.557794 0.124208
0.774838 0.557916 0.126604
0.796323 0.558343 0.128908
0.815579 0.558511 0.130968
0.832868 0.558587 0.132784
0.847669 0.558816 0.134417
0.859724 0.55877 0.135714
0.868803 0.559075 0.136736
0 0.586648 0.0820935
0 0.586648 0.0820935
0 0.586786 0.0822156
0 0.586999 0.0824598
0 0.58703 0.0829023
0.0324254 0.586923 0.0835126
0.100771 0.586999 0.0842451
0.155413 0.58703 0.0852979
0.198688 0.586938 0.0865187
0.238697 0.587289 0.087953
0.276661 0.587381 0.0896315
0.313313 0.587518 0.0914168
0.349294 0.587503 0.0934462
0.384878 0.587655 0.0955673
0.419837 0.587915 0.0978561
0.453941 0.588098 0.100313
0.487297 0.588281 0.102846
0.52015 0.588312 0.105409
0.55227 0.588479 0.108125
0.583673 0.588708 0.110796
0.614435 0.589075 0.113558
0.644083 0.589258 0.116258
0.672648 0.58938 0.118975
0.699977 0.589624 0.121569
0.726085 0.589868 0.124086
0.750774 0.58999 0.126589
0.773922 0.590341 0.129
0.795254 0.59057 0.131197
0.814603 0.590784 0.133211
0.831983 0.590814 0.135012
0.846815 0.590967 0.136645
0.8589 0.591073 0.137942
0.868086 0.591348 0.138903
0 0.618509 0.0861219
0 0.618631 0.0861372
0 0.618891 0.0863355
0 0.618784 0.0865644
0 0.618784 0.0870069
0.0104829 0.61854 0.0875105
0.0858015 0.61883 0.0882277
0.148196 0.618997 0.0892195
0.193652 0.619013 0.0904097
0.234501 0.619043 0.0917678
0.272984 0.619211 0.0932937
0.310277 0.61915 0.0950179
0.346654 0.619318 0.0969863
0.382635 0.619516 0.0990311
0.417548 0.619699 0.101244
0.451881 0.619806 0.103578
0.485527 0.619974 0.105989
0.518471 0.62002 0.108476
0.550759 0.620218 0.111116
0.582483 0.620645 0.11371
0.613077 0.620722 0.116396
0.642817 0.620951 0.119005
0.671443 0.621042 0.12163
0.698817 0.621286 0.124239
0.724971 0.621439 0.126757
0.749844 0.621775 0.129122
0.772915 0.621958 0.131411
0.794263 0.622171 0.133639
0.813611 0.622202 0.135561
0.831006 0.622415 0.137346
0.845975 0.62269 0.138918
0.858045 0.622797 0.1402
0.86714 0.622827 0.141131
0 0.649516 0.0901045
0 0.64976 0.090135
0 0.649882 0.0903334
0 0.64976 0.0905776
0 0.649851 0.0910048
0.00430304 0.649775 0.0914931
0.0747082 0.649973 0.0922255
0.139834 0.650126 0.0931868
0.187747 0.650004 0.0942397
0.229877 0.650111 0.0955215
0.269276 0.650233 0.0969863
0.307103 0.650156 0.0986648
0.34403 0.650568 0.100542
0.380133 0.650492 0.102495
0.415351 0.65069 0.104601
0.449882 0.650782 0.106828
0.483574 0.65095 0.109163
0.51693 0.651255 0.11165
0.549355 0.651408 0.114168
0.58088 0.651576 0.11667
0.611566 0.651667 0.119173
0.641413 0.65185 0.121767
0.670085 0.651972 0.124285
0.697765 0.652338 0.126833
0.723934 0.652552 0.12932
0.748653 0.652674 0.13164
0.771893 0.652873 0.133898
0.793179 0.652964 0.136004
0.812604 0.653162 0.137942
0.830076 0.653513 0.139757
0.844968 0.653574 0.141283
0.857023 0.653651 0.142443
0.866102 0.653681 0.143374
0 0.679973 0.0941176
0 0.679973 0.0941176
0 0.680079 0.094316
0 0.680079 0.0944686
0 0.680095 0.0948196
0.00062562 0.680232 0.0953841
0.0624552 0.68014 0.0960861
0.130114 0.680232 0.0969711
0.181369 0.680308 0.0979782
0.224735 0.680232 0.0992294
0.265141 0.680461 0.100603
0.303746 0.680674 0.102235
0.340963 0.680644 0.10399
0.377493 0.680751 0.105882
0.412818 0.68072 0.107897
0.447486 0.680903 0.110018
0.481727 0.681147 0.112367
0.515038 0.681422 0.114702
0.547524 0.681498 0.117159
0.579232 0.681636 0.119585
0.609979 0.681804 0.122011
0.639933 0.68191 0.124514
0.668879 0.682322 0.127047
0.696422 0.682383 0.129519
0.722576 0.682536 0.131853
0.747387 0.68278 0.134142
0.770596 0.682857 0.13637
0.792065 0.682933 0.138415
0.811627 0.683375 0.140429
0.829007 0.683497 0.142092
0.84387 0.683543 0.143557
0.85597 0.683574 0.144808
0.865263 0.68365 0.145693
0 0.709133 0.0979629
0 0.709133 0.0979629
0 0.709239 0.0981155
0 0.709239 0.0983291
0 0.709407 0.0986648
0 0.709422 0.0991379
0.0471809 0.709316 0.0998093
0.118853 0.709331 0.100603
0.174594 0.709377 0.101579
0.219944 0.709484 0.102815
0.26125 0.709682 0.104143
0.300313 0.709743 0.10573
0.337926 0.709773 0.107378
0.374701 0.709819 0.109209
0.410452 0.70985 0.111116
0.44567 0.710185 0.113283
0.47982 0.710369 0.115465
0.513252 0.710384 0.117693
0.545739 0.710536 0.120073
0.577508 0.710719 0.122438
0.608667 0.710994 0.124926
0.638727 0.711147 0.127306
0.667414 0.711254 0.129763
0.695064 0.711437 0.132113
0.721386 0.711528 0.134478
0.746197 0.711757 0.136645
0.769665 0.712077 0.138903
0.791196 0.712139 0.140917
0.810605 0.712367 0.142763
0.827939 0.712367 0.144472
0.842878 0.712505 0.145876
0.854978 0.712413 0.147082
0.864363 0.712856 0.147967
0 0.737057 0.101656
0 0.737057 0.101656
0 0.737484 0.101762
0 0.737408 0.101961
0 0.737423 0.10222
0 0.737316 0.102678
0.0196689 0.737316 0.103365
0.102968 0.737316 0.104128
0.168017 0.737438 0.105089
0.214908 0.737606 0.106294
0.25713 0.737667 0.107576
0.296803 0.737697 0.109056
0.334768 0.737758 0.110628
0.372229 0.737804 0.112398
0.408362 0.738033 0.114366
0.443473 0.73814 0.116381
0.477806 0.738293 0.118471
0.511269 0.738308 0.120684
0.54403 0.738399 0.122927
0.576089 0.738705 0.125277
0.607217 0.738872 0.127703
0.637278 0.739055 0.130037
0.666133 0.739086 0.132357
0.693812 0.739269 0.134768
0.72018 0.739452 0.137057
0.745205 0.739696 0.139162
0.768521 0.73991 0.14139
0.789944 0.740063 0.143297
0.809522 0.740185 0.145174
0.826947 0.74023 0.146777
0.841871 0.740337 0.148257
0.854032 0.740581 0.149416
0.863325 0.740627 0.15021
0 0.763775 0.105226
0 0.763989 0.105257
0 0.764111 0.105287
0 0.764004 0.105455
0 0.764004 0.105715
0 0.763928 0.106142
0.00910964 0.764035 0.106828
0.0921035 0.764309 0.107637
0.160571 0.764218 0.108568
0.209613 0.764248 0.109606
0.252872 0.764294 0.110872
0.293111 0.764324 0.112291
0.331868 0.764492 0.113848
0.369619 0.76463 0.115572
0.405905 0.764721 0.117418
0.441138 0.764813 0.119371
0.475654 0.764843 0.121386
0.509468 0.765026 0.123568
0.54255 0.765316 0.12578
0.574624 0.765515 0.128054
0.605707 0.765576 0.130358
0.635843 0.765698 0.132647
0.664805 0.765789 0.135012
0.692668 0.766079 0.137316
0.719142 0.766293 0.139498
0.744091 0.766354 0.141649
0.76733 0.766445 0.143694
0.788891 0.766659 0.145663
0.808499 0.766751 0.147463
0.826001 0.76704 0.149096
0.840925 0.766995 0.150546
0.853208 0.767163 0.151659
0.862348 0.767178 0.152453
0 0.789197 0.108537
0 0.789288 0.108553
0 0.789288 0.108583
0 0.789288 0.108751
0 0.789288 0.109026
0 0.789395 0.109499
0.00521859 0.789532 0.110155
0.0823224 0.789487 0.110872
0.152804 0.789532 0.111711
0.204013 0.789532 0.11281
0.248478 0.789578 0.113954
0.28986 0.789837 0.115389
0.328954 0.789883 0.116899
0.366766 0.789853 0.118578
0.403326 0.78999 0.120348
0.439033 0.790097 0.122225
0.473869 0.790234 0.124208
0.507927 0.790463 0.126375
0.540932 0.790585 0.128466
0.572869 0.790646 0.130648
0.604196 0.790753 0.132906
0.634485 0.79086 0.135149
0.6636 0.791119 0.137453
0.691478 0.791348 0.139696
0.717876 0.791501 0.141909
0.74284 0.791501 0.143984
0.766278 0.791699 0.145983
0.787884 0.791913 0.147951
0.807553 0.792096 0.149737
0.825071 0.792279 0.151308
0.839933 0.792233 0.152651
0.852247 0.792248 0.153841
0.861357 0.792447 0.154681
0 0.812985 0.111604
0 0.813077 0.11162
0 0.813077 0.111635
0 0.813077 0.111818
0 0.81326 0.112215
0 0.813169 0.112566
0.000656138 0.813199 0.113207
0.0707713 0.813107 0.113939
0.144289 0.813123 0.114717
0.19852 0.813275 0.115755
0.244541 0.813428 0.11696
0.286442 0.813443 0.118257
0.325978 0.813535 0.119707
0.364202 0.81355 0.12137
0.401068 0.813611 0.12311
0.436896 0.813794 0.124971
0.472129 0.813947 0.12697
0.506172 0.81413 0.128985
0.539193 0.814206 0.131075
0.571405 0.814282 0.133181
0.602792 0.814435 0.135409
0.633295 0.814649 0.137621
0.662318 0.814817 0.139864
0.690166 0.814939 0.142
0.71667 0.81503 0.144167
0.741726 0.815213 0.146242
0.765194 0.815396 0.148257
0.787015 0.815686 0.150103
0.806638 0.815641 0.151843
0.824002 0.815854 0.153368
0.838941 0.815808 0.154665
0.851255 0.815839 0.155901
0.860395 0.816114 0.156725
0 0.834882 0.114427
0 0.834882 0.114427
0 0.834958 0.114565
0 0.835126 0.114824
0 0.835126 0.115099
0 0.834958 0.115511
0 0.834958 0.11603
