Camo Studio.app/Contents/Resources/CamoContent_CamoContent.bundle/Contents/Resources/COOL.cube
TITLE "Generated by Resolve"
LUT_3D_SIZE 5
0.0212406 0.0227054 0.0258793
0.236164 0.0323644 0.0395972
0.500801 0.0554818 0.0706493
0.734447 0.0783703 0.100572
0.874922 0.0924392 0.118807
0 0.246067 0.0408179
0.23154 0.246876 0.0501564
0.499474 0.249882 0.0765087
0.733593 0.254597 0.104509
0.874037 0.258228 0.122103
0 0.521187 0.0736248
0.208148 0.521569 0.0786908
0.49044 0.522637 0.0965286
0.728176 0.524712 0.119295
0.869581 0.526162 0.134539
0 0.763775 0.105226
0.160571 0.764218 0.108568
0.475654 0.764843 0.121386
0.719142 0.766293 0.139498
0.862348 0.767178 0.152453
0 0.909606 0.124407
0.0977493 0.909957 0.127184
0.46334 0.910597 0.138003
0.711421 0.911559 0.153918
0.856245 0.912367 0.165408
0 0.00122072 0.277623
0.234424 0.0217746 0.278035
0.500084 0.0508125 0.282521
0.734081 0.0753185 0.28957
0.874617 0.0899062 0.295155
0 0.245274 0.278614
0.229938 0.246265 0.279988
0.49865 0.24889 0.28426
0.733288 0.253986 0.2916
0.873701 0.257633 0.297047
0 0.520699 0.283574
0.206271 0.521248 0.284886
0.48986 0.522591 0.289204
0.727764 0.524559 0.296239
0.869322 0.526009 0.30161
0 0.763699 0.291295
0.1579 0.763989 0.292805
0.475074 0.764752 0.296864
0.718578 0.765972 0.30338
0.861952 0.767086 0.308919
0 0.909636 0.297551
0.0940566 0.909712 0.298756
0.462654 0.910445 0.302968
0.711025 0.911376 0.309453
0.855863 0.9122 0.314794
0 0 0.587564
0.226932 0 0.587549
0.497063 0.0163272 0.589364
0.732235 0.0606394 0.592477
0.873075 0.0785992 0.594781
0 0.242069 0.588067
0.222309 0.243046 0.588937
0.495689 0.246204 0.5906
0.73138 0.250675 0.593713
0.872236 0.254566 0.595972
0 0.519478 0.590051
0.197345 0.520119 0.590784
0.486809 0.521065 0.592599
0.725765 0.52311 0.595529
0.86775 0.52488 0.598093
0 0.762921 0.593545
0.144045 0.763317 0.594064
0.472023 0.76408 0.596017
0.716655 0.765209 0.598779
0.860502 0.766323 0.601358
0 0.908965 0.596139
0.0776226 0.909163 0.596735
0.459373 0.909789 0.598672
0.709026 0.91078 0.601465
0.854337 0.91162 0.603677
0 0 0.860853
0.214023 0 0.86157
0.49218 0 0.862455
0.729061 0.00831617 0.864332
0.870604 0.0539406 0.865965
0 0.236728 0.861799
0.208606 0.237766 0.862074
0.490867 0.240665 0.863462
0.728206 0.245563 0.865187
0.869764 0.249836 0.866835
0 0.517449 0.863035
0.181384 0.517769 0.863432
0.481865 0.519234 0.864713
0.722683 0.521065 0.866468
0.865293 0.522774 0.868116
0 0.761746 0.865293
0.113268 0.761868 0.865522
0.466835 0.762737 0.866789
0.713573 0.763897 0.86865
0.857832 0.76492 0.870054
0 0.907927 0.866819
0.0382849 0.90808 0.867323
0.453834 0.908705 0.86836
0.70602 0.909712 0.870359
0.851728 0.910491 0.871778
0 0 1
0.202228 0 1
0.488167 0 1
0.726528 0 1
0.868574 0.000793469 1
0 0.232425 1
0.196796 0.23328 1
0.486748 0.23653 1
0.725643 0.241428 1
0.867735 0.245411 1
0 0.51574 1
0.167071 0.516213 1
0.477607 0.51751 1
0.720211 0.519478 1
0.863218 0.520806 1
0 0.760357 1
0.0934005 0.760906 1
0.462364 0.761532 1
0.710979 0.76286 1
0.855756 0.763775 1
0 0.90695 1
0.0133669 0.907271 1
0.449317 0.907713 1
0.703243 0.908949 1
0.849714 0.909743 1
