Camo Studio.app/Contents/Resources/CamoContent_CamoContent.bundle/Contents/Resources/COOL.cube
TITLE "Generated by Resolve"
LUT_3D_SIZE 9
0.0212406 0.0227054 0.0258793
0.106325 0.0247196 0.0287785
0.236164 0.0323644 0.0395972
0.369345 0.0432746 0.0544442
0.500801 0.0554818 0.0706493
0.624323 0.0674754 0.0862593
0.734447 0.0783703 0.100572
0.821958 0.0870375 0.112047
0.874922 0.0924392 0.118807
0.002121 0.110338 0.0291142
0.104143 0.111147 0.0316625
0.236042 0.112383 0.0416724
0.36965 0.115557 0.0559243
0.501213 0.119921 0.0716716
0.624796 0.125139 0.0872206
0.734798 0.130724 0.10132
0.822217 0.135866 0.112551
0.875044 0.139101 0.119493
0 0.246067 0.0408179
0.0911421 0.246357 0.0426184
0.23154 0.246876 0.0501564
0.367178 0.248157 0.062211
0.499474 0.249882 0.0765087
0.623407 0.251987 0.0909743
0.733593 0.254597 0.104509
0.821302 0.256825 0.115419
0.874037 0.258228 0.122103
0 0.384756 0.056672
0.0547646 0.384756 0.0578164
0.222751 0.385214 0.063386
0.362127 0.385901 0.0729534
0.495933 0.386969 0.0851453
0.620798 0.388266 0.0982071
0.731533 0.389731 0.110674
0.81944 0.391165 0.120958
0.872358 0.391897 0.127291
0 0.521187 0.0736248
0.00236515 0.521202 0.0745251
0.208148 0.521569 0.0786908
0.354299 0.522194 0.0863508
0.49044 0.522637 0.0965286
0.616754 0.523705 0.108003
0.728176 0.524712 0.119295
0.816464 0.525704 0.128725
0.869581 0.526162 0.134539
0 0.649516 0.0901045
0 0.649851 0.0910048
0.187747 0.650004 0.0942397
0.34403 0.650568 0.100542
0.483574 0.65095 0.109163
0.611566 0.651667 0.119173
0.723934 0.652552 0.12932
0.812604 0.653162 0.137942
0.866102 0.653681 0.143374
0 0.763775 0.105226
0 0.764004 0.105715
0.160571 0.764218 0.108568
0.331868 0.764492 0.113848
0.475654 0.764843 0.121386
0.605707 0.765576 0.130358
0.719142 0.766293 0.139498
0.808499 0.766751 0.147463
0.862348 0.767178 0.152453
0 0.854749 0.117174
0 0.854902 0.117662
0.126299 0.855207 0.120089
0.320241 0.855375 0.124819
0.468345 0.855817 0.131685
0.600183 0.856382 0.139818
0.714809 0.85684 0.148287
0.804593 0.857328 0.155673
0.85864 0.857801 0.160494
0 0.909606 0.124407
0 0.909895 0.124849
0.0977493 0.909957 0.127184
0.312093 0.91017 0.131609
0.46334 0.910597 0.138003
0.596353 0.911055 0.145693
0.711421 0.911559 0.153918
0.801877 0.912093 0.160998
0.856245 0.912367 0.165408
0.0144961 0.020325 0.124697
0.105409 0.0226596 0.1252
0.23592 0.0308843 0.126818
0.369299 0.042298 0.131548
0.500786 0.0546578 0.138064
0.624399 0.0668193 0.1458
0.734401 0.0777752 0.153918
0.822003 0.0865797 0.161181
0.874861 0.0919966 0.165545
0 0.110201 0.125246
0.103212 0.110628 0.125872
0.235798 0.1122 0.128191
0.369574 0.115343 0.13286
0.501167 0.119707 0.139315
0.624826 0.124956 0.146975
0.734737 0.130587 0.155001
0.822263 0.135698 0.162264
0.874891 0.138705 0.166583
0 0.24596 0.127855
0.0901045 0.246418 0.128313
0.231418 0.246845 0.130541
0.366979 0.24828 0.135103
0.499123 0.249699 0.141146
0.623316 0.251987 0.148943
0.733623 0.254597 0.157
0.821225 0.256855 0.16408
0.874052 0.258137 0.168383
0 0.384726 0.132921
0.054078 0.384726 0.133364
0.222599 0.385275 0.135576
0.362081 0.385992 0.139879
0.495766 0.38674 0.145708
0.620859 0.388205 0.153216
0.731548 0.389685 0.160998
0.81944 0.39115 0.167834
0.872343 0.391836 0.172045
0 0.52108 0.139879
0.00190738 0.521416 0.140444
0.20795 0.52166 0.142535
0.354269 0.522103 0.146609
0.490471 0.522835 0.152102
0.616831 0.523659 0.159213
0.728099 0.524681 0.166613
0.816342 0.52546 0.172976
0.869596 0.526268 0.177203
0 0.649516 0.148272
0 0.649882 0.14902
0.187503 0.650004 0.150881
0.343816 0.650492 0.154513
0.483528 0.651057 0.159899
0.611582 0.651743 0.166552
0.723949 0.652781 0.173648
0.812619 0.653147 0.179644
0.866133 0.653788 0.183734
0 0.763775 0.157
0 0.764202 0.157778
0.160266 0.764416 0.159564
0.331685 0.764477 0.162814
0.475746 0.764935 0.167941
0.605646 0.765484 0.174258
0.719051 0.766369 0.180804
0.808545 0.766705 0.186725
0.862348 0.767178 0.190646
0 0.854826 0.164981
0 0.854978 0.165576
0.125826 0.855268 0.1673
0.320165 0.855375 0.170367
0.46836 0.855817 0.175174
0.600244 0.856336 0.181277
0.714488 0.856886 0.18732
0.804639 0.857404 0.193133
0.858671 0.857725 0.196857
0 0.909636 0.169879
0 0.909758 0.170474
0.0972305 0.909926 0.171923
0.31191 0.91017 0.175036
0.463142 0.910567 0.179828
0.596307 0.911131 0.185489
0.71136 0.911559 0.191562
0.801953 0.912093 0.197162
0.85626 0.912398 0.200809
0 0.00122072 0.277623
0.100786 0.00299077 0.277058
0.234424 0.0217746 0.278035
0.368475 0.0367285 0.279927
0.500084 0.0508125 0.282521
0.623957 0.0637675 0.285924
0.734081 0.0753185 0.28957
0.821714 0.0844129 0.293126
0.874617 0.0899062 0.295155
0 0.108537 0.277958
0.0990311 0.10898 0.27808
0.234333 0.110445 0.279179
0.36878 0.113619 0.281071
0.500374 0.118013 0.283436
0.624338 0.123415 0.286961
0.734462 0.129259 0.290654
0.821881 0.134401 0.294057
0.874601 0.13756 0.296193
0 0.245274 0.278614
0.0849165 0.24564 0.279072
0.229938 0.246265 0.279988
0.366262 0.247395 0.28191
0.49865 0.24889 0.28426
0.622889 0.251392 0.287739
0.733288 0.253986 0.2916
0.820783 0.255985 0.294713
0.873701 0.257633 0.297047
0 0.384131 0.280568
0.0488899 0.384588 0.281193
0.220981 0.385046 0.282109
0.361212 0.385473 0.284001
0.495186 0.386511 0.28632
0.620386 0.387976 0.289799
0.731167 0.389288 0.293446
0.818921 0.390692 0.296666
0.871962 0.391699 0.299077
0 0.520699 0.283574
0.00109865 0.521004 0.284016
0.206271 0.521248 0.284886
0.353109 0.521614 0.286473
0.48986 0.522591 0.289204
0.616342 0.523491 0.2925
0.727764 0.524559 0.296239
0.816068 0.5252 0.299443
0.869322 0.526009 0.30161
0 0.649424 0.287236
0 0.649607 0.287861
0.18555 0.649775 0.288762
0.342702 0.650309 0.290272
0.482933 0.650828 0.292836
0.611124 0.651438 0.296223
0.723461 0.652308 0.299779
0.812345 0.653056 0.302922
0.865873 0.653559 0.305257
0 0.763699 0.291295
0 0.763989 0.291783
0.1579 0.763989 0.292805
0.330739 0.764309 0.294286
0.475074 0.764752 0.296864
0.605219 0.765454 0.30016
0.718578 0.765972 0.30338
0.808148 0.766629 0.306798
0.861952 0.767086 0.308919
0 0.854734 0.295262
0 0.854948 0.29572
0.120943 0.854902 0.296529
0.319127 0.855222 0.298192
0.467735 0.85568 0.300649
0.599786 0.85626 0.303929
0.714183 0.856565 0.307103
0.804303 0.857313 0.310384
0.858381 0.857664 0.31249
0 0.909636 0.297551
0 0.909712 0.298177
0.0940566 0.909712 0.298756
0.311055 0.910033 0.300481
0.462654 0.910445 0.302968
0.595895 0.910918 0.306035
0.711025 0.911376 0.309453
0.801556 0.91191 0.312596
0.855863 0.9122 0.314794
0 0 0.433738
0.0918593 0 0.433158
0.231525 0 0.433814
0.366751 0.01944 0.434852
0.498787 0.0414893 0.436347
0.622995 0.057084 0.438376
0.733349 0.0699168 0.440681
0.820981 0.0797589 0.442786
0.873945 0.0856489 0.443961
0 0.105043 0.433936
0.0898299 0.105486 0.434211
0.231388 0.107088 0.434867
0.367056 0.110475 0.43592
0.499199 0.114977 0.437324
0.623453 0.120592 0.43946
0.73373 0.126558 0.441718
0.82121 0.131762 0.44358
0.874037 0.13489 0.444999
0 0.244022 0.434165
0.0709544 0.244373 0.434775
0.226886 0.245014 0.435294
0.364385 0.246143 0.436316
0.497475 0.247776 0.437766
0.622156 0.250156 0.439902
0.73254 0.252659 0.442115
0.820188 0.254963 0.444099
0.873167 0.256565 0.445563
0 0.383383 0.435523
0.036408 0.383856 0.436072
0.217853 0.38407 0.436576
0.35935 0.384741 0.437491
0.494102 0.385779 0.439048
0.619593 0.387243 0.441199
0.730312 0.388586 0.443259
0.818372 0.389944 0.445319
0.871427 0.39086 0.446662
0 0.520241 0.437232
0.000213626 0.5205 0.437705
0.202914 0.520882 0.438193
0.351308 0.52137 0.439078
0.488624 0.522087 0.440787
0.615396 0.523003 0.442741
0.72694 0.523796 0.444862
0.815381 0.524987 0.446998
0.868711 0.525658 0.448325
0 0.649104 0.43949
0 0.649348 0.440024
0.181491 0.649653 0.440543
0.341009 0.649897 0.441413
0.481834 0.650446 0.442985
0.610269 0.651392 0.445136
0.722622 0.651957 0.446983
0.811734 0.652674 0.449195
0.865248 0.653132 0.450706
0 0.763409 0.441932
0 0.763516 0.442344
0.152331 0.763714 0.442695
0.328939 0.764096 0.443885
0.473976 0.764569 0.445411
0.604257 0.765255 0.447517
0.717815 0.765774 0.449378
0.807462 0.766354 0.451575
0.861357 0.766796 0.452873
0 0.854383 0.444389
0 0.854688 0.444724
0.110796 0.854658 0.445106
0.317113 0.854978 0.446143
0.466438 0.855421 0.447852
0.59881 0.856062 0.449699
0.713436 0.856367 0.451789
0.803616 0.856962 0.45391
0.857725 0.857481 0.455238
0 0.909392 0.445823
0 0.909499 0.446265
0.0877852 0.909483 0.446479
0.308904 0.909819 0.447639
0.461357 0.91014 0.449149
0.594812 0.910597 0.45095
0.710231 0.911162 0.453162
0.800992 0.91162 0.455329
0.855329 0.911955 0.456626
0 0 0.587564
0.074342 0 0.587259
0.226932 0 0.587549
0.364294 0 0.588434
0.497063 0.0163272 0.589364
0.621668 0.0445106 0.590799
0.732235 0.0606394 0.592477
0.819944 0.0720226 0.593774
0.873075 0.0785992 0.594781
0 0.0992142 0.587839
0.0697337 0.0999008 0.588144
0.226795 0.101793 0.588556
0.364416 0.105196 0.589426
0.497551 0.110018 0.590356
0.622095 0.115938 0.591745
0.73257 0.122225 0.593469
0.820157 0.127382 0.594751
0.873075 0.131136 0.595697
0 0.242069 0.588067
0.0532082 0.242603 0.588434
0.222309 0.243046 0.588937
0.361639 0.243977 0.589517
0.495689 0.246204 0.5906
0.620752 0.248447 0.592157
0.73138 0.250675 0.593713
0.819211 0.253254 0.59498
0.872236 0.254566 0.595972
0 0.382254 0.589029
0.0074464 0.382635 0.58938
0.212879 0.383078 0.589883
0.356634 0.383627 0.590433
0.492271 0.384817 0.591546
0.618204 0.38613 0.593072
0.729213 0.387472 0.594476
0.81738 0.388861 0.595926
0.870497 0.389899 0.596887
0 0.519478 0.590051
0 0.51989 0.5906
0.197345 0.520119 0.590784
0.348547 0.52047 0.591501
0.486809 0.521065 0.592599
0.614038 0.522087 0.594141
0.725765 0.52311 0.595529
0.814374 0.524224 0.597009
0.86775 0.52488 0.598093
0 0.648508 0.591775
0 0.648753 0.592157
0.175021 0.648814 0.592325
0.33814 0.649439 0.593057
0.479973 0.649729 0.594308
0.608789 0.650584 0.595682
0.721492 0.651347 0.597055
0.810742 0.65211 0.598688
0.864363 0.652598 0.599634
0 0.762921 0.593545
0 0.763149 0.593851
0.144045 0.763317 0.594064
0.325978 0.763607 0.594781
0.472023 0.76408 0.596017
0.602716 0.76466 0.597101
0.716655 0.765209 0.598779
0.806546 0.765927 0.600351
0.860502 0.766323 0.601358
0 0.854047 0.595224
0 0.854353 0.595575
0.10222 0.854276 0.595682
0.314168 0.854627 0.596551
0.464607 0.854978 0.597757
0.597147 0.855406 0.59884
0.712215 0.856046 0.600519
0.802594 0.85655 0.602075
0.856764 0.856794 0.602762
0 0.908965 0.596139
0 0.90898 0.596185
0.0776226 0.909163 0.596735
0.305653 0.909407 0.597604
0.459373 0.909789 0.598672
0.593347 0.910185 0.599893
0.709026 0.91078 0.601465
0.8 0.911223 0.602975
0.854337 0.91162 0.603677
0 0 0.731868
0.049836 0 0.732143
0.220874 0 0.732555
0.360678 0 0.733059
0.494789 0 0.733852
0.620005 0.0125277 0.735088
0.73077 0.0453193 0.736248
0.818692 0.0603189 0.73727
0.8719 0.0683604 0.738048
0 0.0910964 0.732677
0.0480659 0.0919051 0.733043
0.220706 0.0940719 0.733501
0.360922 0.097734 0.733883
0.495171 0.103197 0.734737
0.620417 0.109697 0.735927
0.730922 0.11603 0.736889
0.818936 0.121965 0.73814
0.871977 0.12575 0.738857
0 0.239551 0.733104
0.0260166 0.240116 0.733394
0.216083 0.240696 0.733654
0.358251 0.241764 0.734051
0.493324 0.24358 0.734905
0.618982 0.246006 0.736126
0.729854 0.248295 0.737163
0.817975 0.250858 0.738277
0.871061 0.252293 0.739178
0 0.380987 0.733623
0.000946059 0.381292 0.734112
0.206287 0.381659 0.734386
0.353185 0.382193 0.734829
0.489937 0.383536 0.735653
0.616419 0.384878 0.736858
0.727749 0.386099 0.737789
0.816129 0.387579 0.739055
0.869322 0.388525 0.73994
0 0.518624 0.7346
0 0.518883 0.73492
0.189914 0.518868 0.735058
0.345159 0.519356 0.735607
0.48455 0.520348 0.736599
0.612253 0.521263 0.737667
0.7243 0.522194 0.738735
0.813123 0.523232 0.739956
0.866575 0.523888 0.740703
0 0.647745 0.735775
0 0.648112 0.736233
0.166506 0.647929 0.736248
0.334493 0.648447 0.736965
0.477516 0.649104 0.737774
0.60676 0.649821 0.738735
0.720119 0.650492 0.739895
0.809415 0.651362 0.741146
0.863111 0.651743 0.741863
0 0.762264 0.737133
0 0.762463 0.737408
0.132158 0.762676 0.737606
0.322042 0.762982 0.738262
0.469566 0.763439 0.739086
0.60087 0.764035 0.740047
0.715175 0.764569 0.741192
0.80528 0.765301 0.742473
0.85922 0.765576 0.743099
0 0.853529 0.738491
0 0.85362 0.738659
0.0912337 0.853773 0.738933
0.310079 0.854017 0.739666
0.461997 0.854429 0.740337
0.595392 0.854795 0.741405
0.710719 0.855406 0.74258
0.801389 0.856107 0.743877
0.855604 0.856336 0.744289
0 0.908476 0.739315
0 0.908492 0.73933
0.0635843 0.908736 0.739666
0.301518 0.908949 0.740322
0.456519 0.909224 0.740993
0.591516 0.909667 0.742123
0.707622 0.910277 0.743374
0.798672 0.910765 0.744549
0.853132 0.911025 0.745083
0 0 0.860853
0.0117647 0 0.861234
0.214023 0 0.86157
0.356832 0 0.861784
0.49218 0 0.862455
0.618006 0 0.863432
0.729061 0.00831617 0.864332
0.817319 0.0428321 0.865232
0.870604 0.0539406 0.865965
0 0.0802472 0.861585
0.00743114 0.0814221 0.861936
0.213596 0.0839246 0.862058
0.357107 0.0885939 0.862516
0.492607 0.0945754 0.863218
0.618418 0.101946 0.864179
0.72932 0.109041 0.864912
0.817563 0.11548 0.866011
0.870619 0.119371 0.866682
0 0.236728 0.861799
0.00285344 0.237293 0.862074
0.208606 0.237766 0.862074
0.354376 0.238987 0.862638
0.490867 0.240665 0.863462
0.61706 0.243275 0.864363
0.728206 0.245563 0.865187
0.816526 0.247974 0.866255
0.869764 0.249836 0.866835
0 0.379324 0.862409
0 0.379568 0.862669
0.198505 0.379934 0.862669
0.349264 0.380606 0.863264
0.487312 0.381811 0.864073
0.614191 0.382727 0.864729
0.726101 0.384482 0.865797
0.814664 0.38587 0.866957
0.868025 0.386908 0.867445
0 0.517449 0.863035
0 0.517662 0.863462
0.181384 0.517769 0.863432
0.341131 0.518242 0.864027
0.481865 0.519234 0.864713
0.610117 0.520012 0.865522
0.722683 0.521065 0.866468
0.811795 0.522148 0.867521
0.865293 0.522774 0.868116
0 0.647013 0.864164
0 0.647013 0.864454
0.156146 0.64712 0.864424
0.330282 0.6477 0.865019
0.474815 0.648386 0.865797
0.604822 0.648981 0.866484
0.718456 0.649882 0.867567
0.808042 0.650507 0.868681
0.861799 0.650721 0.868986
0 0.761746 0.865293
0 0.761852 0.865309
0.113268 0.761868 0.865522
0.317693 0.76231 0.866117
0.466835 0.762737 0.866789
0.59884 0.763226 0.867536
0.713573 0.763897 0.86865
0.80383 0.764492 0.869581
0.857832 0.76492 0.870054
0 0.852934 0.8663
0 0.853025 0.866423
0.0769665 0.853193 0.866667
0.305486 0.853529 0.867262
0.459144 0.853712 0.867796
0.593301 0.854215 0.868681
0.709072 0.854902 0.869657
0.799847 0.855436 0.870832
0.854276 0.855695 0.871199
0 0.907927 0.866819
0 0.907973 0.867033
0.0382849 0.90808 0.867323
0.29691 0.908354 0.867811
0.453834 0.908705 0.86836
0.58941 0.909194 0.869245
0.70602 0.909712 0.870359
0.797162 0.910185 0.871107
0.851728 0.910491 0.871778
0 0 0.963455
0.00230411 0 0.963745
0.207065 0 0.963882
0.353201 0 0.964324
0.489815 0 0.96495
0.616159 0 0.965805
0.72755 0 0.966445
0.815915 0.00349432 0.96733
0.869337 0.0340581 0.968078
0 0.064622 0.964141
0.00138857 0.065568 0.964446
0.206821 0.0684672 0.964431
0.353521 0.0776379 0.964874
0.49015 0.085481 0.96553
0.61651 0.0938277 0.966308
0.727901 0.102083 0.967102
0.816266 0.108873 0.968002
0.869368 0.112963 0.968612
0 0.234226 0.964263
0 0.234592 0.964569
0.201526 0.234958 0.964523
0.350912 0.236332 0.965026
0.488396 0.238346 0.965728
0.615 0.240665 0.96643
0.72668 0.243046 0.967254
0.815305 0.245823 0.9682
0.868513 0.24715 0.968643
0 0.37789 0.964797
0 0.378103 0.96495
0.190997 0.378408 0.965072
0.345724 0.379385 0.96556
0.484962 0.380301 0.966278
0.612329 0.381506 0.966857
0.724575 0.383017 0.967788
0.813443 0.384405 0.968688
0.866743 0.385306 0.969039
0 0.516411 0.965408
0 0.51664 0.965423
0.173068 0.516732 0.965743
0.337285 0.517449 0.966262
0.479362 0.518212 0.966842
0.608209 0.519112 0.967514
0.721233 0.519982 0.968368
0.810452 0.521096 0.969253
0.863996 0.521553 0.969665
0 0.64622 0.966369
0 0.64625 0.966384
0.145296 0.646571 0.966613
0.326421 0.646922 0.967071
0.47216 0.647364 0.967514
0.602914 0.647929 0.968368
0.71693 0.648997 0.969329
0.806699 0.649912 0.970214
0.860533 0.65005 0.970611
0 0.761059 0.9673
0 0.761074 0.967391
0.101061 0.761257 0.96759
0.31371 0.761547 0.968032
0.463951 0.762005 0.96849
0.596933 0.762554 0.969345
0.712047 0.763241 0.97023
0.802441 0.763897 0.971099
0.856565 0.764248 0.971527
0 0.852399 0.968185
0 0.852491 0.968307
0.0617838 0.852644 0.968521
0.301152 0.852811 0.969039
0.456382 0.853162 0.969421
0.591409 0.853742 0.970336
0.707546 0.854276 0.971267
0.798444 0.854734 0.971862
0.85301 0.855222 0.972488
0 0.907393 0.968582
0 0.9075 0.968917
0.0156558 0.907546 0.969024
0.29221 0.90782 0.969528
0.451133 0.908125 0.970031
0.587579 0.90866 0.970855
0.704356 0.909194 0.97174
0.795697 0.909697 0.972534
0.850477 0.910018 0.973068
0 0 1
0 0 1
0.202228 0 1
0.350942 0 1
0.488167 0 1
0.614847 0 1
0.726528 0 1
0.815091 0 1
0.868574 0.000793469 1
0 0.0597543 1
0 0.0603952 1
0.202045 0.0618448 1
0.351186 0.0653849 1
0.48867 0.0780652 1
0.615106 0.0875868 1
0.726879 0.0964828 1
0.815335 0.104036 1
0.868574 0.108415 1
0 0.232425 1
0 0.232746 1
0.196796 0.23328 1
0.348394 0.234684 1
0.486748 0.23653 1
0.613809 0.238834 1
0.725643 0.241428 1
0.814359 0.243931 1
0.867735 0.245411 1
0 0.376913 1
0 0.376928 1
0.185763 0.377371 1
0.343175 0.378378 1
0.483207 0.379263 1
0.611215 0.38056 1
0.723537 0.381826 1
0.812482 0.383413 1
0.865873 0.38436 1
0 0.51574 1
0 0.516075 1
0.167071 0.516213 1
0.334722 0.516762 1
0.477607 0.51751 1
0.606958 0.518456 1
0.720211 0.519478 1
0.809445 0.520439 1
0.863218 0.520806 1
0 0.645579 1
0 0.645838 1
0.13724 0.646036 1
0.323781 0.646479 1
0.47039 0.646723 1
0.60174 0.647517 1
0.715908 0.648356 1
0.805722 0.649027 1
0.859754 0.649409 1
0 0.760357 1
0 0.760678 1
0.0934005 0.760906 1
0.310872 0.761196 1
0.462364 0.761532 1
0.595651 0.762234 1
0.710979 0.76286 1
0.801404 0.763455 1
0.855756 0.763775 1
0 0.851789 1
0 0.852125 1
0.0473335 0.852247 1
0.297963 0.852415 1
0.454765 0.852705 1
0.590082 0.8533 1
0.706493 0.854032 1
0.797482 0.854398 1
0.852216 0.854902 1
0 0.90695 1
0 0.907042 1
0.0133669 0.907271 1
0.28893 0.907469 1
0.449317 0.907713 1
0.586221 0.908293 1
0.703243 0.908949 1
0.794858 0.909361 1
0.849714 0.909743 1
