Camo Studio.app/Contents/Resources/CamoContent_CamoContent.bundle/Contents/Resources/DEUTERANOMALY.cube
TITLE "Generated by Resolve"
LUT_3D_SIZE 5
0 0 0
0.192157 0.076463 0
0.384314 0.152941 0
0.576471 0.228428 0
0.768627 0.305882 0
0.169604 0.219608 0.0343175
0.284306 0.238239 0.0235294
0.439216 0.28481 0
0.612985 0.347066 0
0.795102 0.416663 0
0.341176 0.439216 0.0686351
0.443137 0.447059 0.0647135
0.569604 0.472541 0.0480354
0.717159 0.514702 0
0.878431 0.568627 0
0.512749 0.658824 0.102937
0.609552 0.663722 0.101961
0.724514 0.680888 0.0911727
0.855879 0.710781 0.0715648
0.997055 0.749996 0.0382391
0.635294 0.890196 0.356863
0.727459 0.894118 0.371572
0.819608 0.909804 0.417639
0.907835 0.937255 0.492149
1 0.976471 0.584314
0 0.0500038 0.173526
0.145342 0.0921645 0.242161
0.369604 0.158816 0.238239
0.569604 0.232349 0.228672
0.765682 0.305882 0.213733
0.146075 0.229664 0.253925
0.26569 0.24535 0.250004
0.427573 0.289219 0.242161
0.607233 0.350973 0.233707
0.792157 0.417655 0.217639
0.331868 0.443137 0.26421
0.433341 0.45098 0.261769
0.561273 0.476478 0.255146
0.711269 0.518624 0.245594
0.87451 0.570596 0.230396
0.505882 0.662745 0.278431
0.604349 0.666667 0.277699
0.718746 0.68394 0.271321
0.849012 0.712993 0.262562
0.994125 0.752941 0.256367
0.635294 0.890196 0.4598
0.727459 0.894118 0.472297
0.819608 0.909804 0.517647
0.907835 0.938231 0.588235
1 0.976471 0.676463
0 0.100008 0.347051
0.0921645 0.126467 0.392157
0.291173 0.183337 0.480385
0.531365 0.248524 0.477943
0.741176 0.317647 0.472557
0 0.25687 0.4701
0.13959 0.270588 0.494362
0.373526 0.308827 0.488975
0.572549 0.364828 0.484321
0.769604 0.428916 0.476478
0.291173 0.458824 0.507836
0.395346 0.466178 0.507836
0.529412 0.489219 0.502449
0.685542 0.529412 0.495583
0.854902 0.579416 0.486275
0.481865 0.671077 0.518135
0.58027 0.676463 0.515679
0.696574 0.692409 0.511772
0.831006 0.720104 0.507103
0.979416 0.760296 0.497063
0.635294 0.894118 0.590188
0.727459 0.898039 0.600977
0.819608 0.913725 0.637263
0.907835 0.942153 0.699016
1 0.980392 0.780392
0 0.149996 0.520592
0.0921645 0.165682 0.550988
0.180392 0.21471 0.641672
0.436515 0.275486 0.722545
0.688228 0.338231 0.718624
0 0.287984 0.607843
0.0921645 0.301595 0.630396
0.180392 0.339467 0.707713
0.495094 0.38854 0.726467
0.719615 0.44828 0.722545
0.196567 0.48333 0.753918
0.308095 0.48983 0.753429
0.461769 0.511269 0.746807
0.633463 0.548409 0.742031
0.81471 0.595102 0.73431
0.43505 0.687251 0.762753
0.53431 0.691722 0.761761
0.65539 0.708339 0.757839
0.793317 0.73431 0.753918
0.947051 0.772549 0.746075
0.630396 0.899016 0.773526
0.726467 0.902693 0.771817
0.819608 0.919615 0.787747
0.907835 0.949264 0.827451
1 0.988235 0.888243
0 0.2 0.694118
0.0921645 0.210788 0.71667
0.180392 0.249012 0.784314
0.272541 0.306859 0.893141
0.580392 0.364706 0.960784
0 0.326467 0.758816
0.0921645 0.337987 0.777447
0.180392 0.371572 0.839216
0.272541 0.419364 0.941176
0.626474 0.475486 0.967651
0 0.513726 0.939223
0.0921645 0.519112 0.954406
0.279408 0.5402 0.990188
0.53579 0.573526 0.984314
0.747051 0.617655 0.980392
0.361761 0.709804 1
0.461769 0.713726 1
0.58677 0.729412 1
0.733089 0.753918 1
0.897063 0.79118 0.992157
0.576471 0.921569 1
0.676463 0.924514 1
0.784314 0.935286 1
0.907835 0.956863 1
1 1 1
