Camo Studio.app/Contents/Resources/CamoContent_CamoContent.bundle/Contents/Resources/DEUTERANOMALY.cube
TITLE "Generated by Resolve"
LUT_3D_SIZE 33
0 0 0
0.0231632 0.00772107 0
0.0463264 0.0193637 0
0.0694896 0.0270848 0
0.0965744 0.0387274 0
0.119738 0.0464485 0
0.142885 0.0573587 0
0.166049 0.0658122 0
0.192157 0.076463 0
0.216297 0.0851759 0
0.23946 0.0955825 0
0.262623 0.10454 0
0.285786 0.114702 0
0.312871 0.123903 0
0.336034 0.131624 0
0.359197 0.143267 0
0.384314 0.152941 0
0.40943 0.162615 0
0.432593 0.172061 0
0.455756 0.181979 0
0.47892 0.1897 0
0.503426 0.201343 0
0.529168 0.209064 0
0.552331 0.220706 0
0.576471 0.228428 0
0.602579 0.24007 0
0.625742 0.247791 0
0.64889 0.259434 0
0.672053 0.267155 0
0.695216 0.275242 0
0.722301 0.286519 0
0.745464 0.294362 0
0.768627 0.305882 0
0.0193637 0.0270848 0.00392157
0.0348058 0.0308843 0.0037995
0.0540322 0.0347753 0
0.0772106 0.0425269 0
0.0970474 0.050248 0
0.119738 0.0612955 0
0.142885 0.0695811 0
0.166049 0.0774243 0
0.193103 0.0889754 0
0.216297 0.0968185 0
0.242069 0.108309 0
0.266423 0.116136 0
0.289662 0.126268 0
0.312871 0.1355 0
0.336034 0.145373 0
0.359197 0.154772 0
0.384314 0.164523 0
0.40943 0.174197 0
0.432593 0.183627 0
0.455756 0.1935 0
0.480339 0.201343 0
0.506004 0.212863 0
0.529168 0.220691 0
0.552331 0.232227 0
0.576471 0.239979 0
0.602579 0.251591 0
0.625742 0.259419 0
0.64889 0.270954 0
0.672053 0.278691 0
0.699031 0.28687 0
0.722301 0.298024 0
0.745464 0.306004 0
0.768627 0.317403 0
0.0424048 0.0541695 0.00784314
0.054139 0.0541238 0.00759899
0.0696117 0.0580758 0.00737011
0.0889143 0.0621958 0.000335698
0.108095 0.0696117 0
0.130968 0.0773022 0
0.150484 0.0850538 0
0.173632 0.0927443 0
0.199756 0.103426 0
0.22388 0.112108 0
0.247059 0.122545 0
0.270207 0.131472 0
0.293385 0.139208 0
0.316533 0.14934 0
0.339712 0.158572 0
0.36286 0.1664 0
0.387991 0.177935 0
0.413092 0.185885 0
0.436271 0.197299 0
0.459678 0.205097 0
0.482841 0.214374 0
0.506004 0.224353 0
0.529168 0.232349 0
0.552331 0.243717 0
0.576471 0.252628 0
0.602579 0.263081 0
0.625742 0.271077 0
0.652552 0.282445 0
0.675761 0.29044 0
0.699138 0.301808 0
0.722301 0.309575 0
0.745464 0.317617 0
0.768627 0.328923 0
0.0620127 0.0812543 0.0117647
0.0770886 0.0812543 0.0117647
0.0889448 0.084535 0.0114137
0.104417 0.0887312 0.00784314
0.123735 0.0925307 0.000885023
0.14258 0.100252 0
0.162783 0.104387 0
0.184924 0.112139 0
0.207477 0.11986 0
0.231357 0.131121 0
0.250843 0.139055 0
0.274022 0.146929 0
0.297185 0.15465 0
0.320348 0.162371 0
0.343496 0.173983 0
0.366659 0.181735 0
0.391791 0.191424 0
0.416907 0.201099 0
0.440055 0.208957 0
0.463233 0.220462 0
0.486397 0.228183 0
0.50956 0.237507 0
0.533089 0.247517 0
0.556252 0.255375 0
0.580392 0.266911 0
0.6065 0.274998 0
0.629664 0.286244 0
0.652811 0.294057 0
0.675975 0.302525 0
0.699138 0.313359 0
0.722515 0.321431 0
0.74902 0.332723 0
0.772183 0.340444 0
0.0848096 0.108339 0.0156863
0.0963455 0.108339 0.0156863
0.108553 0.111543 0.0156863
0.123781 0.112261 0.015198
0.139208 0.116182 0.0113375
0.158572 0.122988 0.00747692
0.177203 0.127199 0
0.196551 0.13492 0
0.219608 0.141787 0
0.240299 0.150362 0
0.262501 0.158083 0
0.282918 0.165805 0
0.304906 0.173526 0
0.328069 0.181537 0
0.351232 0.189456 0
0.37438 0.197177 0
0.397543 0.206867 0
0.420706 0.216541 0
0.44387 0.224262 0
0.467033 0.235904 0
0.490196 0.243626 0
0.513359 0.251347 0
0.536522 0.262989 0
0.560174 0.27071 0
0.584192 0.279408 0
0.609934 0.290074 0
0.633173 0.297887 0
0.656733 0.309438 0
0.679896 0.317159 0
0.703059 0.325689 0
0.726223 0.336522 0
0.749386 0.344259 0
0.772549 0.355886 0
0.104662 0.135424 0.0229191
0.116289 0.135424 0.0197147
0.130953 0.13846 0.0196078
0.14313 0.139269 0.0190585
0.158572 0.142763 0.0189975
0.176806 0.146563 0.0150759
0.193347 0.150317 0.010132
0.212604 0.155505 0.000717174
0.234073 0.161883 0
0.254292 0.169604 0
0.273701 0.177279 0
0.294514 0.185046 0
0.316167 0.192767 0
0.337133 0.200488 0
0.358938 0.208164 0
0.382101 0.21593 0
0.405264 0.224262 0
0.428428 0.231983 0
0.451575 0.242969 0
0.474754 0.251347 0
0.497917 0.259068 0
0.52108 0.266789 0
0.544228 0.277974 0
0.566461 0.286152 0
0.588235 0.29485 0
0.614343 0.305516 0
0.637507 0.313207 0
0.660655 0.321569 0
0.683818 0.332601 0
0.706981 0.340322 0
0.730144 0.348837 0
0.753307 0.359686 0
0.776471 0.367407 0
0.127199 0.162493 0.0267185
0.138705 0.162448 0.0267033
0.150286 0.165484 0.0237278
0.165637 0.166293 0.0235294
0.177935 0.169207 0.022797
0.193347 0.170291 0.0200961
0.212009 0.174258 0.0188754
0.228153 0.181201 0.0118715
0.250309 0.185046 0.00239567
0.269703 0.192721 0
0.288975 0.196796 0
0.308186 0.204242 0
0.327733 0.212009 0
0.348699 0.219684 0
0.370169 0.227451 0
0.391302 0.235126 0
0.414588 0.243259 0
0.437827 0.251316 0
0.459312 0.259068 0
0.48246 0.266758 0
0.505638 0.27451 0
0.527703 0.285634 0
0.548043 0.293873 0
0.571191 0.301564 0
0.595346 0.310292 0
0.621424 0.320928 0
0.644602 0.328679 0
0.66775 0.33698 0
0.690929 0.348043 0
0.714076 0.355734 0
0.737255 0.363729 0
0.760403 0.375097 0
0.783581 0.382849 0
0.147311 0.189578 0.030518
0.158923 0.189578 0.030518
0.170489 0.189532 0.0305028
0.184924 0.192645 0.0277409
0.200366 0.1935 0.027451
0.212741 0.197284 0.0265965
0.23064 0.201129 0.0228275
0.247364 0.20441 0.0202792
0.265934 0.208972 0.0158083
0.285176 0.21593 0.00723278
0.303777 0.219684 0
0.321645 0.227451 0
0.342885 0.233249 0
0.362127 0.238972 0
0.38172 0.246647 0
0.402914 0.254414 0
0.426169 0.262135 0
0.447791 0.269856 0
0.470558 0.277913 0
0.492012 0.286152 0
0.513359 0.293873 0
0.536522 0.301595 0
0.557839 0.309285 0
0.578927 0.317891 0
0.603067 0.328038 0
0.62916 0.3364 0
0.652308 0.344091 0
0.672282 0.355047 0
0.694728 0.363485 0
0.717891 0.371206 0
0.741039 0.379141 0
0.764218 0.39057 0
0.787381 0.398291 0
0.169604 0.219608 0.0343175
0.181216 0.219608 0.0343175
0.195651 0.219608 0.0343175
0.208087 0.222553 0.0343175
0.219974 0.223529 0.0317388
0.23505 0.226017 0.0305486
0.250492 0.227451 0.030396
0.265934 0.231373 0.026688
0.284306 0.238239 0.0235294
0.303822 0.242039 0.0197299
0.320775 0.245838 0.0126802
0.339467 0.251621 0.00202945
0.358831 0.257359 0
0.377569 0.26508 0
0.398108 0.269856 0
0.417426 0.277058 0
0.439216 0.28481 0
0.462379 0.293019 0
0.481621 0.299748 0
0.504784 0.307881 0
0.524025 0.316182 0
0.547189 0.323903 0
0.567407 0.331624 0
0.590295 0.339345 0
0.612985 0.347066 0
0.636881 0.354772 0
0.660044 0.364034 0
0.682231 0.374136 0
0.705028 0.381857 0
0.725612 0.389578 0
0.748775 0.398291 0
0.771939 0.406104 0
0.795102 0.416663 0
0.192767 0.247669 0.0392157
0.204318 0.247669 0.0392157
0.215839 0.247623 0.0381018
0.228687 0.250233 0.038117
0.242771 0.251453 0.038117
0.25539 0.253971 0.0357366
0.270802 0.255253 0.0343938
0.286275 0.25919 0.0319829
0.303822 0.262379 0.0305486
0.32108 0.266972 0.0266575
0.338415 0.271153 0.0236362
0.355886 0.276982 0.017792
0.37525 0.281498 0.00492866
0.394171 0.286885 0
0.412222 0.292973 0
0.432013 0.30074 0
0.454658 0.305638 0
0.474479 0.31284 0
0.495796 0.319936 0
0.516304 0.327703 0
0.536645 0.335424 0
0.558694 0.343145 0
0.579034 0.350805 0
0.601099 0.358572 0
0.622431 0.366567 0
0.647425 0.375128 0
0.66775 0.382818 0
0.690929 0.39057 0
0.714092 0.398291 0
0.735897 0.40882 0
0.756481 0.416571 0
0.77966 0.425361 0
0.802823 0.433082 0
0.21323 0.274754 0.0431373
0.224796 0.274708 0.0431373
0.236439 0.274754 0.0431373
0.250446 0.27715 0.0419013
0.262165 0.278523 0.0419165
0.277409 0.27863 0.0419013
0.290196 0.282368 0.0392157
0.305608 0.284657 0.0379797
0.323095 0.288548 0.0359655
0.340063 0.292332 0.0340581
0.355886 0.296223 0.0301518
0.374792 0.300816 0.026215
0.390692 0.304662 0.019852
0.410025 0.310002 0.0101472
0.429419 0.316182 0
0.446906 0.321767 0
0.468132 0.327703 0
0.489311 0.335378 0
0.508583 0.343145 0
0.528527 0.348135 0
0.549966 0.355428 0
0.570184 0.362325 0
0.590692 0.370092 0
0.612589 0.377768 0
0.633768 0.38584 0
0.658335 0.394461 0
0.679408 0.402213 0
0.70132 0.409903 0
0.721813 0.417655 0
0.744961 0.42533 0
0.768063 0.433082 0
0.787366 0.440848 0
0.810544 0.451225 0
0.235172 0.301839 0.0470588
0.246738 0.301839 0.0470588
0.258259 0.301793 0.0470588
0.269856 0.304173 0.0470588
0.282918 0.304417 0.045716
0.296696 0.30576 0.045716
0.312093 0.308278 0.0436103
0.325002 0.311681 0.0420844
0.342367 0.313603 0.0417945
0.35845 0.317143 0.0382544
0.375219 0.320974 0.0360876
0.390692 0.32491 0.0339513
0.409537 0.32929 0.0300298
0.427024 0.335546 0.0237736
0.444816 0.3393 0.0145113
0.46421 0.344976 0.00363165
0.484871 0.350851 0
0.504784 0.358572 0
0.523995 0.363104 0
0.543267 0.370092 0
0.562493 0.377813 0
0.582635 0.384649 0
0.604074 0.390661 0
0.62414 0.397055 0
0.64538 0.405112 0
0.669902 0.413855 0
0.690776 0.42153 0
0.712474 0.429282 0
0.733455 0.437003 0
0.755032 0.444724 0
0.775845 0.452415 0
0.799023 0.460166 0
0.820829 0.467887 0
0.255879 0.328923 0.0509804
0.266056 0.328923 0.0509804
0.279072 0.328923 0.0509804
0.290669 0.33138 0.0509804
0.304417 0.33138 0.0509804
0.317403 0.332845 0.0495155
0.33138 0.335286 0.0495155
0.3449 0.336767 0.0470588
0.361639 0.340322 0.045594
0.377691 0.344198 0.0438239
0.394156 0.347311 0.0416724
0.410056 0.35111 0.0382544
0.427024 0.35491 0.0352941
0.444846 0.358694 0.0314946
0.461677 0.363577 0.0276951
0.479652 0.369436 0.0191958
0.500984 0.374014 0.00489815
0.520226 0.381735 0
0.539467 0.385534 0
0.558694 0.393256 0
0.577935 0.397971 0
0.597177 0.404776 0
0.616419 0.412497 0
0.638483 0.420218 0
0.658824 0.426108 0
0.681453 0.433204 0
0.702419 0.440925 0
0.72401 0.448646 0
0.744915 0.456367 0
0.766552 0.464088 0
0.787411 0.471809 0
0.80911 0.47953 0
0.829908 0.487251 0
0.277577 0.356008 0.054902
0.289097 0.356008 0.054902
0.300572 0.355962 0.054902
0.312291 0.358328 0.054902
0.323857 0.358328 0.054902
0.339086 0.35993 0.0535592
0.350866 0.361761 0.0532998
0.366049 0.3635 0.053315
0.381491 0.367376 0.0497902
0.396933 0.369436 0.0493935
0.412329 0.371649 0.0470588
0.429419 0.375616 0.0454719
0.444846 0.379538 0.0421454
0.462623 0.383459 0.0392157
0.479622 0.388632 0.0354009
0.497185 0.393378 0.030869
0.516426 0.397177 0.0231022
0.535668 0.404898 0.0111543
0.554864 0.408652 0
0.574136 0.416419 0
0.592508 0.420218 0
0.612619 0.427939 0
0.63183 0.434897 0
0.651102 0.43946 0
0.672511 0.447181 0
0.693507 0.454902 0
0.716213 0.462577 0
0.735912 0.470344 0
0.756542 0.475731 0
0.778088 0.483452 0
0.799023 0.491142 0
0.82063 0.498894 0
0.84155 0.506615 0
0.296818 0.383093 0.0610361
0.308415 0.383047 0.0610208
0.320104 0.383093 0.0610361
0.333257 0.385229 0.0590219
0.346807 0.38529 0.0588235
0.358557 0.386969 0.0588235
0.371984 0.3888 0.057435
0.385245 0.390509 0.0570993
0.402029 0.392584 0.0554513
0.416129 0.394812 0.053666
0.431617 0.398245 0.053193
0.448142 0.40206 0.0498512
0.46421 0.405142 0.0478828
0.479622 0.408896 0.0453346
0.498268 0.412741 0.0414282
0.514427 0.417517 0.0383001
0.532967 0.423407 0.0327153
0.553155 0.428016 0.0260777
0.571588 0.431861 0.0151675
0.589548 0.439536 0.00260929
0.60882 0.443381 0
0.626688 0.451057 0
0.646616 0.454902 0
0.666514 0.462577 0
0.685786 0.470344 0
0.708446 0.477546 0
0.728191 0.481865 0
0.748852 0.48954 0
0.770306 0.497307 0
0.789792 0.504982 0
0.810681 0.512612 0
0.832135 0.518227 0
0.853193 0.525979 0
0.319982 0.410178 0.0648356
0.331502 0.410178 0.0648356
0.342962 0.410132 0.0648203
0.354528 0.412253 0.0648356
0.366278 0.412253 0.0630045
0.379736 0.414099 0.0627451
0.392966 0.415732 0.0627451
0.406378 0.417609 0.060914
0.421347 0.419577 0.060914
0.437247 0.421408 0.0588235
0.450813 0.425223 0.0569772
0.4663 0.427222 0.0556191
0.483574 0.431083 0.0530709
0.499016 0.434943 0.049897
0.515587 0.438743 0.0479591
0.532967 0.442649 0.0452277
0.551232 0.447425 0.0413062
0.569604 0.451225 0.0355383
0.587961 0.457191 0.0298772
0.606271 0.462745 0.0214237
0.624262 0.466545 0.00520333
0.643503 0.474266 0
0.661494 0.478019 0
0.680888 0.485786 0
0.701228 0.491417 0
0.723522 0.497307 0
0.742855 0.504982 0
0.762539 0.512428 0
0.782101 0.518151 0
0.803021 0.524269 0
0.824353 0.531945 0
0.843748 0.539712 0
0.864836 0.547433 0
0.341176 0.439216 0.0686351
0.352758 0.439216 0.0686351
0.36434 0.439216 0.0686351
0.375921 0.440986 0.0686351
0.389212 0.441184 0.0686351
0.401038 0.442832 0.0686351
0.414588 0.443137 0.0670329
0.427695 0.44509 0.0651408
0.443137 0.447059 0.0647135
0.458579 0.450431 0.0647135
0.474022 0.452323 0.0614023
0.489464 0.454902 0.0607919
0.504906 0.458091 0.0583352
0.520348 0.461952 0.0568704
0.53579 0.464958 0.0538033
0.551232 0.468757 0.0508583
0.569604 0.472541 0.0480354
0.588907 0.478431 0.0441749
0.605386 0.483207 0.0394598
0.62475 0.487861 0.0337072
0.642893 0.491661 0.0259861
0.660227 0.498711 0.0129854
0.67953 0.503182 0
0.698283 0.510353 0
0.717159 0.514702 0
0.739406 0.522423 0
0.758694 0.528191 0
0.777996 0.533944 0
0.797543 0.541665 0
0.816785 0.547433 0
0.837873 0.555154 0
0.859068 0.560906 0
0.878431 0.568627 0
0.364462 0.468254 0.0745098
0.374014 0.468254 0.0724193
0.385611 0.468208 0.0724041
0.399191 0.469932 0.0724193
0.410773 0.4701 0.0724193
0.423896 0.4701 0.0724193
0.435767 0.472129 0.0724041
0.450858 0.473625 0.0705882
0.465843 0.475578 0.0690318
0.479896 0.477424 0.0684977
0.493217 0.479973 0.0672313
0.508705 0.483223 0.0653086
0.524147 0.4851 0.0645762
0.53959 0.48896 0.0615091
0.554986 0.492775 0.0606394
0.572549 0.495705 0.0577249
0.589944 0.500557 0.0547799
0.607355 0.504417 0.0509804
0.625513 0.509148 0.0471656
0.642161 0.512993 0.0433814
0.660212 0.517937 0.0382849
0.678309 0.523796 0.0311437
0.6963 0.528267 0.0207065
0.715694 0.53492 0.00395209
0.736034 0.539834 0
0.755276 0.547158 0
0.774472 0.551308 0
0.793744 0.559075 0
0.812985 0.564691 0
0.832227 0.570596 0
0.851438 0.578256 0
0.87274 0.584192 0
0.893874 0.589822 0
0.385534 0.495338 0.0784314
0.397009 0.495293 0.0784314
0.408576 0.495338 0.0784314
0.42005 0.497002 0.0784314
0.431891 0.497063 0.0762188
0.443442 0.497002 0.0762036
0.457191 0.49926 0.0762188
0.470054 0.500557 0.0762036
0.485542 0.502632 0.0745098
0.499702 0.504372 0.0729229
0.514702 0.506416 0.0722972
0.527901 0.508766 0.0705882
0.543389 0.512108 0.0683757
0.55877 0.5149 0.0673533
0.574258 0.517906 0.0654307
0.590845 0.521706 0.0635386
0.608209 0.525612 0.0605325
0.626688 0.529412 0.0565957
0.642161 0.533318 0.0539406
0.660166 0.53843 0.0510872
0.676966 0.543038 0.047303
0.6963 0.547631 0.0401465
0.712993 0.551476 0.0357824
0.731579 0.558038 0.0251926
0.751476 0.562997 0.00643931
0.770687 0.569802 0
0.789944 0.574502 0
0.809155 0.582177 0
0.828428 0.586023 0
0.847639 0.593698 0
0.866911 0.601221 0
0.886122 0.605219 0
0.905394 0.612985 0
0.404776 0.522423 0.0823529
0.416419 0.522423 0.0823529
0.428016 0.522377 0.0823529
0.439704 0.524025 0.0823529
0.453391 0.524025 0.0823529
0.4663 0.524025 0.0800183
0.477775 0.526299 0.0800031
0.492012 0.527596 0.0800183
0.504784 0.529686 0.0788281
0.520226 0.531411 0.0784314
0.534524 0.53341 0.0760815
0.549508 0.535225 0.0760967
0.562615 0.538109 0.0745098
0.578058 0.541085 0.0721752
0.593454 0.544198 0.0705882
0.608942 0.546792 0.0682536
0.627512 0.550668 0.065507
0.643748 0.554543 0.0635843
0.661494 0.559396 0.0603952
0.677607 0.563241 0.0564889
0.694865 0.567041 0.0525673
0.712322 0.571878 0.0486458
0.73109 0.577279 0.0434882
0.748821 0.582361 0.0373846
0.766918 0.586145 0.0290684
0.787396 0.593866 0.0143282
0.805356 0.59762 0
0.824628 0.604776 0
0.84387 0.609186 0
0.862745 0.616907 0
0.882231 0.620661 0
0.901595 0.628428 0
0.920836 0.636149 0
0.427939 0.549508 0.0862745
0.43946 0.549508 0.0862745
0.45098 0.550881 0.0862745
0.462501 0.550973 0.0862745
0.474022 0.550973 0.0862745
0.485924 0.550973 0.0862745
0.499779 0.553429 0.0838178
0.512505 0.554574 0.0838178
0.526467 0.556741 0.0838178
0.540154 0.557351 0.0823529
0.55491 0.56051 0.0806744
0.568872 0.562234 0.0798962
0.584314 0.564279 0.0789807
0.597299 0.566659 0.0769818
0.612741 0.56994 0.0759747
0.628183 0.573037 0.0732128
0.645594 0.575738 0.0713207
0.662989 0.58088 0.0681315
0.6795 0.584802 0.0664225
0.69633 0.588724 0.0636149
0.712322 0.592645 0.0602884
0.731121 0.59707 0.0563668
0.747021 0.601709 0.0524453
0.765927 0.605509 0.047425
0.783825 0.610422 0.0411841
0.804654 0.617029 0.033463
0.824018 0.620829 0.0199741
0.84007 0.628168 0.0037232
0.859312 0.632349 0
0.878553 0.639704 0
0.897551 0.64387 0
0.916915 0.651591 0
0.936278 0.65539 0
0.447181 0.576593 0.0901961
0.458824 0.576593 0.0901961
0.47042 0.577874 0.0901961
0.482109 0.577935 0.0901961
0.493751 0.577935 0.0901961
0.507561 0.577935 0.0901961
0.52018 0.580468 0.0901961
0.532311 0.581567 0.0876173
0.547189 0.581857 0.0876173
0.561654 0.584436 0.086656
0.57409 0.585718 0.0862745
0.589578 0.588357 0.0836957
0.603677 0.591318 0.0836957
0.61912 0.593072 0.0823529
0.631937 0.596155 0.0797589
0.647425 0.598917 0.079057
0.664149 0.602762 0.0758526
0.682231 0.60589 0.075227
0.697627 0.609628 0.0719158
0.715694 0.613474 0.0695506
0.731121 0.617273 0.0665446
0.747921 0.621073 0.0636301
0.765896 0.625757 0.0589303
0.783444 0.631495 0.0551461
0.801709 0.636393 0.0513466
0.820386 0.640192 0.0436255
0.839429 0.647135 0.0372168
0.858824 0.651713 0.0252079
0.875929 0.655512 0.00590524
0.893996 0.662867 0
0.913207 0.666987 0
0.932403 0.674708 0
0.95172 0.678553 0
0.470344 0.604898 0.0953384
0.481819 0.604837 0.0953231
0.492241 0.604898 0.0953384
0.50486 0.604837 0.0942245
0.516426 0.604898 0.0941176
0.527901 0.604837 0.0941176
0.539971 0.607599 0.0941176
0.553903 0.608499 0.0919966
0.566415 0.60882 0.0914168
0.581811 0.611475 0.0914015
0.596078 0.612741 0.0905776
0.608774 0.615396 0.0901961
0.623499 0.616663 0.0874952
0.638453 0.619318 0.0867628
0.653925 0.62211 0.0847639
0.666621 0.625895 0.0835584
0.684062 0.627817 0.0810101
0.701427 0.631647 0.0796368
0.716915 0.635584 0.0772564
0.732311 0.638926 0.075227
0.750484 0.642893 0.071809
0.766308 0.646769 0.0696574
0.783444 0.651118 0.0666667
0.800702 0.654948 0.0628519
0.818082 0.659556 0.0590677
0.839429 0.664256 0.0521859
0.855634 0.670573 0.0475471
0.874235 0.67483 0.0399939
0.893629 0.678676 0.0317693
0.910506 0.686351 0.0155032
0.928679 0.690196 0
0.94789 0.697749 0
0.967163 0.701717 0
0.489586 0.631861 0.0991379
0.501228 0.631861 0.0991379
0.512764 0.6318 0.0991226
0.524407 0.631861 0.0991379
0.536156 0.631861 0.0991379
0.550164 0.631861 0.0980392
0.561685 0.634638 0.0980392
0.574136 0.634684 0.0980392
0.589303 0.635782 0.0959182
0.601892 0.638605 0.0952163
0.615747 0.639307 0.095201
0.629023 0.641566 0.0941176
0.643503 0.643214 0.0923629
0.658289 0.646448 0.0912947
0.673259 0.649088 0.0906691
0.688731 0.65095 0.0887007
0.704723 0.654292 0.0868238
0.720714 0.658213 0.0849622
0.73611 0.660487 0.0829633
0.751598 0.664378 0.07953
0.768093 0.668208 0.0780652
0.78529 0.672038 0.0756085
0.801038 0.675822 0.0716716
0.820096 0.679713 0.0697948
0.836515 0.683543 0.0659648
0.855146 0.68983 0.0599222
0.874235 0.694194 0.0554513
0.891249 0.698039 0.0514687
0.909209 0.705272 0.0437476
0.928435 0.70956 0.0357671
0.947768 0.713314 0.0218357
0.963363 0.720989 0.00321965
0.982605 0.72488 0
0.512749 0.658824 0.102937
0.5243 0.658824 0.102937
0.535851 0.659739 0.102937
0.547402 0.6598 0.102937
0.558953 0.6598 0.102937
0.570489 0.662287 0.102937
0.583398 0.662745 0.102937
0.59501 0.662745 0.102174
0.609552 0.663722 0.101961
0.624262 0.666667 0.0990158
0.636088 0.666667 0.0990158
0.651225 0.669581 0.0990158
0.664836 0.670588 0.0980392
0.678187 0.67332 0.0950942
0.693629 0.675059 0.0950942
0.709072 0.678431 0.0945754
0.724514 0.680888 0.0911727
0.739956 0.684184 0.0907149
0.755398 0.686702 0.0872511
0.77084 0.690593 0.0868544
0.786648 0.694118 0.0833295
0.805631 0.698039 0.0813458
0.821073 0.701961 0.0791028
0.836515 0.705882 0.0754864
0.855879 0.710781 0.0715648
0.875242 0.71458 0.0676432
0.890684 0.718379 0.0637217
0.910048 0.72549 0.0593423
0.925856 0.729778 0.0553902
0.944854 0.7337 0.0477607
0.964218 0.737499 0.0409247
0.982605 0.74522 0.0354772
0.997055 0.749996 0.0382391
0.535912 0.688853 0.106737
0.547433 0.688853 0.106737
0.558907 0.689647 0.106722
0.570459 0.689708 0.106737
0.581979 0.689708 0.106737
0.5935 0.689708 0.106737
0.605554 0.692149 0.106722
0.619791 0.692775 0.106737
0.631983 0.693416 0.106096
0.646815 0.695827 0.105882
0.6589 0.696651 0.103761
0.673823 0.697551 0.102815
0.685908 0.700618 0.102815
0.70135 0.701473 0.101961
0.715908 0.704494 0.0988785
0.729747 0.707012 0.0988937
0.745281 0.708888 0.0980392
0.762249 0.712779 0.0949722
0.777661 0.716258 0.0941176
0.793133 0.718395 0.0910506
0.808576 0.722225 0.0901961
0.824872 0.726055 0.087129
0.840269 0.729244 0.0853132
0.858824 0.733089 0.0821088
0.875242 0.736889 0.0790723
0.893629 0.74136 0.0753643
0.91046 0.747631 0.0714275
0.928435 0.751736 0.0675212
0.945113 0.756008 0.0635386
0.962371 0.760586 0.0728771
0.976959 0.767285 0.114076
0.988479 0.772183 0.177386
1 0.779904 0.218143
0.555154 0.71667 0.113725
0.566751 0.716609 0.113725
0.578439 0.71667 0.113725
0.590021 0.716609 0.113725
0.601709 0.71667 0.110536
0.613306 0.716609 0.110521
0.627588 0.719249 0.110536
0.639658 0.719814 0.110521
0.654414 0.720409 0.110536
0.666621 0.72282 0.109804
0.679179 0.723781 0.109804
0.693584 0.724453 0.1066
0.708339 0.727703 0.106615
0.720546 0.728374 0.106172
0.736034 0.731624 0.105882
0.750698 0.733989 0.102678
0.766537 0.735912 0.102327
0.781582 0.739422 0.100465
0.797055 0.741588 0.0987716
0.812467 0.745357 0.0967422
0.827939 0.747585 0.0948501
0.843595 0.751431 0.093019
0.859556 0.755383 0.0906996
0.875853 0.759228 0.0869917
0.893812 0.76318 0.085481
0.912963 0.767025 0.0823682
0.928298 0.771572 0.0868849
0.942397 0.776043 0.0986038
0.953918 0.782696 0.163546
0.965438 0.787564 0.203296
0.976959 0.7953 0.239704
0.988479 0.802182 0.269718
1 0.806867 0.296818
0.578302 0.743633 0.117647
0.589822 0.743633 0.117647
0.600732 0.743572 0.117647
0.612314 0.743633 0.117647
0.624384 0.743633 0.117647
0.635904 0.743633 0.114855
0.648005 0.746883 0.114321
0.659663 0.746929 0.114336
0.674388 0.747402 0.114336
