Camo Studio.app/Contents/Resources/CamoContent_CamoContent.bundle/Contents/Resources/DEUTERANOMALY.cube
TITLE "Generated by Resolve"
LUT_3D_SIZE 9
0 0 0
0.0965744 0.0387274 0
0.192157 0.076463 0
0.285786 0.114702 0
0.384314 0.152941 0
0.47892 0.1897 0
0.576471 0.228428 0
0.672053 0.267155 0
0.768627 0.305882 0
0.0848096 0.108339 0.0156863
0.139208 0.116182 0.0113375
0.219608 0.141787 0
0.304906 0.173526 0
0.397543 0.206867 0
0.490196 0.243626 0
0.584192 0.279408 0
0.679896 0.317159 0
0.772549 0.355886 0
0.169604 0.219608 0.0343175
0.219974 0.223529 0.0317388
0.284306 0.238239 0.0235294
0.358831 0.257359 0
0.439216 0.28481 0
0.524025 0.316182 0
0.612985 0.347066 0
0.705028 0.381857 0
0.795102 0.416663 0
0.255879 0.328923 0.0509804
0.304417 0.33138 0.0509804
0.361639 0.340322 0.045594
0.427024 0.35491 0.0352941
0.500984 0.374014 0.00489815
0.577935 0.397971 0
0.658824 0.426108 0
0.744915 0.456367 0
0.829908 0.487251 0
0.341176 0.439216 0.0686351
0.389212 0.441184 0.0686351
0.443137 0.447059 0.0647135
0.504906 0.458091 0.0583352
0.569604 0.472541 0.0480354
0.642893 0.491661 0.0259861
0.717159 0.514702 0
0.797543 0.541665 0
0.878431 0.568627 0
0.427939 0.549508 0.0862745
0.474022 0.550973 0.0862745
0.526467 0.556741 0.0838178
0.584314 0.564279 0.0789807
0.645594 0.575738 0.0713207
0.712322 0.592645 0.0602884
0.783825 0.610422 0.0411841
0.859312 0.632349 0
0.936278 0.65539 0
0.512749 0.658824 0.102937
0.558953 0.6598 0.102937
0.609552 0.663722 0.101961
0.664836 0.670588 0.0980392
0.724514 0.680888 0.0911727
0.786648 0.694118 0.0833295
0.855879 0.710781 0.0715648
0.925856 0.729778 0.0553902
0.997055 0.749996 0.0382391
0.597543 0.770581 0.121569
0.644053 0.770581 0.121569
0.693629 0.77438 0.118135
0.747555 0.780575 0.115496
0.805386 0.7897 0.110292
0.86421 0.799512 0.132296
0.907835 0.818631 0.248524
0.953918 0.840742 0.334798
1 0.86421 0.410788
0.635294 0.890196 0.356863
0.681376 0.890196 0.360784
0.727459 0.894118 0.371572
0.773526 0.900496 0.390692
0.819608 0.909804 0.417639
0.86421 0.921569 0.452445
0.907835 0.937255 0.492149
0.953918 0.956863 0.537743
1 0.976471 0.584314
0 0.0235294 0.0848096
0.0713207 0.0460822 0.119615
0.184802 0.0800183 0.115679
0.285786 0.116182 0.111757
0.384314 0.152941 0.105394
0.480705 0.190997 0.0936294
0.576471 0.229282 0.0683757
0.675975 0.267155 0.0460822
0.768627 0.305882 0.0460822
0.0726177 0.112261 0.127016
0.131319 0.120089 0.123522
0.212467 0.143114 0.119615
0.301472 0.174014 0.115633
0.395621 0.208789 0.107561
0.490425 0.243626 0.0950637
0.586892 0.279408 0.0725567
0.682918 0.317159 0.0460822
0.775982 0.355886 0.0460822
0.165682 0.222553 0.131365
0.215732 0.226108 0.130404
0.280522 0.238239 0.126802
0.35552 0.259297 0.120714
0.437507 0.285298 0.113054
0.524102 0.316182 0.102846
0.614466 0.347066 0.0832074
0.706371 0.381857 0.0460822
0.795102 0.416663 0.0460822
0.252262 0.33138 0.137926
0.300679 0.332845 0.137942
0.359442 0.340688 0.135302
0.42501 0.355825 0.130571
0.497063 0.374014 0.12343
0.576547 0.400061 0.113039
0.65919 0.42771 0.0983444
0.745098 0.456367 0.0682383
0.832349 0.487251 0.0460822
0.339208 0.440925 0.147555
0.385779 0.442893 0.147311
0.440925 0.448524 0.145342
0.500984 0.458824 0.141421
0.568627 0.47451 0.134554
0.640284 0.494118 0.126711
0.71667 0.514702 0.114946
0.797543 0.541665 0.0965438
0.878431 0.568627 0.0529488
0.424323 0.550973 0.159319
0.47274 0.550973 0.159319
0.524025 0.556741 0.156863
0.581857 0.565194 0.152941
0.644846 0.577691 0.148196
0.711757 0.593194 0.141009
0.782361 0.612619 0.131518
0.858839 0.632349 0.117144
0.936278 0.657542 0.0967575
0.51017 0.6598 0.172061
0.556573 0.6598 0.172061
0.60882 0.66566 0.171084
0.662791 0.671199 0.167529
0.723033 0.682353 0.163241
0.786267 0.694484 0.156374
0.852949 0.710781 0.148501
0.925536 0.7299 0.136706
0.997055 0.749996 0.143389
0.597543 0.770581 0.186831
0.643687 0.770581 0.18677
0.693629 0.774502 0.183764
0.747555 0.781857 0.182849
0.805142 0.7897 0.178958
0.86421 0.801648 0.187869
0.907835 0.818631 0.298405
0.953918 0.840742 0.384375
1 0.86421 0.457359
0.635294 0.890196 0.403433
0.681376 0.890196 0.406867
0.727459 0.894118 0.417777
0.773526 0.900496 0.436942
0.819608 0.909804 0.46421
0.86421 0.921569 0.498711
0.907835 0.938231 0.538231
0.953918 0.956863 0.580819
1 0.976471 0.626963
0 0.0500038 0.173526
0.0460822 0.0614023 0.196445
0.145342 0.0921645 0.242161
0.26569 0.124025 0.238239
0.369604 0.158816 0.238239
0.471443 0.196567 0.234318
0.569604 0.232349 0.228672
0.669123 0.271077 0.221576
0.765682 0.305882 0.213733
0 0.126955 0.23444
0.0643015 0.134432 0.246098
0.18529 0.153552 0.245716
0.286137 0.181735 0.242161
0.384375 0.212741 0.238239
0.482399 0.247547 0.234318
0.577325 0.283116 0.230152
0.676081 0.32108 0.222431
0.772183 0.355886 0.213733
0.146075 0.229664 0.253925
0.196078 0.23331 0.253925
0.26569 0.24535 0.250004
0.342641 0.264744 0.246082
0.427573 0.289219 0.242161
0.516426 0.320104 0.238239
0.607233 0.350973 0.233707
0.701442 0.385046 0.226139
0.792157 0.417655 0.217639
0.239704 0.335286 0.257847
0.289708 0.336767 0.257847
0.348226 0.345983 0.257023
0.414572 0.359518 0.253925
0.489219 0.377935 0.250004
0.569406 0.402823 0.243687
0.652232 0.429129 0.238239
0.740078 0.458824 0.230396
0.828794 0.489708 0.222553
0.331868 0.443137 0.26421
0.37818 0.446387 0.26421
0.433341 0.45098 0.261769
0.493629 0.462562 0.258885
0.561273 0.476478 0.255146
0.63444 0.495583 0.250309
0.711269 0.518624 0.245594
0.793439 0.543633 0.238178
0.87451 0.570596 0.230396
0.420096 0.553429 0.269978
0.466255 0.554528 0.269978
0.51899 0.558724 0.269612
0.576608 0.567819 0.266056
0.638972 0.579477 0.262989
0.706691 0.594812 0.258076
0.778439 0.61323 0.253925
0.855024 0.636149 0.246082
0.932357 0.659312 0.238239
0.505882 0.662745 0.278431
0.552331 0.662745 0.277699
0.604349 0.666667 0.277699
0.658824 0.674235 0.275242
0.718746 0.68394 0.271321
0.782361 0.696208 0.267399
0.849012 0.712993 0.262562
0.92166 0.7299 0.257481
0.994125 0.752941 0.256367
0.593622 0.774014 0.286641
0.639811 0.774014 0.286641
0.689708 0.777722 0.286275
0.743404 0.782162 0.28542
0.801221 0.790127 0.281926
0.862074 0.801968 0.283009
0.907835 0.818631 0.359472
0.953918 0.841611 0.438453
1 0.864698 0.510781
0.635294 0.890196 0.4598
0.681376 0.890196 0.460777
0.727459 0.894118 0.472297
0.773526 0.901961 0.490684
0.819608 0.909804 0.517647
0.86421 0.923033 0.54963
0.907835 0.938231 0.588235
0.953918 0.956863 0.630396
1 0.976471 0.676463
0 0.0730449 0.258335
0.0460822 0.0821698 0.274998
0.0921645 0.107347 0.320592
0.216663 0.138231 0.358831
0.34461 0.169848 0.358831
0.452949 0.203922 0.358831
0.555032 0.239094 0.354894
0.657847 0.274998 0.350973
0.756863 0.312261 0.347051
0 0.143633 0.301778
0.0460822 0.149722 0.313237
0.0921645 0.168811 0.351949
0.247059 0.1935 0.362737
0.359808 0.223774 0.362432
0.46421 0.25539 0.358831
0.564401 0.290196 0.354894
0.664363 0.325032 0.350973
0.762066 0.360113 0.347051
0.0984054 0.241672 0.377447
0.153262 0.245289 0.374502
0.230854 0.255085 0.374044
0.315694 0.273793 0.370596
0.407355 0.297063 0.366674
0.500862 0.326467 0.362737
0.593927 0.355612 0.358831
0.690074 0.3897 0.354894
0.783337 0.421561 0.350973
0.216663 0.34406 0.382345
0.266667 0.345953 0.381552
0.327443 0.353597 0.378439
0.396338 0.367254 0.374853
0.473533 0.385779 0.371817
0.55555 0.40882 0.3682
0.641306 0.434867 0.362737
0.730312 0.463539 0.358831
0.819059 0.493629 0.354894
0.31519 0.450248 0.386282
0.362753 0.45098 0.386282
0.418387 0.457603 0.382544
0.48014 0.46743 0.382345
0.54902 0.482353 0.378439
0.62298 0.500282 0.374502
0.701717 0.522545 0.370596
0.784314 0.547555 0.365774
0.866667 0.574502 0.358831
0.408331 0.557351 0.390188
0.454597 0.558816 0.390188
0.50811 0.563897 0.390188
0.56524 0.572122 0.386282
0.628702 0.583581 0.383368
0.697322 0.598627 0.380484
0.769055 0.617151 0.375616
0.84712 0.639887 0.370596
0.924514 0.663233 0.366674
0.497429 0.666667 0.395102
0.543587 0.666667 0.394491
0.594125 0.670588 0.394125
0.649836 0.678019 0.394125
0.709865 0.686763 0.390188
0.774502 0.699504 0.386511
0.842283 0.714702 0.382635
0.915099 0.733822 0.378439
0.988357 0.754772 0.374502
0.585779 0.774502 0.401953
0.632029 0.777935 0.401953
0.681865 0.780041 0.401953
0.73579 0.785779 0.398825
0.793469 0.793866 0.398047
0.855009 0.805508 0.394369
0.907835 0.821424 0.43032
0.953918 0.841672 0.499763
1 0.864698 0.568139
0.635294 0.890196 0.518624
0.681376 0.894118 0.522545
0.727459 0.897063 0.533333
0.773526 0.901961 0.548531
0.819608 0.911757 0.574258
0.86421 0.92549 0.606378
0.907835 0.940078 0.64155
0.953918 0.957351 0.683818
1 0.976471 0.726467
0 0.100008 0.347051
0.0460822 0.103914 0.358328
0.0921645 0.126467 0.392157
0.13579 0.153429 0.446082
0.291173 0.183337 0.480385
0.420829 0.215198 0.480385
0.531365 0.248524 0.477943
0.638727 0.283085 0.476478
0.741176 0.317647 0.472557
0 0.161761 0.377447
0.0460822 0.167193 0.388724
0.0921645 0.184314 0.418753
0.13579 0.209155 0.46952
0.312993 0.236271 0.484184
0.43299 0.267155 0.480385
0.54136 0.298711 0.480385
0.646357 0.333089 0.476478
0.746807 0.367651 0.472557
0 0.25687 0.4701
0.0460822 0.259251 0.477516
0.13959 0.270588 0.494362
0.267216 0.287434 0.492164
0.373526 0.308827 0.488975
0.474998 0.33579 0.487251
0.572549 0.364828 0.484321
0.672618 0.396262 0.480385
0.769604 0.428916 0.476478
0.178424 0.355642 0.503914
0.228428 0.357443 0.503914
0.292226 0.364034 0.502632
0.366415 0.377203 0.500008
0.447669 0.394614 0.496086
0.534371 0.416663 0.492164
0.622553 0.442405 0.488228
0.714214 0.470436 0.484321
0.805631 0.499016 0.480385
0.291173 0.458824 0.507836
0.338231 0.4598 0.507836
0.395346 0.466178 0.507836
0.457847 0.475731 0.503914
0.529412 0.489219 0.502449
0.605631 0.507973 0.49926
0.685542 0.529412 0.495583
0.76997 0.553307 0.491051
0.854902 0.579416 0.486275
0.390692 0.565194 0.512505
0.436759 0.565927 0.511772
0.490684 0.569848 0.511772
0.548531 0.578927 0.510994
0.612863 0.590066 0.507836
0.682628 0.605142 0.503914
0.755947 0.622736 0.500008
0.834318 0.644114 0.496086
0.914702 0.667155 0.492164
0.481865 0.671077 0.518135
0.528252 0.672862 0.51667
0.58027 0.676463 0.515679
0.636332 0.682353 0.515679
0.696574 0.692409 0.511772
0.761822 0.704967 0.509743
0.831006 0.720104 0.507103
0.904173 0.737743 0.503548
0.979416 0.760296 0.497063
0.574014 0.781857 0.523522
0.62034 0.781857 0.523522
0.671382 0.785351 0.521813
0.724666 0.789853 0.519615
0.782605 0.797787 0.519615
0.84535 0.8094 0.515679
0.907835 0.822553 0.516243
0.953918 0.84509 0.570581
1 0.868376 0.629908
0.635294 0.894118 0.590188
0.681376 0.894118 0.591913
0.727459 0.898039 0.600977
0.773526 0.905882 0.616175
0.819608 0.913725 0.637263
0.86421 0.926955 0.66421
0.907835 0.942153 0.699016
0.953918 0.960784 0.737743
1 0.980392 0.780392
0 0.123033 0.434318
0.0460822 0.129107 0.441855
0.0921645 0.145586 0.469734
0.13579 0.168627 0.516121
0.180392 0.198779 0.575494
0.363729 0.228916 0.601953
0.49546 0.260166 0.601953
0.611765 0.294606 0.598047
0.720104 0.329412 0.598047
0 0.184619 0.45864
0.0460822 0.188342 0.466285
0.0921645 0.202289 0.492561
0.13579 0.224994 0.534188
0.180392 0.251957 0.592645
0.38172 0.280385 0.601953
0.506737 0.310384 0.601953
0.619181 0.34461 0.601785
0.724025 0.376959 0.598047
0 0.272053 0.536278
0.0460822 0.27483 0.541054
0.0921645 0.285939 0.562753
0.13579 0.301885 0.59968
0.31078 0.323903 0.610727
0.433036 0.347784 0.609659
0.541665 0.375158 0.605875
0.646448 0.405753 0.604761
0.747677 0.436637 0.601953
0.0944228 0.369604 0.625498
0.15169 0.371939 0.625498
0.229206 0.377447 0.625498
0.316182 0.390753 0.621576
0.408789 0.406409 0.618418
0.501961 0.427863 0.615824
0.59559 0.452018 0.613352
0.691707 0.478965 0.609812
0.786206 0.506859 0.605875
0.253925 0.470588 0.633326
0.301625 0.470588 0.633326
0.360052 0.475975 0.629725
0.426963 0.486275 0.629404
0.500496 0.500008 0.625498
0.580911 0.517159 0.621576
0.662928 0.537926 0.617655
0.75082 0.561761 0.613718
0.837751 0.586282 0.609812
0.363729 0.573587 0.637263
0.410101 0.575311 0.637263
0.464134 0.578897 0.636561
0.52549 0.586511 0.633326
0.590723 0.597757 0.63061
0.662486 0.612802 0.629068
0.737743 0.63003 0.625498
0.818219 0.651652 0.621576
0.899504 0.674083 0.617655
0.46128 0.678431 0.641169
0.508812 0.678798 0.641169
0.561273 0.682628 0.641169
0.617121 0.690196 0.637263
0.679164 0.699077 0.637263
0.745586 0.711498 0.633326
0.814343 0.726467 0.629404
0.888914 0.745281 0.625498
0.96556 0.764706 0.621576
0.556863 0.786282 0.645106
0.603403 0.787549 0.645106
0.654414 0.790112 0.645106
0.709148 0.796735 0.642481
0.767407 0.804318 0.641169
0.830213 0.814832 0.637568
0.896178 0.828962 0.636927
0.953918 0.845594 0.653956
1 0.872053 0.699199
0.635294 0.898039 0.671077
0.681376 0.898039 0.671077
0.727459 0.901961 0.678553
0.773526 0.906798 0.690135
0.819608 0.917647 0.707591
0.86421 0.929412 0.7299
0.907835 0.946075 0.760784
0.953918 0.964706 0.79559
1 0.984314 0.834318
0 0.149996 0.520592
0.0460822 0.153796 0.528069
0.0921645 0.165682 0.550988
0.13579 0.187747 0.5897
0.180392 0.21471 0.641672
0.226474 0.245594 0.703304
0.436515 0.275486 0.722545
0.572549 0.306371 0.721202
0.688228 0.338231 0.718624
0 0.2065 0.540566
0.0460822 0.207843 0.547173
0.0921645 0.222461 0.570001
0.13579 0.241672 0.604898
0.180392 0.267704 0.654902
0.235157 0.295583 0.717174
0.449516 0.325521 0.722545
0.580346 0.356497 0.722545
0.695705 0.387381 0.718624
0 0.287984 0.607843
0.0460822 0.291173 0.611765
0.0921645 0.301595 0.630396
0.13579 0.317525 0.66128
0.180392 0.339467 0.707713
0.360418 0.363394 0.730144
0.495094 0.38854 0.726467
0.613352 0.417395 0.726436
0.719615 0.44828 0.722545
0 0.384436 0.704051
0.0460822 0.386419 0.707973
0.0921645 0.392645 0.72488
0.205447 0.405097 0.74165
0.345403 0.421256 0.740383
0.456245 0.440558 0.738094
0.559808 0.4636 0.73431
0.661631 0.490288 0.730388
0.760784 0.517525 0.728313
0.196567 0.48333 0.753918
0.246571 0.48333 0.753918
0.308095 0.48983 0.753429
0.381003 0.49865 0.749996
0.461769 0.511269 0.746807
0.546075 0.528679 0.744121
0.633463 0.548409 0.742031
0.724025 0.571328 0.738231
0.81471 0.595102 0.73431
0.328313 0.584802 0.757839
0.37557 0.585168 0.757839
0.431678 0.589548 0.757839
0.492943 0.597177 0.757229
0.561456 0.608515 0.753918
0.634928 0.622187 0.749996
0.712261 0.639948 0.746075
0.795285 0.659663 0.743114
0.877943 0.681743 0.739712
0.43505 0.687251 0.762753
0.483452 0.689921 0.762753
0.53431 0.691722 0.761761
0.592157 0.69865 0.761761
0.65539 0.708339 0.757839
0.722911 0.719738 0.756283
0.793317 0.73431 0.753918
0.8701 0.753033 0.749996
0.947051 0.772549 0.746075
0.537743 0.794125 0.76875
0.583825 0.79498 0.76875
0.633829 0.797665 0.765682
0.687739 0.804425 0.765682
0.747555 0.811948 0.763546
0.811276 0.821668 0.761761
0.877943 0.834836 0.757839
0.94963 0.850263 0.754452
1 0.872541 0.778302
0.630396 0.899016 0.773526
0.6766 0.901961 0.773526
0.726467 0.902693 0.771817
0.773526 0.909804 0.776471
0.819608 0.919615 0.787747
0.86421 0.933333 0.80441
0.907835 0.949264 0.827451
0.953918 0.968627 0.854414
1 0.988235 0.888243
0 0.173037 0.60882
0.0460822 0.176959 0.613169
0.0921645 0.188602 0.631861
0.13579 0.206867 0.666484
0.180392 0.233341 0.711269
0.226474 0.260792 0.768627
0.272541 0.291295 0.833951
0.510781 0.322057 0.841184
0.646082 0.352941 0.841184
0 0.229969 0.624506
0.0460822 0.230884 0.631434
0.0921645 0.242527 0.650492
0.13579 0.260502 0.681407
0.180392 0.283818 0.725978
0.226474 0.31078 0.779904
0.290242 0.341344 0.843656
0.522103 0.371695 0.84509
0.653498 0.399939 0.844175
0 0.307225 0.681743
0.0460822 0.309926 0.6878
0.0921645 0.318685 0.703059
0.13579 0.334218 0.731106
0.180392 0.354162 0.771572
0.226474 0.378927 0.823178
0.41593 0.403311 0.849027
0.559976 0.432517 0.849027
0.680766 0.459922 0.84509
0 0.399512 0.769116
0.0460822 0.4 0.773037
0.0921645 0.407721 0.787747
0.13579 0.419425 0.810788
0.180392 0.436851 0.847547
0.374395 0.455192 0.860609
0.504784 0.476783 0.85687
0.619989 0.502129 0.85481
0.725978 0.529107 0.852934
0.0492714 0.498527 0.874022
0.112596 0.500038 0.875975
0.210544 0.505455 0.876219
0.303822 0.513237 0.872541
0.400732 0.52488 0.870588
0.497551 0.542 0.868528
0.592889 0.560052 0.864698
0.689219 0.582635 0.860792
0.783825 0.606134 0.858579
0.276967 0.597055 0.884321
0.325841 0.598337 0.884016
0.383474 0.601938 0.88072
0.449027 0.608713 0.880385
0.520897 0.62034 0.876478
0.59884 0.633646 0.875364
0.681239 0.649027 0.872541
0.765988 0.669993 0.868635
0.853437 0.690684 0.864698
0.400488 0.698161 0.888243
0.446937 0.698528 0.888243
0.500465 0.702358 0.888243
0.560906 0.709804 0.884321
0.624994 0.717891 0.884321
0.693751 0.729595 0.880385
0.767163 0.744549 0.877119
0.846571 0.761166 0.873518
0.924025 0.780392 0.869612
0.510781 0.805386 0.892149
0.556863 0.805386 0.892149
0.606867 0.80856 0.892149
0.662562 0.813275 0.88986
0.722545 0.821103 0.888243
0.788235 0.830961 0.884779
0.854902 0.844617 0.884321
0.927504 0.857664 0.880385
1 0.876478 0.876967
0.607355 0.909804 0.896086
0.653925 0.909804 0.896086
0.703914 0.910292 0.896086
0.757534 0.916365 0.896086
0.815442 0.921813 0.892149
0.86421 0.937255 0.895582
0.907835 0.953918 0.903426
0.953918 0.973037 0.919539
1 0.992645 0.946075
0 0.2 0.694118
0.0460822 0.2 0.698039
0.0921645 0.210788 0.71667
0.13579 0.227451 0.743633
0.180392 0.249012 0.784314
0.226474 0.275975 0.834318
0.272541 0.306859 0.893141
0.328435 0.337743 0.960784
0.580392 0.364706 0.960784
0 0.253925 0.709316
0.0460822 0.253925 0.713237
0.0921645 0.264714 0.728069
0.13579 0.279896 0.758816
0.180392 0.302937 0.797787
0.226474 0.326467 0.845899
0.272541 0.356863 0.904418
0.399145 0.387747 0.964706
0.591669 0.41471 0.964218
0 0.326467 0.758816
0.0460822 0.330266 0.762615
0.0921645 0.337987 0.777447
0.13579 0.351843 0.803433
0.180392 0.371572 0.839216
0.226474 0.394614 0.885786
0.272541 0.419364 0.941176
0.478431 0.445594 0.968627
0.626474 0.475486 0.967651
0 0.415198 0.838727
0.0460822 0.418631 0.842161
0.0921645 0.423041 0.853437
0.13579 0.434806 0.876463
0.180392 0.451225 0.908095
0.226474 0.470649 0.951476
0.410178 0.492164 0.976471
0.559808 0.51519 0.975006
0.679408 0.542153 0.972549
0 0.513726 0.939223
0.0460822 0.513726 0.942885
0.0921645 0.519112 0.954406
0.13579 0.528679 0.975006
0.279408 0.5402 0.990188
0.421576 0.555642 0.988235
0.53579 0.573526 0.984314
0.644846 0.594614 0.982101
0.747051 0.617655 0.980392
0.20882 0.612253 1
0.256672 0.612253 1
0.31667 0.616175 1
0.387259 0.624018 1
0.466667 0.633829 0.998779
0.551476 0.647547 0.996078
0.638727 0.663233 0.992157
0.7299 0.681559 0.988235
0.820096 0.702449 0.985779
0.361761 0.709804 1
0.408331 0.713359 1
0.461769 0.713726 1
0.522545 0.721569 1
0.58677 0.729412 1
0.657847 0.741176 1
0.733089 0.753918 1
0.815808 0.772549 0.996078
0.897063 0.79118 0.992157
0.479896 0.817151 1
0.52604 0.817151 1
0.576471 0.817639 1
0.633829 0.824994 1
0.693629 0.831128 1
0.757351 0.840864 1
0.827939 0.853437 1
0.900923 0.868193 1
0.977935 0.883818 1
0.576471 0.921569 1
0.623041 0.921569 1
0.676463 0.924514 1
0.726467 0.929412 1
0.784314 0.935286 1
0.846082 0.945098 1
0.907835 0.956863 1
0.953918 0.976959 0.992157
1 1 1
