Camo Studio.app/Contents/Resources/CamoContent_CamoContent.bundle/Contents/Resources/GREENSCREEN.cube
TITLE "Generated by Resolve"
LUT_3D_SIZE 9
0 0 0
0.144091 0 0
0.294667 0 0
0.445548 0 0
0.587396 0 0
0.715816 0 0
0.833921 0 0
0.947509 0.00062562 0.00062562
1 0.0106508 0.0106508
0 0.173404 0
0.128588 0.128588 0
0.295689 0.123278 0
0.452873 0.121202 0
0.597284 0.122896 0
0.727672 0.128511 0
0.846891 0.137148 0.000213626
0.960922 0.147051 0.0110628
1 0.156588 0.0213626
0 0.371466 0
0.000900282 0.343954 0
0.280293 0.280293 0
0.441642 0.277119 0
0.589029 0.277623 0
0.721004 0.282109 0
0.840696 0.289616 0
0.954421 0.298299 0.00190738
1 0.306432 0.0115511
0 0.5673 0
0 0.541955 0
0.174517 0.502907 0
0.430457 0.430457 0
0.579065 0.429313 0
0.711711 0.431891 0
0.831113 0.437354 0
0.943709 0.4439 0
1 0.449729 0
0 0.753902 0
0 0.728817 0
0.0661173 0.690211 0
0.381079 0.62002 0
0.571939 0.571939 0
0.703685 0.572015 0
0.821836 0.574853 0
0.932677 0.57882 0
1 0.582162 0
0 0.92636 0
0 0.900084 0
0 0.860426 0
0.257603 0.819669 0
0.567895 0.704372 0
0.699458 0.699458 0
0.815976 0.699855 0
0.924987 0.701411 0
1 0.702419 0
0 1 0
0 1 0
0 1 0
0.178897 0.971786 0
0.44242 0.928557 0
0.698344 0.814862 0
0.813107 0.813107 0
0.92047 0.812741 0
1 0.812055 0
0 1 0
0 1 0
0 1 0
0.105058 1 0
0.36083 1 0
0.647028 0.975937 0
0.810681 0.918547 0
0.917082 0.917082 0
1 0.915526 0
0 1 0
0 1 0
0 1 0
0.0271763 1 0
0.281254 1 0
0.51014 1 0
0.792706 1 0
0.911986 1 0
1 1 0
0 0 0.152621
0.140124 0 0.140124
0.295827 0 0.123339
0.448508 0 0.117342
0.590112 0 0.117021
0.718456 0 0.121157
0.8365 0 0.128801
0.950057 0.00131228 0.138125
1 0.0114443 0.147417
0 0.129473 0.129473
0.128267 0.128267 0.128237
0.302296 0.121874 0.121874
0.457969 0.120668 0.120668
0.60145 0.122881 0.122881
0.731258 0.128801 0.128801
0.850095 0.137621 0.137621
0.963897 0.147601 0.147601
1 0.157168 0.157168
0 0.362234 0.0218509
0 0.338308 0
0.281605 0.281605 0.101442
0.446265 0.277256 0.105104
0.593439 0.277714 0.11017
0.724788 0.282307 0.117464
0.843992 0.28986 0.126787
0.957336 0.298497 0.136706
1 0.306569 0.145739
0 0.558862 0
0 0.535515 0
0.159243 0.496788 0
0.431647 0.431647 0.0933242
0.581903 0.429709 0.0970626
0.714672 0.431937 0.103944
0.833768 0.437232 0.112612
0.945983 0.443565 0.121477
1 0.44921 0.129061
0 0.74548 0
0 0.721614 0
0.05037 0.68365 0
0.33872 0.643366 0
0.572381 0.572381 0.0893568
0.704936 0.571832 0.0930343
0.823209 0.574289 0.0994278
0.933928 0.577951 0.106371
1 0.581048 0.112139
0 0.917449 0
0 0.891981 0
0 0.852888 0
0.243259 0.811872 0
0.551202 0.721904 0
0.698955 0.698955 0.087892
0.815915 0.698878 0.0910811
0.925048 0.700069 0.0955367
1 0.700771 0.0991684
0 1 0
0 1 0
0 1 0
0.163821 0.963241 0
0.42385 0.923842 0
0.6963 0.814145 0.0852064
0.811765 0.811765 0.0872206
0.919478 0.811078 0.089189
1 0.810162 0.0910201
0 1 0
0 1 0
0 1 0
0.0897078 1 0
0.346502 1 0
0.594171 1 0
0.808484 0.917021 0.0850233
0.915328 0.915328 0.0852216
1 0.913619 0.085832
0 1 0
0 1 0
0 1 0
0.0118868 1 0
0.266636 1 0
0.496376 1 0
0.760983 1 0
0.909834 1 0.0805219
1 1 0.0805982
0 0 0.309209
0.130114 0 0.302617
0.291051 0 0.291051
0.447242 0 0.283864
0.589822 0 0.281209
0.718639 0 0.283726
0.836866 0 0.290166
0.950515 0.000289921 0.298528
1 0.0104982 0.307073
0 0.126223 0.29868
0.12607 0.12607 0.306523
0.30016 0.119753 0.30016
0.459083 0.118471 0.290806
0.602823 0.12105 0.288746
0.732464 0.127245 0.29221
0.851148 0.136217 0.299397
0.964797 0.146273 0.308186
1 0.155856 0.316793
0 0.282002 0.282002
0.105394 0.285618 0.285618
0.27953 0.27953 0.279545
0.450858 0.274052 0.274052
0.596338 0.275303 0.275303
0.726711 0.280278 0.280278
0.845304 0.287984 0.287984
0.958251 0.296666 0.296666
1 0.304677 0.304677
0 0.439704 0.269108
0 0.522499 0.188144
0.134371 0.487037 0.134371
0.430579 0.430579 0.25272
0.583764 0.427451 0.257435
0.716213 0.429541 0.264042
0.834684 0.434775 0.271916
0.946395 0.441001 0.279881
1 0.446525 0.28661
0 0.731868 0.114168
0 0.708873 0.0801709
0.0291905 0.672587 0.0291905
0.318929 0.632349 0
0.570581 0.570581 0.245457
0.70454 0.569268 0.24947
0.822904 0.571344 0.255955
0.933394 0.574777 0.262638
1 0.577676 0.267933
0 0.903624 0.0289158
0 0.878737 0
0 0.84062 0
0.222675 0.800061 0
0.491676 0.760006 0
0.696239 0.696239 0.241779
0.813916 0.695613 0.245075
0.923217 0.696422 0.249577
1 0.69688 0.253117
0 1 0
0 1 0
0 0.992294 0
0.143389 0.950454 0
0.404776 0.910689 0
0.682292 0.823117 0.146471
0.808225 0.808225 0.239506
0.916426 0.807187 0.24155
1 0.806027 0.243458
0 1 0
0 1 0
0 1 0
0.0695506 1 0
0.326879 1 0
0.559442 1 0
0.803815 0.913558 0.234592
0.911376 0.911376 0.236561
1 0.909468 0.237263
0 1 0
0 1 0
0 1 0
0 1 0
0.247028 1 0
0.477836 1 0
0.696101 1 0
0.905394 1 0.231449
1 1 0.231525
0 0 0.459083
0.124224 0 0.455131
0.285817 0 0.449073
0.443854 0 0.443854
0.58822 0 0.441169
0.718059 0 0.44303
0.83682 0 0.448707
0.950729 0 0.456367
1 0.00982681 0.464286
0 0.124605 0.455955
0.125628 0.125628 0.462654
0.293202 0.120836 0.461295
0.455604 0.118181 0.455604
0.60206 0.120104 0.452079
0.732677 0.126177 0.453651
0.851652 0.135149 0.459327
0.965362 0.145205 0.466911
1 0.154757 0.474571
0 0.279957 0.444129
0.110445 0.282689 0.451377
0.277699 0.277699 0.454292
0.449042 0.272114 0.449042
0.597421 0.273167 0.442557
0.727886 0.278386 0.443412
0.84622 0.286213 0.448692
0.958907 0.294896 0.455711
1 0.302846 0.46247
0 0.433951 0.433951
0.0995956 0.43772 0.43772
0.257313 0.434989 0.434989
0.428199 0.428229 0.428168
0.587442 0.423941 0.423941
0.718181 0.426657 0.426657
0.835706 0.43209 0.43209
0.946792 0.438331 0.438331
1 0.443778 0.443778
0 0.580804 0.430945
0.0985275 0.583871 0.431312
0.0130465 0.659083 0.349111
0.293858 0.621744 0.293858
0.568612 0.568612 0.402853
0.705074 0.566125 0.40763
0.823148 0.568002 0.413718
0.933135 0.571344 0.419501
1 0.574151 0.42388
0 0.755917 0.412528
0 0.861921 0.304936
0 0.827008 0.254292
0.200809 0.78793 0.200809
0.470069 0.74905 0.152407
0.693385 0.693385 0.396063
0.812314 0.692058 0.399619
0.921767 0.692515 0.40415
1 0.692775 0.407385
0 1 0.264286
0 1 0.22649
0 0.978134 0.176333
0.122972 0.937163 0.122972
0.383856 0.897734 0.073579
0.624796 0.860807 0.0506294
0.804608 0.804608 0.391959
0.913588 0.803143 0.394125
1 0.801724 0.396155
0 1 0.191821
0 1 0.154955
0 1 0.103471
0.0499123 1 0.0499123
0.306249 1 0.000228885
0.540246 0.999603 0
0.788281 0.923033 0.287709
0.907408 0.907408 0.388037
1 0.905257 0.388861
0 1 0.116472
0 1 0.0785534
0 1 0.0264897
0 1 0
0.226947 1 0
0.458442 1 0
0.666621 1 0
0.899962 1 0.371283
1 1 0.38265
0 0 0.595529
0.121614 0 0.593835
0.282933 0 0.590936
0.440925 0 0.587762
0.586542 0 0.586542
0.71751 0 0.588968
0.836973 0 0.59472
0.951293 4.57771e-05 0.602228
1 0.010193 0.609888
0 0.124666 0.597925
0.12636 0.12636 0.603983
0.290333 0.122591 0.603693
0.451774 0.119905 0.601511
0.600107 0.121065 0.600107
0.732296 0.126604 0.601938
0.852064 0.135302 0.607156
0.96611 0.145205 0.61413
1 0.15462 0.621164
0 0.279454 0.589654
0.114473 0.282124 0.59678
0.278248 0.278248 0.598413
0.443229 0.273991 0.597772
0.59498 0.273533 0.594995
0.727779 0.277989 0.594766
0.84686 0.285557 0.598428
0.959686 0.294087 0.604074
1 0.301885 0.609751
0 0.433112 0.582101
0.103838 0.436286 0.587747
0.262898 0.432639 0.588327
0.426856 0.426856 0.589899
0.586038 0.422309 0.586038
0.719234 0.424689 0.581781
0.836683 0.430182 0.583429
0.947478 0.436408 0.587411
1 0.441764 0.591318
0 0.579767 0.579767
0.100191 0.582315 0.582315
0.25388 0.578241 0.578241
0.407874 0.57319 0.57319
0.566064 0.566094 0.566018
0.707866 0.562524 0.562524
0.82446 0.564904 0.564904
0.933639 0.568383 0.568383
1 0.571191 0.571191
0 0.715129 0.58352
0.103716 0.715892 0.582666
0.253986 0.709926 0.574273
0.187503 0.774105 0.499901
0.446433 0.738491 0.446433
0.69102 0.69102 0.543252
0.812207 0.68864 0.547372
0.921492 0.688899 0.551385
1 0.689113 0.55375
0 0.838209 0.590402
0.096788 0.841306 0.584726
0 0.951812 0.474968
0.106615 0.923964 0.414359
0.363058 0.885771 0.363058
0.603204 0.850919 0.319554
0.801541 0.801541 0.536767
0.911772 0.799512 0.539162
1 0.797864 0.541192
0 0.986664 0.576043
0 1 0.466819
0 1 0.389197
0.0335393 1 0.337575
0.286946 1 0.286946
0.520699 0.987152 0.243381
0.734188 0.956466 0.216648
0.904021 0.904021 0.531868
1 0.901564 0.53283
0 1 0.426413
0 1 0.360693
0 1 0.310567
0 1 0.258595
0.208652 1 0.208652
0.439429 1 0.165743
0.64889 1 0.132586
0.875486 1 0.356146
1 1 0.526268
0 0 0.716808
0.121645 0 0.717296
0.282322 0 0.715908
0.439658 0 0.713985
0.585809 0 0.714183
0.717617 0 0.717617
0.837766 0 0.723964
0.952529 0.00192264 0.731731
1 0.0119326 0.739467
0 0.126207 0.723339
0.128374 0.128374 0.729061
0.290288 0.125246 0.729061
0.450202 0.122881 0.72842
0.598825 0.123735 0.728969
0.732113 0.128771 0.732113
0.85275 0.137057 0.737835
0.967315 0.14667 0.744839
1 0.155871 0.751675
0 0.280598 0.717311
0.118441 0.283391 0.723934
0.28014 0.28014 0.724926
0.441566 0.276753 0.725063
0.592508 0.276081 0.725292
0.72694 0.279683 0.72694
0.847272 0.286641 0.730831
0.960678 0.294789 0.736019
1 0.302296 0.741054
0 0.433753 0.711849
0.108797 0.436591 0.717708
0.267643 0.432837 0.71809
0.428016 0.428016 0.718395
0.581338 0.424552 0.718471
0.71751 0.425391 0.71751
0.836896 0.43006 0.718181
0.948257 0.435935 0.720699
1 0.441077 0.723339
0 0.579904 0.710719
0.104143 0.581918 0.714229
0.25835 0.577203 0.711727
0.413336 0.571237 0.709514
0.564996 0.564996 0.70985
0.706676 0.56109 0.706676
0.825406 0.563119 0.702892
0.934585 0.566629 0.703014
1 0.56939 0.703822
0 0.714641 0.714641
0.105592 0.714946 0.714946
0.255619 0.708537 0.708537
0.405188 0.701381 0.701381
0.547906 0.695201 0.695201
0.68867 0.688716 0.688624
0.814649 0.685344 0.685344
0.922728 0.68603 0.68603
1 0.686397 0.686397
0 0.83711 0.721141
0.110872 0.835492 0.718517
0.257908 0.827115 0.708705
0.404395 0.818112 0.697566
0.351431 0.873274 0.629953
0.582132 0.841428 0.582132
0.799451 0.799451 0.668345
0.91191 0.796551 0.67126
1 0.794797 0.672862
0 0.949584 0.725734
0.114977 0.94609 0.720638
0.255039 0.937423 0.707759
0.0627451 1 0.605554
0.272404 1 0.547372
0.502388 0.976699 0.502388
0.716487 0.946792 0.465187
0.901686 0.901686 0.661906
1 0.898787 0.663111
0 1 0.724575
0.0701152 1 0.711223
0 1 0.592798
0 1 0.514214
0.1944 1 0.46627
0.422751 1 0.422751
0.631968 1 0.386435
0.830289 1 0.35906
1 1 0.65597
0 0 0.826535
0.123507 0 0.828962
0.283223 0 0.828016
0.439979 0 0.826871
0.586221 0 0.827985
0.718532 0 0.832258
0.8392 0 0.8392
0.954376 0.00500496 0.847349
1 0.0148623 0.855268
0 0.128893 0.835935
0.131395 0.131395 0.841505
0.291966 0.12871 0.841611
0.450645 0.12665 0.841596
0.598871 0.127489 0.843214
0.732586 0.132204 0.847395
0.853849 0.140139 0.853849
0.968902 0.149432 0.861189
1 0.158343 0.86807
0 0.282994 0.831205
0.122744 0.285924 0.837461
0.28304 0.28304 0.838087
0.442359 0.28014 0.838346
0.591928 0.279622 0.839689
0.726528 0.282811 0.842847
0.847684 0.289204 0.847684
0.96173 0.29688 0.853117
1 0.303975 0.857954
0 0.43566 0.826932
0.113939 0.438315 0.832563
0.272084 0.434623 0.832456
0.430259 0.430259 0.83212
0.58024 0.427451 0.8327
0.715602 0.427955 0.83415
0.836286 0.431754 0.836286
0.948653 0.437003 0.838788
1 0.441718 0.840864
0 0.581155 0.826551
0.10901 0.582773 0.830213
0.26334 0.577646 0.827832
0.417884 0.571496 0.825406
0.566064 0.566064 0.824643
0.70251 0.563058 0.824811
0.823789 0.563714 0.823789
0.934676 0.566491 0.822904
1 0.568917 0.822263
0 0.715145 0.830625
0.109133 0.714992 0.831418
0.259373 0.70811 0.825849
0.409339 0.700374 0.820096
0.552773 0.693401 0.816495
0.687663 0.687663 0.816617
0.813489 0.684016 0.813489
0.923583 0.684398 0.80856
1 0.684825 0.80589
0 0.836942 0.836942
0.112795 0.834943 0.834943
0.259678 0.826185 0.826185
0.405905 0.816785 0.816785
0.544915 0.808637 0.808637
0.672297 0.803037 0.803037
0.797528 0.797498 0.797543
0.914534 0.793759 0.793759
1 0.792477 0.792477
0 0.948806 0.841154
0.11545 0.945052 0.836713
0.260029 0.934691 0.825467
0.404196 0.92401 0.813535
0.541436 0.914839 0.802487
0.490196 0.966674 0.738674
0.698116 0.938888 0.698116
0.900359 0.900359 0.778927
1 0.896696 0.780682
0 1 0.839704
0.113771 1 0.833814
0.25713 1 0.821149
0.38117 1 0.805112
0.193362 1 0.697444
0.410513 1 0.654093
0.616419 1 0.616419
0.815915 1 0.584207
1 1 0.772015
0 0 0.931823
0.126253 0 0.935668
0.285008 0 0.934768
0.44126 0 0.934081
0.587396 0 0.935729
0.719936 0 0.940536
0.84094 0 0.947936
0.95639 0.00868238 0.95639
1 0.0183871 0.964446
0 0.132082 0.943008
0.134844 0.134844 0.948501
0.294469 0.132479 0.948669
0.452171 0.130678 0.948928
0.599878 0.131563 0.951034
0.733593 0.136156 0.95584
0.855146 0.143832 0.962829
0.970504 0.152834 0.970504
1 0.161456 0.977462
0 0.286 0.938964
0.127092 0.289021 0.944961
0.286366 0.286366 0.945373
0.444282 0.283772 0.945602
0.592645 0.283391 0.947311
0.726833 0.286442 0.951202
0.848173 0.292439 0.956756
0.9626 0.299687 0.9626
1 0.306355 0.967422
0 0.438178 0.93518
0.118883 0.440726 0.940551
0.27628 0.437064 0.940078
0.432944 0.432944 0.93933
0.58088 0.430442 0.939864
0.714885 0.43093 0.942107
0.835554 0.434287 0.945373
0.948501 0.438956 0.948501
1 0.443183 0.95053
0 0.583001 0.934981
0.113848 0.584268 0.938476
0.267933 0.578912 0.935866
0.421607 0.572732 0.933013
0.567666 0.567666 0.931655
0.701076 0.565179 0.932219
0.821546 0.565545 0.933272
0.933486 0.567575 0.933486
1 0.569421 0.932586
0 0.716182 0.938827
0.113191 0.715602 0.939712
0.263508 0.708354 0.934325
0.413474 0.700267 0.928756
0.556359 0.693156 0.925063
0.688106 0.688106 0.924269
0.809186 0.685283 0.924163
0.921523 0.68452 0.921523
1 0.684352 0.917662
0 0.837247 0.944762
0.115648 0.834836 0.943008
0.262592 0.825696 0.934737
0.408988 0.8159 0.926146
0.548257 0.807294 0.919387
0.676265 0.801053 0.916274
0.796277 0.796277 0.916945
0.913252 0.792416 0.913252
1 0.790951 0.906523
0 0.948486 0.948486
0.117098 0.944442 0.944442
0.261631 0.933852 0.933852
0.405722 0.922911 0.922911
0.542779 0.913512 0.913512
0.667903 0.907042 0.907042
0.78204 0.903334 0.903334
0.898772 0.898833 0.898741
1 0.894392 0.894392
0 1 0.9467
0.114504 1 0.941253
0.25771 1 0.929244
0.400732 1 0.91693
0.537072 1 0.906035
0.661616 1 0.897749
0.605722 1 0.835218
0.799329 1 0.799329
1 1 0.880369
0 0 1
0.12903 0 1
0.287053 0 1
0.442878 0 1
0.588846 0 1
0.721447 0 1
0.842603 0.00260929 1
0.958221 0.0123751 1
1 0.0219272 1
0 0.135271 1
0.138231 0.138231 1
0.297139 0.13611 1
0.454093 0.134493 1
0.601282 0.135454 1
0.734813 0.139971 1
0.856382 0.147478 1
0.971832 0.156252 1
1 0.164614 1
0 0.289021 1
0.131151 0.292119 1
0.289616 0.289616 1
0.446479 0.287175 1
0.593896 0.2869 1
0.727489 0.28986 1
0.848646 0.295628 1
0.963104 0.302525 1
1 0.308797 1
0 0.440757 1
0.123308 0.443198 1
0.280003 0.439551 1
0.435508 0.435508 1
0.58204 0.433127 1
0.714855 0.433616 1
0.834958 0.436744 1
0.94789 0.441032 1
1 0.444831 1
0 0.584863 1
0.11812 0.58584 1
0.271778 0.580301 1
0.424582 0.574075 1
0.569162 0.569162 1
0.70074 0.566918 1
0.819913 0.567285 1
0.931701 0.568933 1
1 0.57026 1
0 0.71722 1
0.116915 0.716274 1
0.26714 0.708736 1
0.416754 0.700435 1
0.558755 0.693309 1
0.688579 0.688579 1
0.806943 0.686229 1
0.918364 0.685283 1
1 0.684504 1
0 0.837522 1
0.118517 0.834714 1
0.265492 0.825238 1
0.411917 0.815137 1
0.55111 0.806317 1
0.678645 0.800015 1
0.795956 0.795956 1
0.908461 0.792966 1
1 0.790539 1
0 0.948089 1
0.119036 0.943755 1
0.26363 0.932921 1
0.407843 0.921752 1
0.545037 0.912093 1
0.670436 0.905303 1
0.785275 0.901091 1
0.897322 0.897322 1
1 0.892897 1
0 1 1
0.115694 1 1
0.25893 1 1
0.401984 1 1
0.538277 1 1
0.662776 1 1
0.775906 1 1
0.882963 1 1
0.999573 0.999573 0.999573
