Camo Studio.app/Contents/Resources/CamoContent_CamoContent.bundle/Contents/Resources/GREENSCREEN.cube
TITLE "Generated by Resolve"
LUT_3D_SIZE 33
0 0 0
0.0337835 0 0
0.0688487 0 0
0.106737 0 0
0.144091 0 0
0.181521 0 0
0.219089 0 0
0.256794 0 0
0.294667 0 0
0.332586 0 0
0.370489 0 0
0.408194 0 0
0.445548 0 0
0.482292 0 0
0.518257 0 0
0.553292 0 0
0.587396 0 0
0.620676 0 0
0.653162 0 0
0.684871 0 0
0.715816 0 0
0.74609 0 0
0.775799 0 0
0.805035 0 0
0.833921 0 0
0.862501 0 0
0.890913 0 0
0.919219 0 0
0.947509 0.00062562 0.00062562
0.97586 0.00318914 0.00318914
1 0.00572213 0.00572213
1 0.0081178 0.0081178
1 0.0106508 0.0106508
0 0.0386206 0
0.0250858 0.0250858 0
0.0624399 0.0218204 0
0.10248 0.0183108 0
0.141497 0.0156252 0
0.180484 0.0134585 0
0.219608 0.01178 0
0.258869 0.0105898 0
0.298131 0.00976577 0
0.33724 0.00927749 0
0.375998 0.00901808 0
0.414237 0.00891127 0
0.451743 0.00888075 0
0.488457 0.00898756 0
0.524346 0.00936904 0
0.559396 0.00999466 0
0.593606 0.0108644 0
0.626993 0.0119783 0
0.659571 0.0133364 0
0.691356 0.0149081 0
0.722377 0.0167239 0
0.752697 0.0187381 0
0.782467 0.0209049 0
0.811749 0.023209 0
0.840665 0.0256352 0
0.869276 0.0281376 0
0.897704 0.0307012 0.00143435
0.926009 0.0332952 0.00404364
0.954299 0.0359045 0.00665293
0.982651 0.0384833 0.00923171
1 0.0410163 0.0117647
1 0.0434119 0.0141756
1 0.0459449 0.0166934
0 0.0779431 0
0 0.0698253 0
0.0545205 0.0545205 0
0.0977493 0.0516976 0
0.139544 0.0497749 0
0.180713 0.0484321 0
0.221485 0.0474556 0
0.261891 0.0466926 0
0.301854 0.0460212 0
0.341283 0.0453956 0
0.380194 0.044892 0
0.41854 0.0445716 0
0.45626 0.0444495 0
0.493233 0.0445716 0
0.529366 0.0449226 0
0.564599 0.0455482 0
0.598993 0.0464027 0
0.632547 0.0475166 0
0.665278 0.0488594 0
0.697215 0.0504311 0
0.728359 0.0522316 0
0.758801 0.0542458 0
0.788663 0.0563973 0
0.818036 0.0587015 0
0.847013 0.0611124 0.00189212
0.8757 0.0635996 0.00448615
0.904173 0.0661326 0.00712596
0.932525 0.0687266 0.00979629
0.960861 0.0713054 0.0124666
0.989242 0.0738537 0.0151064
1 0.0763714 0.0176852
1 0.0787366 0.0201267
1 0.0812238 0.0226749
0 0.124117 0
0 0.117891 0
0.019913 0.110628 0
0.0909133 0.0909133 0
0.134264 0.0892042 0
0.176577 0.0877241 0
0.218051 0.0863966 0
0.25893 0.0852827 0
0.29929 0.0843519 0
0.339147 0.0836042 0
0.378439 0.0830396 0
0.417136 0.0826734 0
0.455146 0.0825055 0
0.492378 0.0825818 0
0.52874 0.0829023 0
0.564202 0.0834974 0
0.598795 0.0843366 0
0.632517 0.08542 0
0.665415 0.0867475 0
0.697475 0.0882887 0
0.72874 0.0900587 0
0.759289 0.0920424 0
0.789242 0.0941787 0
0.818708 0.0964523 0
0.847761 0.0988174 0.0018616
0.876509 0.101274 0.00451667
0.905028 0.103807 0.00721752
0.933425 0.10634 0.00993362
0.961791 0.108888 0.0126497
0.990188 0.111406 0.0153353
1 0.113863 0.0179446
1 0.116182 0.0204166
1 0.118608 0.0229801
0 0.173404 0
0 0.167834 0
0 0.161746 0
0.0623941 0.150057 0
0.128588 0.128588 0
0.171298 0.12694 0
0.213382 0.125521 0
0.254841 0.1243 0
0.295689 0.123278 0
0.335958 0.122454 0
0.375616 0.121828 0
0.414603 0.121401 0
0.452873 0.121202 0
0.490349 0.121233 0
0.526909 0.121523 0
0.562554 0.122087 0
0.597284 0.122896 0
0.631144 0.123949 0
0.664149 0.125246 0
0.696315 0.126772 0
0.727672 0.128511 0
0.758297 0.130465 0
0.788296 0.13257 0
0.817807 0.134798 0
0.846891 0.137148 0.000213626
0.875654 0.139574 0.00289921
0.904173 0.142046 0.00561532
0.932586 0.144564 0.00836194
0.960922 0.147051 0.0110628
0.989319 0.149523 0.0137484
1 0.151949 0.0163577
1 0.154208 0.0188144
1 0.156588 0.0213626
0 0.222934 0
0 0.21735 0
0 0.211978 0
0.0252689 0.202228 0
0.115984 0.176364 0
0.166278 0.166278 0
0.208713 0.164828 0
0.250599 0.163546 0
0.291875 0.162432 0
0.332555 0.161532 0
0.372564 0.16083 0
0.411872 0.160342 0
0.450416 0.160067 0
0.488121 0.160037 0
0.52491 0.160266 0
0.560739 0.160784 0
0.595621 0.161547 0
0.629618 0.162554 0
0.662745 0.163806 0
0.695018 0.16527 0
0.726452 0.166964 0
0.757137 0.168872 0
0.787198 0.170932 0
0.816739 0.173114 0
0.845853 0.175418 0
0.874617 0.177783 0.00114443
0.903166 0.180209 0.00387579
0.931548 0.182666 0.00660716
0.959884 0.185107 0.00932326
0.988251 0.187518 0.0119936
1 0.189868 0.0145876
1 0.19205 0.0170138
1 0.194369 0.0195468
0 0.272404 0
0 0.266926 0
0 0.262028 0
0 0.25301 0
0.067628 0.242405 0
0.160739 0.207004 0
0.204166 0.204166 0
0.246296 0.202869 0
0.287892 0.201724 0
0.328878 0.200732 0
0.369223 0.199954 0
0.40882 0.19939 0
0.447639 0.199039 0
0.485588 0.198947 0
0.522576 0.199115 0
0.558587 0.199542 0
0.593637 0.200244 0
0.627756 0.20119 0
0.66099 0.202365 0
0.693355 0.203784 0
0.72488 0.205417 0
0.755611 0.207248 0
0.785733 0.209247 0
0.81529 0.211368 0
0.844419 0.213611 0
0.873198 0.215915 0
0.901717 0.218265 0.00172427
0.930083 0.220645 0.00445563
0.958389 0.223026 0.00715648
0.986725 0.22536 0.00979629
1 0.227619 0.0123598
1 0.22974 0.0147555
1 0.231968 0.017258
0 0.32192 0
0 0.316487 0
0 0.312001 0
0 0.303578 0
0.0336614 0.293339 0
0.109682 0.282918 0
0.200061 0.243503 0
0.242222 0.242222 0
0.283986 0.241062 0
0.325216 0.240024 0
0.365789 0.239185 0
0.405631 0.238529 0
0.444678 0.238102 0
0.482856 0.237919 0
0.520058 0.23801 0
0.556222 0.238361 0
0.591424 0.238987 0
0.625666 0.239841 0
0.659007 0.240955 0
0.691463 0.242283 0
0.723049 0.243839 0
0.753841 0.245609 0
0.783978 0.247517 0
0.813565 0.249561 0
0.842695 0.251713 0
0.871458 0.253941 0
0.899977 0.256214 0
0.928313 0.258518 0.00201419
0.956573 0.260792 0.00466926
0.984848 0.263035 0.00727855
1 0.265217 0.00979629
1 0.267247 0.0121462
1 0.269368 0.0145724
0 0.371466 0
0 0.366033 0
0 0.361837 0
0 0.353887 0
0.000900282 0.343954 0
0.0760967 0.333822 0
0.157931 0.317906 0
0.238514 0.281453 0
0.280293 0.280293 0
0.321614 0.27924 0
0.362356 0.27834 0
0.402396 0.277623 0
0.441642 0.277119 0
0.480003 0.276844 0
0.517357 0.276829 0
0.553704 0.277089 0
0.589029 0.277623 0
0.623392 0.278401 0
0.656825 0.279408 0
0.689357 0.280659 0
0.721004 0.282109 0
0.751827 0.283787 0
0.781994 0.285618 0
0.811582 0.287556 0
0.840696 0.289616 0
0.869444 0.291752 0
0.897917 0.293919 0
0.926207 0.296117 0
0.954421 0.298299 0.00190738
0.982635 0.300435 0.00445563
1 0.30251 0.0069276
1 0.304417 0.00920119
1 0.306432 0.0115511
0 0.420874 0
0 0.415442 0
0 0.41146 0
0 0.403861 0
0 0.394171 0
0.0436713 0.384283 0
0.118837 0.374136 0
0.213458 0.343481 0
0.276921 0.319326 0
0.318257 0.318257 0
0.35906 0.317311 0
0.399207 0.316533 0
0.43859 0.315953 0
0.477089 0.315587 0
0.514611 0.31548 0
0.551064 0.315633 0
0.586511 0.31606 0
0.620981 0.316732 0
0.65449 0.317647 0
0.687083 0.318791 0
0.718776 0.320134 0
0.74963 0.321706 0
0.779797 0.32343 0
0.809384 0.325261 0
0.838483 0.327214 0
0.867216 0.329244 0
0.895644 0.331304 0
0.923873 0.333379 0
0.95201 0.335439 0
0.980148 0.337484 0.00140383
1 0.339422 0.00378424
1 0.341207 0.00598154
1 0.343099 0.00825513
0 0.470069 0
0 0.464591 0
0 0.460761 0
0 0.453483 0
0 0.443976 0
0.0123903 0.434302 0
0.0869306 0.424323 0
0.161822 0.414191 0
0.26537 0.368627 0
0.315221 0.357 0
0.356023 0.356023 0
0.396201 0.355169 0
0.43566 0.354513 0
0.47425 0.35407 0
0.511879 0.353857 0
0.54844 0.353918 0
0.583978 0.354238 0
0.618509 0.354788 0
0.652079 0.355581 0
0.684718 0.356603 0
0.716442 0.357855 0
0.747326 0.359289 0
0.777493 0.360891 0
0.80705 0.362615 0
0.836118 0.364431 0
0.86479 0.366339 0
0.893172 0.368277 0
0.92134 0.37023 0
0.949401 0.372168 0
0.977447 0.37406 0
1 0.375875 0.000442512
1 0.377523 0.00254826
1 0.379248 0.00469978
0 0.518914 0
0 0.51339 0
0 0.509682 0
0 0.502647 0
0 0.493278 0
0 0.483742 0
0.056199 0.473915 0
0.130587 0.463905 0
0.208362 0.450904 0
0.309941 0.399145 0
0.353292 0.394354 0
0.393469 0.393469 0
0.432929 0.392737 0
0.471565 0.392187 0
0.509255 0.391867 0
0.545876 0.391821 0
0.581476 0.39202 0
0.616053 0.392462 0
0.649668 0.393133 0
0.682338 0.394018 0
0.714076 0.395117 0
0.744945 0.396429 0
0.775097 0.39791 0
0.804623 0.399496 0
0.833646 0.40119 0
0.862272 0.402945 0
0.890562 0.404746 0
0.918654 0.406561 0
0.946609 0.408347 0
0.974563 0.410101 0
1 0.411765 0
1 0.413336 0
1 0.414832 0.000961318
0 0.5673 0
0 0.561715 0
0 0.558083 0
0 0.551247 0
0 0.541955 0
0 0.532555 0
0.0266423 0.522835 0
0.100526 0.512917 0
0.174517 0.502907 0
0.262745 0.478965 0
0.350423 0.433112 0
0.391043 0.431266 0
0.430457 0.430457 0
0.469093 0.429831 0
0.506798 0.429419 0
0.54345 0.429236 0
0.579065 0.429313 0
0.613672 0.429618 0
0.647303 0.430152 0
0.679973 0.430915 0
0.711711 0.431891 0
0.742565 0.433051 0
0.772671 0.434363 0
0.802167 0.435828 0
0.831113 0.437354 0
0.859663 0.438972 0
0.887861 0.44062 0
0.915846 0.442267 0
0.943709 0.4439 0
0.971527 0.445487 0
0.999405 0.446983 0
1 0.448402 0
1 0.449729 0
0 0.615076 0
0 0.609415 0
0 0.605829 0
0 0.599176 0
0 0.589975 0
0 0.580636 0
0 0.571008 0
0.0717784 0.561151 0
0.145327 0.551186 0
0.218662 0.541222 0
0.320241 0.500465 0
0.389013 0.468589 0
0.428367 0.467674 0
0.466926 0.466926 0
0.504601 0.466407 0
0.541253 0.466117 0
0.576867 0.466056 0
0.61146 0.466224 0
0.645075 0.466621 0
0.677729 0.467231 0
0.709438 0.46804 0
0.740246 0.469047 0
0.770306 0.470222 0
0.799725 0.471504 0
0.828611 0.472892 0
0.857038 0.474327 0
0.885145 0.475807 0
0.913024 0.477287 0
0.940749 0.478752 0
0.96846 0.480186 0
0.996216 0.481544 0
1 0.482795 0
1 0.483955 0
0 0.662181 0
0 0.656428 0
0 0.652857 0
0 0.646326 0
0 0.637186 0
0 0.627894 0
0 0.618296 0
0.0443732 0.608499 0
0.11751 0.598566 0
0.190478 0.588617 0
0.266377 0.575769 0
0.373754 0.521737 0
0.426673 0.504219 0
0.465156 0.503395 0
0.502754 0.502754 0
0.539345 0.502342 0
0.574914 0.502129 0
0.609461 0.502159 0
0.643046 0.502403 0
0.675639 0.502861 0
0.707301 0.503517 0
0.738048 0.504341 0
0.768032 0.505333 0
0.79736 0.506447 0
0.826139 0.507668 0
0.85449 0.508949 0
0.882475 0.510246 0
0.910246 0.511574 0
0.937865 0.512886 0
0.965438 0.514153 0
0.993057 0.515343 0
1 0.516442 0
1 0.517449 0
0 0.708461 0
0 0.702602 0
0 0.699031 0
0 0.692607 0
0 0.683467 0
0 0.674189 0
0 0.664622 0
0.0184176 0.654826 0
0.0911116 0.644907 0
0.163684 0.634943 0
0.235828 0.625025 0
0.321492 0.601877 0
0.420035 0.547463 0
0.463798 0.539117 0
0.501289 0.538354 0
0.537789 0.537789 0
0.573266 0.537438 0
0.607752 0.537316 0
0.641245 0.537392 0
0.673777 0.537682 0
0.705364 0.538155 0
0.736034 0.538827 0
0.765942 0.539651 0
0.795178 0.540612 0
0.823865 0.54165 0
0.85211 0.542763 0
0.880003 0.543923 0
0.907652 0.545083 0
0.935164 0.546242 0
0.962615 0.547356 0
0.990112 0.548394 0
1 0.54934 0
1 0.550195 0
0 0.753902 0
0 0.747936 0
0 0.74432 0
0 0.737957 0
0 0.728817 0
0 0.719524 0
0 0.709957 0
0 0.70016 0
0.0661173 0.690211 0
0.138308 0.680232 0
0.210101 0.670268 0
0.281422 0.660212 0
0.381079 0.62002 0
0.461173 0.576684 0
0.500191 0.573144 0
0.536568 0.572442 0
0.571939 0.571939 0
0.606317 0.571649 0
0.639735 0.571572 0
0.672175 0.571694 0
0.703685 0.572015 0
0.734279 0.572519 0
0.764096 0.57319 0
0.79324 0.573968 0
0.821836 0.574853 0
0.849973 0.575814 0
0.87776 0.576806 0
0.905303 0.577813 0
0.932677 0.57882 0
0.960006 0.579767 0
0.987381 0.580667 0
1 0.58146 0
1 0.582162 0
0 0.798444 0
0 0.79234 0
0 0.788678 0
0 0.782361 0
0 0.77319 0
0 0.763867 0
0 0.754253 0
0 0.744411 0
0.0423743 0.734447 0
0.114168 0.724407 0
0.185595 0.714382 0
0.256352 0.704448 0
0.332067 0.68954 0
0.438025 0.635767 0
0.499107 0.60766 0
0.535653 0.606256 0
0.570901 0.605615 0
0.605173 0.605173 0
0.638483 0.604944 0
0.670848 0.604898 0
0.702251 0.605051 0
0.732769 0.605402 0
0.762478 0.605905 0
0.791531 0.606546 0
0.82002 0.607279 0
0.848051 0.608072 0
0.875731 0.608911 0
0.903151 0.609766 0
0.930419 0.61062 0
0.957641 0.611429 0
0.984878 0.612161 0
1 0.612818 0
1 0.613367 0
0 0.842069 0
0 0.835813 0
0 0.832074 0
0 0.825772 0
0 0.816556 0
0 0.807172 0
0 0.797498 0
0 0.78761 0
0.019791 0.777554 0
0.0912032 0.767452 0
0.162264 0.757336 0
0.2327 0.747326 0
0.30219 0.737484 0
0.388907 0.710475 0
0.48748 0.654841 0
0.535042 0.639277 0
0.570169 0.638483 0
0.604318 0.637903 0
0.637507 0.637507 0
0.669764 0.637308 0
0.701076 0.637308 0
0.731487 0.637507 0
0.761105 0.637858 0
0.790051 0.638331 0
0.818448 0.638911 0
0.846372 0.639551 0
0.873945 0.640238 0
0.901244 0.640955 0
0.928389 0.641657 0
0.955474 0.642298 0
0.982605 0.642908 0
1 0.643412 0
1 0.643809 0
0 0.884718 0
0 0.878294 0
0 0.874464 0
0 0.868147 0
0 0.858854 0
0 0.849393 0
0 0.839643 0
0 0.829664 0
0 0.819547 0
0.0693217 0.809354 0
0.140032 0.799176 0
0.210132 0.789075 0
0.279362 0.779141 0
0.349691 0.767544 0
0.448829 0.724132 0
0.529976 0.678203 0
0.56968 0.670527 0
0.603708 0.669795 0
0.63679 0.669276 0
0.668925 0.668925 0
0.700145 0.668788 0
0.730449 0.668818 0
0.75996 0.669017 0
0.788815 0.669352 0
0.81709 0.669764 0
0.844907 0.670268 0
0.872358 0.670802 0
0.89955 0.671366 0
0.926574 0.671916 0
0.953536 0.672419 0
0.980529 0.672877 0
1 0.673243 0
1 0.673487 0
0 0.92636 0
0 0.919585 0
0 0.915801 0
0 0.909453 0
0 0.900084 0
0 0.890532 0
0 0.88069 0
0 0.870634 0
0 0.860426 0
0.0484932 0.850156 0
0.118868 0.839887 0
0.188663 0.829709 0
0.257603 0.819669 0
0.325383 0.809888 0
0.403143 0.790173 0
0.505211 0.736156 0
0.567895 0.704372 0
0.603387 0.700923 0
0.636332 0.700236 0
0.66836 0.699748 0
0.699458 0.699458 0
0.729671 0.699351 0
0.759075 0.699413 0
0.787808 0.69958 0
0.815976 0.699855 0
0.843671 0.700206 0
0.871015 0.700603 0
0.898085 0.701015 0
0.924987 0.701411 0
0.951812 0.701778 0
0.978683 0.702098 0
1 0.702312 0
1 0.702419 0
0 0.966934 0
0 0.960037 0
0 0.956085 0
0 0.949691 0
0 0.940246 0
0 0.930587 0
0 0.920653 0
0 0.910506 0
0 0.900221 0
0.0286412 0.88986 0
0.0987106 0.879515 0
0.168185 0.869245 0
0.236851 0.859113 0
0.304402 0.84921 0
0.371435 0.838911 0
0.461158 0.805051 0
0.554223 0.751308 0
0.60296 0.731853 0
0.636118 0.730419 0
0.668025 0.729793 0
0.699016 0.729351 0
0.729107 0.729107 0
0.758389 0.729 0
0.787015 0.729046 0
0.815076 0.729168 0
0.842649 0.729381 0
0.869871 0.729625 0
0.896819 0.7299 0
0.923598 0.730159 0
0.950317 0.730404 0
0.977066 0.730587 0
1 0.730678 0
1 0.730663 0
0 1 0
0 0.999542 0
0 0.995407 0
0 0.988983 0
0 0.979446 0
0 0.96968 0
0 0.959655 0
0 0.949432 0
0 0.939055 0
0.00961318 0.928603 0
0.0793622 0.918151 0
0.148577 0.90779 0
0.216968 0.897566 0
0.284276 0.887556 0
0.35021 0.877852 0
0.421973 0.862013 0
0.519463 0.814954 0
0.59617 0.770794 0
0.636088 0.759915 0
0.667872 0.759106 0
0.698741 0.758526 0
0.728725 0.758129 0
0.7579 0.7579 0
0.786404 0.757794 0
0.814328 0.757778 0
0.84181 0.757839 0
0.86891 0.757946 0
0.89575 0.758099 0
0.922423 0.758251 0
0.949035 0.758358 0
0.975677 0.758434 0
1 0.758419 0
1 0.758297 0
0 1 0
0 1 0
0 1 0
0 1 0
0 1 0
0 1 0
0 0.997772 0
0 0.987442 0
0 0.976974 0
0 0.96643 0
0.0606394 0.955886 0
0.129564 0.945418 0
0.197696 0.935088 0
0.264759 0.924987 0
0.330495 0.91516 0
0.394903 0.90547 0
0.476753 0.878172 0
0.572915 0.824765 0
0.633097 0.793286 0
0.667796 0.787732 0
0.698543 0.787015 0
0.728405 0.78648 0
0.757458 0.786099 0
0.785855 0.785855 0
0.813687 0.785718 0
0.841062 0.785672 0
0.86807 0.785672 0
0.894804 0.785702 0
0.921401 0.785733 0
0.947906 0.785763 0
0.974472 0.785733 0
1 0.785626 0
1 0.785397 0
0 1 0
0 1 0
0 1 0
0 1 0
0 1 0
0 1 0
0 1 0
0 1 0
0 1 0
0 1 0
0.0423438 0.992782 0
0.111009 0.982208 0
0.178897 0.971786 0
0.245731 0.961563 0
0.311254 0.951629 0
0.375174 0.942077 0
0.44242 0.928557 0
0.533303 0.888533 0
0.618952 0.838148 0
0.666651 0.817502 0
0.698344 0.814862 0
0.728099 0.814206 0
0.757061 0.813703 0
0.785367 0.813352 0
0.813107 0.813107 0
0.840391 0.812955 0
0.867323 0.812863 0
0.89398 0.812787 0
0.92047 0.812741 0
0.946914 0.812665 0
0.973388 0.812558 0
0.999985 0.812375 0
1 0.812055 0
0 1 0
0 1 0
0 1 0
0 1 0
0 1 0
0 1 0
0 1 0
0 1 0
0 1 0
0 1 0
0.0243381 1 0
0.0927291 1 0
0.160372 1 0
0.226963 0.997375 0
0.292287 0.98732 0
0.356023 0.977646 0
0.418128 0.968292 0
0.493462 0.945754 0
0.587045 0.897078 0
0.658427 0.855497 0
0.697902 0.842588 0
0.72781 0.841398 0
0.756695 0.840818 0
0.784909 0.84036 0
0.812558 0.840024 0
0.839765 0.839765 0
0.866606 0.839582 0
0.893202 0.839429 0
0.919631 0.839292 0
0.945998 0.839155 0
0.972381 0.838956 0
0.998917 0.838712 0
1 0.838331 0
0 1 0
0 1 0
0 1 0
0 1 0
0 1 0
0 1 0
0 1 0
0 1 0
0 1 0
0 1 0
0.00640879 1 0
0.0745556 1 0
0.14197 1 0
0.208362 1 0
0.273503 1 0
0.337072 1 0
0.398932 1 0
0.462547 0.991318 0
0.546517 0.957702 0
0.635981 0.906325 0
0.693248 0.875822 0
0.727459 0.868193 0
0.756268 0.867475 0
0.784421 0.866941 0
0.812009 0.866514 0
0.839139 0.866178 0
0.865919 0.865919 0
0.892439 0.865705 0
0.918807 0.865492 0
0.945113 0.865278 0
0.97145 0.865034 0
0.997909 0.864729 0
1 0.864286 0
0 1 0
0 1 0
0 1 0
0 1 0
0 1 0
0 1 0
0 1 0
0 1 0
0 1 0
