Camo Studio.app/Contents/Resources/CamoContent_CamoContent.bundle/Contents/Resources/GREENSCREEN.cube
TITLE "Generated by Resolve"
LUT_3D_SIZE 5
0 0 0
0.294667 0 0
0.587396 0 0
0.833921 0 0
1 0.0106508 0.0106508
0 0.371466 0
0.280293 0.280293 0
0.589029 0.277623 0
0.840696 0.289616 0
1 0.306432 0.0115511
0 0.753902 0
0.0661173 0.690211 0
0.571939 0.571939 0
0.821836 0.574853 0
1 0.582162 0
0 1 0
0 1 0
0.44242 0.928557 0
0.813107 0.813107 0
1 0.812055 0
0 1 0
0 1 0
0.281254 1 0
0.792706 1 0
1 1 0
0 0 0.309209
0.291051 0 0.291051
0.589822 0 0.281209
0.836866 0 0.290166
1 0.0104982 0.307073
0 0.282002 0.282002
0.27953 0.27953 0.279545
0.596338 0.275303 0.275303
0.845304 0.287984 0.287984
1 0.304677 0.304677
0 0.731868 0.114168
0.0291905 0.672587 0.0291905
0.570581 0.570581 0.245457
0.822904 0.571344 0.255955
1 0.577676 0.267933
0 1 0
0 0.992294 0
0.404776 0.910689 0
0.808225 0.808225 0.239506
1 0.806027 0.243458
0 1 0
0 1 0
0.247028 1 0
0.696101 1 0
1 1 0.231525
0 0 0.595529
0.282933 0 0.590936
0.586542 0 0.586542
0.836973 0 0.59472
1 0.010193 0.609888
0 0.279454 0.589654
0.278248 0.278248 0.598413
0.59498 0.273533 0.594995
0.84686 0.285557 0.598428
1 0.301885 0.609751
0 0.579767 0.579767
0.25388 0.578241 0.578241
0.566064 0.566094 0.566018
0.82446 0.564904 0.564904
1 0.571191 0.571191
0 0.838209 0.590402
0 0.951812 0.474968
0.363058 0.885771 0.363058
0.801541 0.801541 0.536767
1 0.797864 0.541192
0 1 0.426413
0 1 0.310567
0.208652 1 0.208652
0.64889 1 0.132586
1 1 0.526268
0 0 0.826535
0.283223 0 0.828016
0.586221 0 0.827985
0.8392 0 0.8392
1 0.0148623 0.855268
0 0.282994 0.831205
0.28304 0.28304 0.838087
0.591928 0.279622 0.839689
0.847684 0.289204 0.847684
1 0.303975 0.857954
0 0.581155 0.826551
0.26334 0.577646 0.827832
0.566064 0.566064 0.824643
0.823789 0.563714 0.823789
1 0.568917 0.822263
0 0.836942 0.836942
0.259678 0.826185 0.826185
0.544915 0.808637 0.808637
0.797528 0.797498 0.797543
1 0.792477 0.792477
0 1 0.839704
0.25713 1 0.821149
0.193362 1 0.697444
0.616419 1 0.616419
1 1 0.772015
0 0 1
0.287053 0 1
0.588846 0 1
0.842603 0.00260929 1
1 0.0219272 1
0 0.289021 1
0.289616 0.289616 1
0.593896 0.2869 1
0.848646 0.295628 1
1 0.308797 1
0 0.584863 1
0.271778 0.580301 1
0.569162 0.569162 1
0.819913 0.567285 1
1 0.57026 1
0 0.837522 1
0.265492 0.825238 1
0.55111 0.806317 1
0.795956 0.795956 1
1 0.790539 1
0 1 1
0.25893 1 1
0.538277 1 1
0.775906 1 1
0.999573 0.999573 0.999573
