Camo Studio.app/Contents/Resources/CamoContent_CamoContent.bundle/Contents/Resources/JUST_RGB.cube
TITLE "Generated by Resolve"
LUT_3D_SIZE 9
0 0 0
0.127169 0 0
0.254337 0 0
0.381521 0 0
0.50869 0 0
0.635874 0 0
0.763058 0 0
0.890227 0 0
1 0 0
0 0.126406 0
0.116136 0.116136 0.113802
0.19678 0.133684 0.0705882
0.341512 0.132158 0.0274968
0.480232 0.12958 0.0127108
0.614038 0.127626 0.00604257
0.745449 0.126116 0.00225834
0.875517 0.124849 0
1 0.123766 0
0 0.252827 0
0.161852 0.229526 0.0941787
0.232273 0.232273 0.227619
0.27985 0.256947 0.21117
0.393561 0.267369 0.141176
0.538476 0.267018 0.0860609
0.683024 0.264347 0.055024
0.823453 0.261585 0.0368505
0.960464 0.259174 0.0254215
0 0.379232 0
0.15021 0.363073 0.0437934
0.305409 0.333318 0.249577
0.348424 0.348424 0.341421
0.386114 0.374533 0.339803
0.466072 0.3935 0.284627
0.590341 0.401068 0.211795
0.734157 0.401511 0.152041
0.880476 0.399344 0.110689
0 0.505653 0
0.139208 0.493629 0.021088
0.323705 0.459068 0.188373
0.429587 0.44509 0.383047
0.464561 0.464561 0.455238
0.498329 0.49102 0.461814
0.559701 0.513924 0.422354
0.658503 0.528496 0.355154
0.787121 0.534768 0.282399
0 0.632074 0
0.131014 0.62237 0.00819409
0.313649 0.593225 0.12726
0.476051 0.559533 0.350851
0.548837 0.559289 0.507057
0.580713 0.580713 0.569055
0.612543 0.607233 0.580713
0.663462 0.632013 0.553399
0.743603 0.651057 0.496818
0 0.758495 0
0.124376 0.750256 0
0.30045 0.726146 0.087602
0.485588 0.688594 0.282582
0.610819 0.666651 0.499168
0.666468 0.674372 0.626963
0.696864 0.696849 0.682872
0.727581 0.723354 0.697993
0.772244 0.749096 0.679622
0 0.884901 0
0.118654 0.877668 0
0.288563 0.857359 0.0610666
0.477073 0.82266 0.217884
0.641627 0.787793 0.446754
0.737102 0.777447 0.63624
0.783429 0.789868 0.744793
0.813001 0.813001 0.796674
0.843046 0.839445 0.814298
0 1 0
0.113512 1 0
0.278462 0.987274 0.0421912
0.463981 0.956542 0.168444
0.647456 0.918135 0.376776
0.783688 0.89192 0.603281
0.85919 0.890196 0.76614
0.900069 0.905577 0.861463
0.929152 0.929152 0.910491
0 0 0.12842
0.0362249 0.0353399 0.0362249
0.140139 0.0363622 0.0882429
0.312367 0.0194095 0.117052
0.461692 0.01149 0.124025
0.600076 0.00732433 0.125856
0.733867 0.00466926 0.126192
0.865339 0.00277714 0.125978
0.995514 0.00128176 0.125536
0.0983597 0.0984207 0.0984207
0.124987 0.124987 0.124987
0.252171 0.124392 0.124392
0.379339 0.123812 0.123812
0.506523 0.123217 0.123217
0.633692 0.122637 0.122637
0.760876 0.122042 0.122042
0.88806 0.121462 0.121462
1 0.120867 0.120867
0.0838941 0.222217 0.153048
0.121431 0.251408 0.121431
0.241138 0.241138 0.238804
0.321767 0.258686 0.19559
0.466499 0.25716 0.152499
0.605234 0.254582 0.137697
0.73904 0.252628 0.131029
0.870436 0.251118 0.127245
1 0.249866 0.124743
0.0362249 0.362219 0.144884
0.117876 0.377829 0.117876
0.286854 0.354528 0.219181
0.357275 0.357275 0.352621
0.404837 0.381949 0.336172
0.518563 0.39237 0.266194
0.663478 0.39202 0.211048
0.808026 0.389349 0.180011
0.94844 0.386587 0.161852
0.0147707 0.494621 0.134722
0.114321 0.504234 0.114321
0.275212 0.488075 0.168795
0.430411 0.45832 0.374578
0.473426 0.473426 0.466423
0.511116 0.499535 0.464805
0.591073 0.518502 0.409644
0.715343 0.52607 0.336797
0.859159 0.526513 0.277028
0.0024567 0.624079 0.126772
0.110765 0.630655 0.110765
0.264225 0.618631 0.14609
0.448722 0.584054 0.313375
0.554589 0.570092 0.508064
0.589563 0.589563 0.58024
0.623331 0.616022 0.586801
0.684703 0.638926 0.547356
0.783505 0.653498 0.480156
0 0.752316 0.120211
0.10721 0.757076 0.10721
0.256031 0.747372 0.133196
0.438651 0.718227 0.252262
0.601068 0.684535 0.475868
0.673838 0.684291 0.632059
0.705715 0.705715 0.694057
0.737545 0.732235 0.705715
0.788464 0.757015 0.678401
0 0.879942 0.114504
0.103655 0.883497 0.103655
0.249393 0.875257 0.124224
0.425452 0.851148 0.212589
0.61059 0.813596 0.407568
0.735836 0.791653 0.624186
0.79147 0.799374 0.751949
0.821851 0.821851 0.807874
0.852583 0.848356 0.822995
0 1 0.109346
0.100099 1 0.100099
0.243671 1 0.117174
0.413581 0.982361 0.186069
0.602075 0.947662 0.342885
0.766629 0.912795 0.571756
0.862104 0.902449 0.761242
0.908431 0.91487 0.869795
0.938003 0.938003 0.921675
0 0 0.25687
0.0943313 0.0170291 0.171633
0.0724651 0.0706951 0.0724651
0.130694 0.0861677 0.115846
0.280293 0.0727245 0.176501
0.458503 0.0530098 0.215198
0.624735 0.0388342 0.234134
0.778195 0.0294499 0.243366
0.923369 0.0229801 0.248066
0.0576333 0.115572 0.17351
0.124712 0.124712 0.253422
0.161227 0.160342 0.161227
0.265126 0.161349 0.213245
0.437354 0.144411 0.242054
0.586679 0.136477 0.249027
0.725063 0.132311 0.250858
0.858854 0.129671 0.251194
0.990326 0.127764 0.25098
0.19675 0.196872 0.196872
0.223362 0.223423 0.223423
0.249989 0.249989 0.249989
0.377127 0.249409 0.249409
0.504265 0.248829 0.248829
0.631418 0.248249 0.248249
0.758556 0.247684 0.247684
0.885695 0.247105 0.247105
1 0.246525 0.246525
0.224735 0.305318 0.278447
0.208896 0.347219 0.27805
0.246433 0.37641 0.246433
0.36614 0.36614 0.363806
0.446769 0.383688 0.320592
0.591501 0.382162 0.277501
0.730236 0.379583 0.262699
0.864042 0.37763 0.256031
0.995438 0.37612 0.252247
0.167773 0.44445 0.306111
0.161227 0.487205 0.269886
0.242878 0.502831 0.242878
0.411856 0.47953 0.344182
0.482277 0.482277 0.477623
0.529839 0.50695 0.461173
0.643565 0.517372 0.391196
0.788479 0.517021 0.336049
0.933028 0.514351 0.305013
0.109773 0.587243 0.300755
0.139757 0.619623 0.259724
0.239322 0.629236 0.239322
0.400214 0.613077 0.293797
0.555413 0.583322 0.49958
0.598428 0.598428 0.591424
0.636118 0.624537 0.589807
0.716075 0.643503 0.534646
0.840345 0.651072 0.461799
0.0724804 0.724437 0.289784
0.127443 0.749081 0.251774
0.235767 0.755657 0.235767
0.389227 0.743633 0.271092
0.573724 0.709056 0.438376
0.679591 0.695094 0.633066
0.714565 0.714565 0.705242
0.748333 0.741024 0.711803
0.809705 0.763928 0.672358
0.0474403 0.857969 0.279011
0.118791 0.877317 0.245212
0.232212 0.882078 0.232212
0.381033 0.872374 0.258198
0.563653 0.843229 0.377264
0.72607 0.809537 0.60087
0.79884 0.809293 0.757061
0.830716 0.830716 0.819059
0.862547 0.857237 0.830716
0.0295567 0.989242 0.269474
0.11194 1 0.239506
0.228656 1 0.228656
0.374395 1 0.249226
0.550454 0.97615 0.337591
0.735592 0.938598 0.53257
0.860838 0.916655 0.749187
0.916472 0.924376 0.876951
0.946853 0.946853 0.932876
0 0 0.385306
0.117556 0.0055848 0.341512
0.126986 0.0581216 0.161425
0.10869 0.106035 0.10869
0.150042 0.127306 0.14435
0.258854 0.125933 0.205676
0.420417 0.109102 0.264759
0.599466 0.088716 0.307591
0.773693 0.0713359 0.334722
0.0230564 0.123293 0.323812
0.124453 0.124453 0.381872
0.219318 0.142016 0.29662
0.197452 0.195682 0.197452
0.25568 0.211154 0.240833
0.40528 0.197726 0.301503
0.583505 0.177996 0.3402
0.749722 0.163821 0.359121
0.903166 0.154437 0.368368
0.173022 0.212909 0.232853
0.182635 0.240574 0.298512
0.249714 0.249714 0.378424
0.286229 0.285344 0.286229
0.390127 0.286351 0.338247
0.562356 0.269413 0.367056
0.711681 0.261479 0.374029
0.850065 0.257313 0.37586
0.983856 0.254673 0.376196
0.295125 0.295308 0.295308
0.321736 0.321859 0.321859
0.348363 0.348424 0.348424
0.37499 0.37499 0.37499
0.502174 0.374395 0.374395
0.629343 0.373816 0.373816
0.756527 0.37322 0.37322
0.883696 0.372641 0.372641
1 0.372045 0.372045
0.342641 0.397269 0.383612
0.349737 0.430304 0.403449
0.333883 0.472221 0.403052
0.371435 0.501411 0.371435
0.491142 0.491142 0.488807
0.571771 0.50869 0.445594
0.716503 0.507164 0.402502
0.855238 0.504585 0.387701
0.989044 0.502632 0.381033
0.31606 0.524376 0.441047
0.29279 0.569451 0.431113
0.286229 0.612207 0.394888
0.36788 0.627832 0.36788
0.536858 0.604532 0.469184
0.607279 0.607279 0.602625
0.654841 0.631952 0.586175
0.768566 0.642374 0.516197
0.913481 0.642023 0.461051
0.251698 0.666682 0.45919
0.23476 0.712245 0.425757
0.264759 0.744625 0.384726
0.364324 0.754238 0.364324
0.525216 0.738079 0.418799
0.680415 0.708324 0.624582
0.72343 0.72343 0.716426
0.76112 0.749538 0.714809
0.841077 0.768505 0.659648
0.190219 0.810285 0.455955
0.197467 0.849439 0.414786
0.252445 0.874083 0.376776
0.360769 0.880659 0.360769
0.514229 0.868635 0.396094
0.698726 0.834058 0.563378
0.804593 0.820096 0.758068
0.839567 0.839567 0.830243
0.873335 0.866026 0.836805
0.143618 0.950134 0.446052
0.172442 0.982971 0.404013
0.243793 1 0.370214
0.357214 1 0.357214
0.506035 0.997375 0.3832
0.688655 0.968231 0.502266
0.851072 0.934539 0.725872
0.923842 0.934295 0.882063
0.955718 0.955718 0.94406
0 0 0.513741
0.123156 0.00183108 0.48719
0.188663 0.0340581 0.343282
0.15613 0.0978103 0.175586
0.14493 0.14139 0.14493
0.178225 0.165545 0.175692
0.261387 0.17232 0.231708
0.393606 0.16379 0.295109
0.560571 0.145464 0.353017
0.0111391 0.125032 0.466743
0.124178 0.124178 0.510307
0.242557 0.130571 0.466514
0.251972 0.183108 0.286412
0.233692 0.231037 0.233692
0.275029 0.252308 0.269352
0.383825 0.250919 0.330663
0.545419 0.234089 0.389746
0.724468 0.213703 0.432593
0.115282 0.231159 0.347036
0.148058 0.248295 0.448798
0.249454 0.249454 0.506874
0.34432 0.267018 0.421622
0.322454 0.320684 0.322454
0.380682 0.336156 0.365835
0.530282 0.322728 0.426505
0.708507 0.302998 0.465202
0.874723 0.288823 0.484123
0.281758 0.309529 0.318791
0.298024 0.337911 0.357839
0.307637 0.365576 0.423514
0.374716 0.374716 0.503426
0.411231 0.410346 0.411231
0.515129 0.411353 0.463249
0.687358 0.394415 0.492058
0.836683 0.386481 0.499031
0.975067 0.382315 0.500862
0.3935 0.393744 0.393744
0.420127 0.42031 0.42031
0.446738 0.44686 0.44686
0.473365 0.473426 0.473426
0.499992 0.499992 0.499992
0.627176 0.499397 0.499397
0.754345 0.498817 0.498817
0.881529 0.498222 0.498222
1 0.497642 0.497642
0.45095 0.492531 0.484215
0.467643 0.522271 0.508614
0.474739 0.555306 0.52845
0.458885 0.597223 0.528054
0.496437 0.626413 0.496437
0.616144 0.616144 0.613809
0.696773 0.633692 0.570596
0.841505 0.632166 0.527504
0.98024 0.629587 0.512703
0.44947 0.610636 0.556909
0.441077 0.649363 0.566049
0.417792 0.694453 0.556115
0.411231 0.737209 0.51989
0.492882 0.752834 0.492882
0.66186 0.729534 0.594186
0.73228 0.73228 0.727626
0.779843 0.756954 0.711177
0.893568 0.767376 0.641199
0.401846 0.745632 0.598291
0.376684 0.791684 0.584192
0.359762 0.837247 0.550759
0.389761 0.869627 0.509728
0.489326 0.87924 0.489326
0.650217 0.863081 0.543801
0.805417 0.833326 0.749584
0.848432 0.848432 0.841428
0.886122 0.87454 0.839811
0.335607 0.888914 0.612253
0.315206 0.935286 0.580957
0.322469 0.974441 0.539788
0.377447 0.999084 0.501778
0.485771 1 0.485771
0.639231 0.993637 0.521096
0.823728 0.95906 0.68838
0.929595 0.945098 0.88307
0.964569 0.964569 0.955245
0 0 0.642191
0.124926 7.62951e-05 0.624353
0.220478 0.0191196 0.52253
0.225742 0.0744945 0.326574
0.187518 0.135744 0.200458
0.181155 0.176745 0.181155
0.209888 0.202579 0.208667
0.277195 0.214618 0.259312
0.386419 0.213046 0.321401
0.00590524 0.125399 0.603449
0.123919 0.123919 0.638743
0.248157 0.126818 0.612192
0.313649 0.159045 0.468254
0.281117 0.222797 0.300557
0.269917 0.266377 0.269917
0.303227 0.290532 0.300679
0.386374 0.297322 0.35668
0.518593 0.288777 0.420096
0.0712902 0.241688 0.497307
0.136126 0.250034 0.591745
0.24918 0.24918 0.635309
0.367559 0.255573 0.591516
0.376974 0.30811 0.411414
0.358694 0.356039 0.358694
0.400031 0.37731 0.394354
0.508827 0.375921 0.455665
0.67042 0.359091 0.514748
0.231586 0.329412 0.394614
0.240284 0.356161 0.472023
0.27306 0.373297 0.5738
0.374456 0.374456 0.631876
0.469322 0.39202 0.546624
0.447456 0.445686 0.447456
0.505684 0.461158 0.490837
0.655283 0.44773 0.551507
0.833509 0.428 0.590204
0.386114 0.406729 0.411887
0.40676 0.434531 0.443778
0.423026 0.462913 0.482841
0.432639 0.490578 0.548516
0.499718 0.499718 0.628428
0.536233 0.535348 0.536233
0.640131 0.536355 0.588251
0.81236 0.519417 0.61706
0.961685 0.511482 0.624033
0.491875 0.49218 0.49218
0.518502 0.518746 0.518746
0.545129 0.545312 0.545312
0.57174 0.571862 0.571862
0.598367 0.598428 0.598428
0.624994 0.624994 0.624994
0.752178 0.624399 0.624399
0.879347 0.623819 0.623819
1 0.623224 0.623224
0.555184 0.589151 0.58349
0.575952 0.617533 0.609216
0.592645 0.647272 0.633616
0.599741 0.680308 0.653452
0.583886 0.722225 0.653056
0.621439 0.751415 0.621439
0.741146 0.741146 0.738811
0.821775 0.758694 0.695598
0.966506 0.757168 0.652506
0.571069 0.701289 0.664088
0.574487 0.735637 0.68191
0.566079 0.774365 0.691051
0.542794 0.819455 0.681117
0.536233 0.862211 0.644892
0.617884 0.877836 0.617884
0.786862 0.854536 0.719188
0.857282 0.857282 0.852628
0.904845 0.881956 0.836179
0.543786 0.82858 0.721782
0.526833 0.870619 0.723293
0.501686 0.916686 0.709194
0.484764 0.962249 0.675761
0.514763 0.994629 0.63473
0.614328 1 0.614328
0.775219 0.988083 0.668803
0.930419 0.958328 0.874586
0.973434 0.973434 0.96643
0 0 0.770626
0.125521 0 0.757992
0.235126 0.0111849 0.68304
0.282979 0.0510872 0.5149
0.253986 0.116243 0.322866
0.220478 0.172732 0.23003
0.217395 0.212085 0.217395
0.243137 0.239048 0.242557
0.300069 0.254627 0.288716
0.0030518 0.125383 0.737118
0.123644 0.123644 0.767193
0.249928 0.125078 0.749355
0.34548 0.144106 0.647517
0.350729 0.199481 0.45156
0.312505 0.260731 0.325444
0.306157 0.301732 0.306157
0.334874 0.327581 0.333654
0.402182 0.339605 0.384298
0.046128 0.246616 0.647608
0.130892 0.250401 0.72845
0.24892 0.24892 0.763745
0.373159 0.25182 0.737194
0.438651 0.284047 0.593256
0.406119 0.347799 0.425559
0.394919 0.391379 0.394919
0.428229 0.415534 0.425681
0.511376 0.422324 0.481682
0.17293 0.346746 0.520562
0.196277 0.36669 0.622309
0.261128 0.375036 0.716747
0.374182 0.374182 0.760311
0.492561 0.380575 0.716518
0.501976 0.433112 0.536416
0.483696 0.481041 0.483696
0.525032 0.502312 0.519356
0.633829 0.500923 0.580667
0.346044 0.425818 0.465721
0.356603 0.454398 0.5196
0.365286 0.481163 0.597025
0.398062 0.498299 0.698802
0.499458 0.499458 0.756878
0.594324 0.517021 0.671626
0.572457 0.570687 0.572457
0.630686 0.58616 0.615839
0.780285 0.572732 0.676509
0.488289 0.504326 0.50753
0.511116 0.531731 0.536889
0.531762 0.559533 0.56878
0.548028 0.587915 0.607843
0.557641 0.615579 0.673518
0.62472 0.62472 0.753429
0.661234 0.660349 0.661234
0.765133 0.661357 0.713252
0.937362 0.644419 0.742061
0.590265 0.590631 0.590631
0.616876 0.617182 0.617182
0.643503 0.643748 0.643748
0.67013 0.670314 0.670314
0.696742 0.696864 0.696864
0.723369 0.72343 0.72343
0.749996 0.749996 0.749996
0.877134 0.749416 0.749416
1 0.748837 0.748837
0.657404 0.686412 0.682277
0.680186 0.714153 0.708492
0.700954 0.742535 0.734218
0.717647 0.772274 0.758618
0.724743 0.80531 0.778454
0.708888 0.847227 0.778058
0.746441 0.876417 0.746441
0.866148 0.866148 0.863813
0.946777 0.883696 0.8206
0.685313 0.794537 0.767239
0.696071 0.826291 0.78909
0.699489 0.860639 0.806912
0.691081 0.899367 0.816052
0.667796 0.944457 0.806119
0.661234 0.987213 0.769894
0.742885 1 0.742885
0.911864 0.979538 0.84419
0.982284 0.982284 0.97763
0 0 0.899062
0.125658 0 0.88986
0.24242 0.0065919 0.831998
0.318853 0.0345617 0.697902
0.322789 0.0908675 0.496727
0.282643 0.156466 0.33312
0.254398 0.209216 0.261921
0.253635 0.24744 0.253635
0.277378 0.275166 0.277104
0.00123598 0.125216 0.869139
0.123384 0.123384 0.895628
0.250523 0.124025 0.882994
0.360128 0.136172 0.808042
0.40798 0.176074 0.639902
0.378973 0.241245 0.447837
0.34548 0.297719 0.355032
0.342382 0.337072 0.342382
0.368124 0.36405 0.367544
0.0314488 0.248951 0.792706
0.128038 0.250385 0.862119
0.248646 0.248646 0.892195
0.374929 0.25008 0.874357
0.470481 0.269108 0.772519
0.475731 0.324483 0.576562
0.437507 0.385733 0.450446
0.431159 0.426734 0.431159
0.459876 0.452583 0.458656
0.125292 0.358495 0.669444
0.171115 0.371618 0.77261
0.255894 0.375402 0.853452
0.373922 0.373922 0.888747
0.498161 0.376822 0.862196
0.563653 0.409049 0.718257
0.531121 0.472801 0.550561
0.519921 0.516381 0.519921
0.553231 0.540536 0.550683
0.289158 0.445548 0.562844
0.297948 0.471748 0.645548
0.321279 0.491691 0.747311
0.38613 0.500038 0.841749
0.499184 0.499184 0.885313
0.617563 0.505577 0.84152
0.626978 0.558114 0.661418
0.608698 0.606043 0.608698
0.650034 0.627314 0.644358
0.456336 0.522286 0.548669
0.471061 0.55082 0.590707
0.481605 0.5794 0.644602
0.490288 0.606165 0.722026
0.523064 0.623301 0.823804
0.62446 0.62446 0.88188
0.719326 0.642023 0.796628
0.697459 0.695689 0.697459
0.755688 0.711162 0.740841
0.589288 0.602152 0.604288
0.613291 0.629328 0.632532
0.636118 0.656733 0.661891
0.656764 0.684535 0.693782
0.67303 0.712917 0.732845
0.682643 0.740581 0.79852
0.749722 0.749722 0.878431
0.786236 0.785351 0.786236
0.890135 0.786358 0.838254
0.68864 0.689067 0.689067
0.715251 0.715618 0.715618
0.741878 0.742184 0.742184
0.768505 0.76875 0.76875
0.795132 0.795316 0.795316
0.821744 0.821866 0.821866
0.848371 0.848432 0.848432
0.874998 0.874998 0.874998
1 0.874403 0.874403
0.75848 0.784039 0.78085
0.782406 0.811414 0.807263
0.805188 0.839155 0.833494
0.825956 0.867536 0.85922
0.842649 0.897276 0.883619
0.849744 0.930312 0.903456
0.83389 0.972229 0.903059
0.871443 1 0.871443
0.99115 0.99115 0.988815
0 0 1
0.125597 0 1
0.246342 0.00367742 0.97438
0.33991 0.0238956 0.866621
0.377325 0.0681163 0.686534
0.353185 0.132738 0.485466
0.312261 0.195621 0.351156
0.288914 0.24538 0.295125
0.28986 0.28278 0.28986
0 0.124987 1
0.12311 0.12311 1
0.25066 0.123293 1
0.367407 0.131579 0.956985
0.443854 0.159548 0.822904
0.447776 0.215854 0.621729
0.407645 0.281453 0.458106
0.379385 0.334203 0.386923
0.378622 0.372427 0.378622
0.0222934 0.25008 0.933486
0.126223 0.250217 0.994125
0.248386 0.248386 1
0.375525 0.249027 1
0.48513 0.261173 0.933043
0.532982 0.301076 0.764904
0.503975 0.366247 0.572839
0.470481 0.422721 0.480034
0.467384 0.462074 0.467384
0.091722 0.365667 0.822248
0.156451 0.373953 0.917693
0.25304 0.375387 0.987121
0.373648 0.373648 1
0.499931 0.375082 0.999359
0.595483 0.39411 0.89752
0.600732 0.449485 0.701564
0.562509 0.510735 0.575448
0.556161 0.551736 0.556161
0.23061 0.462333 0.694057
0.250294 0.483497 0.794446
0.296117 0.49662 0.897612
0.380896 0.500404 0.978454
0.498924 0.498924 1
0.623163 0.501823 0.987198
0.688655 0.534051 0.843259
0.656123 0.597803 0.675563
0.644923 0.641382 0.644923
0.405371 0.542397 0.624598
0.41416 0.57055 0.687846
0.42295 0.59675 0.77055
0.446281 0.616693 0.872312
0.511131 0.62504 0.966751
0.624186 0.624186 1
0.742565 0.630579 0.966522
0.75198 0.683116 0.786419
0.7337 0.731044 0.7337
0.563546 0.619058 0.637583
0.581338 0.647288 0.673671
0.596063 0.675822 0.715709
0.606607 0.704402 0.769604
0.61529 0.731167 0.847028
0.648066 0.748302 0.948806
0.749462 0.749462 1
0.844327 0.767025 0.92163
0.822461 0.820691 0.822461
0.689586 0.70013 0.70164
0.71429 0.727153 0.72929
0.738293 0.75433 0.757534
0.76112 0.781735 0.786892
0.781765 0.809537 0.818784
0.798032 0.837919 0.857847
0.807645 0.865583 0.923522
0.874723 0.874723 1
0.911238 0.910353 0.911238
0.787015 0.787503 0.787503
0.813642 0.814069 0.814069
0.840253 0.84062 0.84062
0.86688 0.867185 0.867185
0.893507 0.893751 0.893751
0.920134 0.920317 0.920317
0.946746 0.946868 0.946868
0.973373 0.973434 0.973434
1 1 1
