Camo Studio.app/Contents/Resources/CamoContent_CamoContent.bundle/Contents/Resources/JUST_RGB.cube
TITLE "Generated by Resolve"
LUT_3D_SIZE 33
0 0 0
0.0317845 0 0
0.0635691 0 0
0.0953689 0 0
0.127169 0 0
0.158953 0 0
0.190753 0 0
0.222553 0 0
0.254337 0 0
0.286137 0 0
0.317937 0 0
0.349722 0 0
0.381521 0 0
0.413306 0 0
0.445106 0 0
0.476905 0 0
0.50869 0 0
0.54049 0 0
0.57229 0 0
0.604074 0 0
0.635874 0 0
0.667674 0 0
0.699458 0 0
0.731258 0 0
0.763058 0 0
0.794842 0 0
0.826642 0 0
0.858442 0 0
0.890227 0 0
0.922026 0 0
0.953826 0 0
0.985611 0 0
1 0 0
0 0.0315862 0
0.0290227 0.0290227 0.0284428
0.0491951 0.033402 0.0176394
0.0853742 0.0330205 0.00686656
0.120058 0.0323796 0.00317388
0.153506 0.0318914 0.00151064
0.186358 0.0315099 0.000564584
0.218875 0.0312047 0
0.251194 0.03093 0
0.283391 0.0306859 0
0.315496 0.030457 0
0.34757 0.0302434 0
0.379568 0.030045 0
0.411521 0.0298619 0
0.443458 0.0296788 0
0.47538 0.0294957 0
0.507286 0.0293278 0
0.539162 0.0291447 0
0.571038 0.0289921 0
0.602914 0.0288243 0
0.634775 0.0286564 0
0.666621 0.0284886 0
0.698482 0.028336 0
0.730312 0.0281682 0
0.762142 0.0280156 0
0.793988 0.027863 0
0.825818 0.0276951 0
0.857649 0.0275425 0
0.889464 0.0273899 0
0.921294 0.0272374 0
0.953109 0.0270848 0
0.984939 0.0269322 0
1 0.0267796 0
0 0.0631876 0
0.0404517 0.0573739 0.0235294
0.0580606 0.0580606 0.0568856
0.0699474 0.0642252 0.052781
0.0983902 0.0668345 0.0352789
0.134615 0.066743 0.0215
0.170748 0.0660716 0.0137484
0.205859 0.0653849 0.00920119
0.240116 0.0647746 0.00634775
0.273777 0.0642557 0.00440986
0.307012 0.0638132 0.00302129
0.339971 0.0634012 0.00196841
0.372717 0.0630503 0.00112917
0.405295 0.0627146 0.000457771
0.437751 0.0624247 0
0.470115 0.0621347 0
0.502388 0.0618753 0
0.534615 0.0616312 0
0.566781 0.061387 0
0.598901 0.0611582 0
0.630991 0.0609445 0
0.663081 0.0607309 0
0.695155 0.060502 0
0.727153 0.0603037 0
0.759136 0.0601205 0
0.791104 0.0599222 0
0.823072 0.0597391 0
0.855009 0.059556 0
0.886946 0.0593729 0
0.918853 0.0591897 0
0.950774 0.0590066 0
0.982681 0.0588388 0
1 0.0586709 0
0 0.0948043 0
0.0375372 0.0907607 0.0109407
0.0763409 0.0833143 0.0623789
0.0870985 0.0870985 0.0853437
0.0965133 0.0936294 0.0849317
0.116518 0.0983597 0.0711528
0.147585 0.100252 0.0529335
0.183536 0.100359 0.037995
0.220111 0.0998245 0.0276646
0.256123 0.0991226 0.0206302
0.291402 0.0984207 0.0157321
0.32604 0.0977646 0.0121767
0.360174 0.0971847 0.00953689
0.393912 0.0966506 0.00747692
0.427344 0.0961624 0.00585946
0.460533 0.0957198 0.00453193
0.493523 0.0953078 0.00343328
0.52636 0.0949264 0.00250248
0.559075 0.0945754 0.00169375
0.591684 0.094255 0.000991836
0.624201 0.0939345 0.000381476
0.656641 0.0936446 0
0.689006 0.0933547 0
0.721325 0.09308 0
0.753597 0.0928206 0
0.785824 0.0925765 0
0.818021 0.0923323 0
0.850187 0.0920882 0
0.882307 0.0918593 0
0.914412 0.0916457 0
0.946502 0.0914168 0
0.978576 0.0912032 0
1 0.0909895 0
0 0.126406 0
0.0347906 0.1234 0.00526436
0.0809186 0.114763 0.0470741
0.107378 0.111269 0.0957504
0.116136 0.116136 0.113802
0.124575 0.122744 0.115434
0.139925 0.128466 0.105577
0.164614 0.132113 0.088777
0.19678 0.133684 0.0705882
0.232502 0.133913 0.0550546
0.269245 0.133501 0.0430152
0.305592 0.132876 0.0341955
0.341512 0.132158 0.0274968
0.376867 0.131456 0.0224002
0.411719 0.130785 0.0184329
0.446159 0.130159 0.015259
0.480232 0.12958 0.0127108
0.514015 0.129046 0.010605
0.547555 0.128542 0.00883497
0.58088 0.128069 0.00733959
0.614038 0.127626 0.00604257
0.647059 0.127214 0.00491341
0.679957 0.126833 0.00393683
0.712749 0.126467 0.0030518
0.745449 0.126116 0.00225834
0.778058 0.12578 0.00155642
0.810605 0.12546 0.000900282
0.843091 0.125154 0.00030518
0.875517 0.124849 0
0.907897 0.124575 0
0.94023 0.1243 0
0.972534 0.124025 0
1 0.123766 0
0 0.158007 0
0.0327459 0.155581 0.00204471
0.0784009 0.148302 0.0317998
0.119005 0.139879 0.0876936
0.137194 0.139818 0.126757
0.145174 0.145174 0.14226
0.153124 0.151797 0.145174
0.16585 0.157992 0.138338
0.185885 0.162753 0.124193
0.213245 0.165713 0.106325
0.245975 0.167102 0.0882429
0.281529 0.167422 0.072343
0.318166 0.167147 0.0592966
0.354894 0.166567 0.0488746
0.391028 0.165927 0.0408789
0.426886 0.165209 0.0343786
0.462303 0.164492 0.0291447
0.497292 0.163821 0.0248875
0.531929 0.163165 0.0213474
0.566247 0.162554 0.0183871
0.60029 0.161975 0.0158846
0.634104 0.16144 0.0137484
0.667704 0.160922 0.0118868
0.701137 0.160433 0.0102541
0.734417 0.159976 0.00881972
0.767559 0.159548 0.00755322
0.800595 0.159121 0.00640879
0.833524 0.15874 0.00538643
0.866361 0.158358 0.00445563
0.899123 0.157992 0.00360113
0.931807 0.157641 0.00282292
0.964431 0.157305 0.00210575
0.996994 0.156985 0.00144961
0 0.189609 0
0.0310826 0.187549 0
0.0750896 0.181537 0.0218967
0.121386 0.172137 0.0706188
0.152697 0.166659 0.124773
0.166613 0.168582 0.156725
0.174197 0.174197 0.170703
0.181888 0.180835 0.174487
0.193057 0.187259 0.169894
0.209888 0.192706 0.158373
0.233036 0.196735 0.142306
0.262074 0.199252 0.123873
0.295171 0.200519 0.105882
0.330587 0.200916 0.0897688
0.367086 0.200748 0.0760052
0.403861 0.200259 0.0645304
0.440238 0.199664 0.0553292
0.476448 0.198962 0.0476387
0.512261 0.19826 0.0412604
0.547707 0.197543 0.0359503
0.582818 0.196857 0.0314488
0.617594 0.196185 0.0276493
0.652094 0.19556 0.0243687
0.686336 0.194949 0.0215305
0.720348 0.194369 0.0190585
0.754177 0.193835 0.0168917
0.787823 0.193317 0.0149691
0.821332 0.192813 0.0132448
0.854688 0.19234 0.0117189
0.887938 0.191882 0.0103304
0.921065 0.191455 0.00906386
0.954116 0.191043 0.00791943
0.98706 0.190646 0.00686656
0 0.22121 0
0.0296483 0.219409 0
0.0721294 0.214328 0.015259
0.119249 0.205661 0.0544594
0.160388 0.196933 0.111681
0.184268 0.194354 0.159045
0.19585 0.197452 0.186191
0.203235 0.203235 0.199161
0.210758 0.209857 0.203571
0.22092 0.216419 0.200656
0.235538 0.222293 0.191379
0.255573 0.227054 0.177157
0.280949 0.230549 0.159976
0.31104 0.232761 0.141436
0.344366 0.233951 0.123537
0.379675 0.234379 0.107256
0.416037 0.234302 0.0929732
0.452781 0.233921 0.0807202
0.489525 0.233326 0.0702983
0.525719 0.232715 0.0618143
0.561852 0.232013 0.0544289
0.597635 0.231296 0.0481422
0.633127 0.230579 0.0427558
0.668284 0.229892 0.0381018
0.703182 0.229221 0.0340734
0.737804 0.228565 0.0305486
0.772198 0.227939 0.027451
0.806394 0.227344 0.0246891
0.840406 0.22678 0.0222477
0.874235 0.22623 0.0200656
0.907942 0.225696 0.0180819
0.941497 0.225193 0.0162966
0.974914 0.22472 0.0146639
0 0.252827 0
0.0283665 0.251194 0
0.0695964 0.246815 0.010544
0.115969 0.239124 0.0420996
0.161852 0.229526 0.0941787
0.195911 0.222965 0.150805
0.214786 0.222538 0.191516
0.22501 0.226383 0.215351
0.232273 0.232273 0.227619
0.239673 0.23888 0.232502
0.249165 0.245502 0.2309
0.262242 0.251652 0.223453
0.27985 0.256947 0.21117
0.302312 0.261158 0.195331
0.329259 0.26424 0.177554
0.360067 0.266239 0.15903
0.393561 0.267369 0.141176
0.428794 0.267842 0.124773
0.465019 0.267842 0.110124
0.501701 0.267536 0.0972457
0.538476 0.267018 0.0860609
0.575006 0.266407 0.076524
0.61117 0.265766 0.0684062
0.647242 0.265064 0.0612345
0.683024 0.264347 0.055024
0.718517 0.26363 0.0495766
0.753735 0.262928 0.0448157
0.788724 0.262242 0.040589
0.823453 0.261585 0.0368505
0.857969 0.26096 0.0335393
0.892317 0.260334 0.0305333
0.926467 0.259739 0.027863
0.960464 0.259174 0.0254215
0 0.284428 0
0.0271611 0.282933 0
0.0674144 0.279072 0.00695811
0.112657 0.272297 0.0328374
0.159976 0.263005 0.0775769
0.201358 0.254154 0.135363
0.229053 0.249989 0.187182
0.244755 0.251011 0.222873
0.254124 0.255344 0.244343
0.261311 0.261311 0.256062
0.26862 0.267903 0.261341
0.277638 0.274571 0.260761
0.289586 0.280903 0.254841
0.305348 0.286564 0.244297
0.325399 0.291341 0.230045
0.349554 0.295125 0.213474
0.377798 0.297871 0.195117
0.40914 0.299702 0.176608
0.442771 0.300801 0.158831
0.477928 0.301305 0.142336
0.514031 0.301366 0.127382
0.550622 0.301122 0.114015
0.587396 0.300679 0.10219
0.624155 0.300084 0.0917678
0.660349 0.299504 0.0830091
0.69662 0.298817 0.0750591
0.732647 0.2981 0.0680552
0.768399 0.297383 0.0618906
0.803906 0.296681 0.0564279
0.839185 0.295979 0.051545
0.87422 0.295293 0.0471962
0.909056 0.294621 0.0432593
0.943679 0.293965 0.0397498
0 0.31603 0
0.0260319 0.314641 0
0.0654917 0.311177 0.00408942
0.109606 0.305165 0.0258183
0.156802 0.296605 0.0636149
0.202319 0.286915 0.117723
0.238025 0.279759 0.175418
0.260853 0.277577 0.221805
0.274418 0.279637 0.253529
0.283207 0.284321 0.273198
0.290349 0.290349 0.28452
0.297612 0.296925 0.290074
0.306264 0.303609 0.290349
0.317372 0.310063 0.285725
0.331716 0.315999 0.276692
0.349813 0.321202 0.263966
0.371801 0.325521 0.248402
0.397391 0.328939 0.231159
0.42649 0.331456 0.212665
0.458228 0.333165 0.194217
0.491966 0.334218 0.176486
0.527062 0.334752 0.159915
0.563058 0.334874 0.144717
0.599557 0.334691 0.130968
0.636316 0.33431 0.118593
0.673106 0.333776 0.107576
0.709804 0.33315 0.0977493
0.74583 0.332555 0.0894789
0.782055 0.331868 0.0817578
0.818036 0.331151 0.0749065
0.853773 0.330434 0.0687724
0.889311 0.329717 0.0632639
0.924605 0.329015 0.0583047
0 0.347631 0
0.0249485 0.346334 0
0.0637675 0.343191 0.00169375
0.106859 0.337789 0.0202792
0.153506 0.329946 0.0527047
0.200641 0.320363 0.100893
0.24213 0.311452 0.158968
0.27245 0.306249 0.213306
0.291783 0.305562 0.255055
0.303883 0.30837 0.283665
0.312291 0.313313 0.301976
0.319387 0.319387 0.312978
0.326604 0.325948 0.318761
0.334981 0.332647 0.319738
0.345449 0.339178 0.316182
0.358694 0.345312 0.308492
0.375219 0.350835 0.297169
0.395254 0.355596 0.282902
0.418814 0.359548 0.266438
0.445533 0.362692 0.248783
0.475288 0.364996 0.230213
0.507347 0.366613 0.211826
0.541161 0.367636 0.194125
0.576226 0.368185 0.177493
0.612116 0.368368 0.162112
0.648539 0.368246 0.148013
0.685237 0.367926 0.135225
0.722026 0.367437 0.123674
0.758785 0.366857 0.113268
0.795056 0.366262 0.10425
0.831327 0.365606 0.0959945
0.867475 0.364904 0.0885023
0.903426 0.364187 0.0817578
0 0.379232 0
0.0238956 0.378012 0
0.0621805 0.375128 0
0.104402 0.370214 0.0158236
0.15021 0.363073 0.0437934
0.197696 0.353979 0.0860761
0.242786 0.344289 0.141268
0.279576 0.336767 0.199512
0.305409 0.333318 0.249577
0.322179 0.333822 0.287282
0.333227 0.337179 0.313466
0.341344 0.342321 0.330694
0.348424 0.348424 0.341421
0.355596 0.354971 0.347417
0.36379 0.361669 0.348989
0.373739 0.368261 0.346349
0.386114 0.374533 0.339803
0.401358 0.380301 0.329763
0.419776 0.385443 0.316762
0.441444 0.389838 0.301381
0.466072 0.3935 0.284627
0.493874 0.396368 0.266361
0.524178 0.398535 0.247761
0.556466 0.400061 0.22945
0.590341 0.401068 0.211795
0.625376 0.401633 0.195102
0.661189 0.401846 0.179553
0.697536 0.401785 0.165179
0.734157 0.401511 0.152041
0.770932 0.401083 0.140017
0.807721 0.400534 0.129091
0.844434 0.399908 0.119173
0.880476 0.399344 0.110689
0 0.410834 0
0.0228733 0.409674 0
0.0607156 0.406989 0
0.10219 0.402502 0.0121004
0.147127 0.395972 0.0365454
0.194415 0.387442 0.0737774
0.241245 0.377707 0.124285
0.282811 0.368765 0.182544
0.315053 0.362799 0.238666
0.337331 0.360861 0.284413
0.352224 0.362249 0.318791
0.362493 0.366033 0.343023
0.370413 0.371328 0.359365
0.377462 0.377462 0.369879
0.384619 0.383993 0.376028
0.39263 0.390692 0.378119
0.402197 0.39733 0.376257
0.413855 0.403708 0.370733
0.428061 0.409674 0.361837
0.445121 0.415091 0.350027
0.465156 0.419867 0.335744
0.488167 0.423941 0.31957
0.513863 0.427329 0.302342
0.542397 0.429999 0.283909
0.573114 0.432044 0.265324
0.605615 0.433509 0.247059
0.639536 0.434485 0.22945
0.67454 0.435065 0.212711
0.710277 0.435309 0.197024
0.746548 0.435294 0.182422
0.783123 0.43508 0.168933
0.819852 0.434699 0.156542
0.856641 0.434195 0.145174
0 0.442451 0
0.0218662 0.441321 0
0.0593271 0.438834 0
0.100145 0.434684 0.00891127
0.144274 0.428672 0.0305333
0.191058 0.420737 0.0634623
0.238514 0.411322 0.108934
0.283238 0.401679 0.164813
0.320806 0.393896 0.223362
0.348928 0.389517 0.275868
0.368536 0.388708 0.31812
0.38201 0.390814 0.349752
0.391714 0.394934 0.372396
0.399451 0.400336 0.388006
0.4065 0.4065 0.398337
0.413626 0.413031 0.404639
0.421515 0.419715 0.407141
0.430747 0.426383 0.405982
0.44184 0.432837 0.401343
0.455192 0.438956 0.393484
0.471092 0.444602 0.382773
0.489738 0.449683 0.369558
0.511177 0.454139 0.354314
0.535332 0.457938 0.337545
0.561913 0.461097 0.319982
0.591012 0.463615 0.301472
0.622095 0.465537 0.282887
0.654765 0.466941 0.264683
0.688731 0.467918 0.247105
0.72369 0.468498 0.230335
0.75938 0.468788 0.214527
0.79556 0.468803 0.199725
0.832074 0.468635 0.185977
0 0.474052 0
0.0208438 0.472984 0
0.0579995 0.470619 0
0.0982528 0.466773 0.00613413
0.141649 0.461219 0.025452
0.187762 0.453849 0.0547341
0.235218 0.444923 0.0954299
0.281819 0.43508 0.147738
0.32343 0.426108 0.206104
0.357046 0.419654 0.263127
0.381765 0.416663 0.311971
0.399252 0.416815 0.350927
0.411627 0.419455 0.380285
0.42089 0.42385 0.401617
0.428504 0.429358 0.416617
0.435523 0.435523 0.42678
0.442649 0.442054 0.433219
0.450431 0.448737 0.436103
0.459403 0.455421 0.435523
0.470008 0.461936 0.431678
0.482658 0.468177 0.42475
0.497597 0.474006 0.415045
0.515038 0.479347 0.402853
0.535058 0.484108 0.388586
0.557702 0.488289 0.372595
0.582605 0.491875 0.355795
0.610132 0.49482 0.337575
0.639735 0.497185 0.319005
0.671092 0.499016 0.300481
0.703929 0.500389 0.282307
0.737926 0.501335 0.264759
0.772869 0.50193 0.247944
0.808484 0.502251 0.232044
0 0.505653 0
0.0198672 0.504631 0
0.0567483 0.502388 0
0.0964981 0.498802 0.00367742
0.139208 0.493629 0.021088
0.184649 0.486763 0.0473487
0.231968 0.478264 0.0842145
0.279271 0.468681 0.131975
0.323705 0.459068 0.188373
0.361837 0.451087 0.247089
0.391836 0.44596 0.301625
0.413764 0.444144 0.346929
0.429587 0.44509 0.383047
0.441123 0.448188 0.410498
0.450019 0.452781 0.430732
0.457557 0.458381 0.445212
0.464561 0.464561 0.455238
0.471672 0.471092 0.461769
0.479362 0.47776 0.465019
0.488106 0.484459 0.464958
0.498329 0.49102 0.461814
0.510369 0.497353 0.455711
0.524483 0.503334 0.446921
0.540887 0.508873 0.435706
0.559701 0.513924 0.422354
0.580972 0.518425 0.407233
0.604639 0.522347 0.390677
0.630365 0.525719 0.37351
0.658503 0.528496 0.355154
0.688533 0.530739 0.336538
0.720134 0.532494 0.318059
0.753094 0.533822 0.299947
0.787121 0.534768 0.282399
0 0.537255 0
0.0189059 0.536263 0
0.0555276 0.534142 0
0.0948501 0.53077 0.00144961
0.136965 0.525933 0.0173037
0.181735 0.519524 0.0410163
0.228595 0.511528 0.0742809
0.276127 0.502281 0.11783
0.322377 0.492439 0.171206
0.364004 0.483452 0.229633
0.398657 0.476631 0.287266
0.425361 0.472816 0.338369
0.445167 0.471931 0.380941
0.459663 0.473503 0.414649
0.470512 0.476967 0.440467
0.479149 0.481743 0.459739
0.486595 0.487404 0.473777
0.493599 0.493599 0.483696
0.500694 0.500114 0.490318
0.508293 0.506783 0.493889
0.516884 0.513481 0.49427
0.526757 0.520088 0.491737
0.538277 0.526497 0.486412
0.551705 0.532601 0.478462
0.567208 0.538323 0.468147
0.584955 0.543587 0.45568
0.60499 0.548363 0.441398
0.627314 0.552605 0.425605
0.651835 0.556329 0.408728
0.67834 0.559503 0.391165
0.706996 0.562142 0.372702
0.737362 0.564279 0.354101
0.769207 0.565972 0.335637
0 0.568856 0
0.0179446 0.567895 0
0.0543526 0.565881 0
0.0932784 0.562692 0
0.134859 0.558145 0.0139315
0.179004 0.552148 0.0355077
0.22533 0.54461 0.0657054
0.272709 0.535821 0.105287
0.319997 0.526024 0.155169
0.364172 0.516442 0.211917
0.402747 0.508339 0.270756
0.434134 0.502663 0.326436
0.458122 0.499992 0.374365
0.476097 0.499916 0.41416
0.489525 0.502022 0.445777
0.499855 0.505776 0.470207
0.508263 0.510704 0.488701
0.515633 0.516426 0.502342
0.522637 0.522637 0.512154
0.529717 0.529152 0.518853
0.53727 0.535805 0.522683
0.545678 0.542519 0.523491
0.555276 0.549142 0.521523
0.566369 0.555611 0.516884
0.579187 0.561807 0.509712
0.593912 0.567681 0.500221
0.610727 0.573144 0.488609
0.629679 0.578164 0.475151
0.650797 0.582696 0.460105
0.674067 0.586709 0.443763
0.699123 0.590249 0.426947
0.726467 0.59324 0.408789
0.755581 0.595758 0.390265
0 0.600473 0
0.0169985 0.599527 0
0.0532082 0.597589 0
0.0917983 0.594568 0
0.132891 0.590295 0.0109255
0.17644 0.584649 0.0306706
0.222202 0.577539 0.0582132
0.269505 0.569085 0.0947738
0.316976 0.55964 0.140505
0.362905 0.549813 0.194705
0.404562 0.54081 0.253193
0.440024 0.5337 0.311238
0.46836 0.529244 0.363989
0.490181 0.527459 0.409415
0.506676 0.528069 0.446769
0.519234 0.530617 0.476555
0.529122 0.53463 0.499809
0.537346 0.539681 0.517571
0.544686 0.545449 0.530907
0.551675 0.551675 0.540597
0.55874 0.558175 0.547387
0.566232 0.564828 0.551446
0.574517 0.571542 0.552621
0.583886 0.578195 0.551186
0.594583 0.58471 0.547158
0.606882 0.590997 0.540688
0.620935 0.596979 0.531975
0.636912 0.602609 0.521172
0.654887 0.607843 0.508507
0.674922 0.612619 0.494224
0.697017 0.616922 0.478553
0.721126 0.620737 0.461799
0.746868 0.624094 0.444678
0 0.632074 0
0.0160678 0.631144 0
0.0520943 0.629297 0
0.0903639 0.626413 0
0.131014 0.62237 0.00819409
0.174029 0.617044 0.0263676
0.219226 0.610346 0.0516213
0.266148 0.602304 0.0851453
0.313649 0.593225 0.12726
0.360662 0.583368 0.17847
0.404639 0.573831 0.235462
0.443549 0.565606 0.294362
0.476051 0.559533 0.350851
0.501778 0.55613 0.400839
0.521706 0.555169 0.443641
0.53698 0.556374 0.478813
0.548837 0.559289 0.507057
0.558373 0.5635 0.529259
0.56643 0.568658 0.546426
0.573724 0.574472 0.559472
0.580713 0.580713 0.569055
0.587777 0.587213 0.575906
0.595224 0.593851 0.580163
0.603387 0.600565 0.581704
0.612543 0.607233 0.580713
0.622919 0.613779 0.577264
0.634745 0.620142 0.57145
0.648219 0.62623 0.563455
0.663462 0.632013 0.553399
0.680568 0.637415 0.541497
0.699641 0.642405 0.527932
0.720653 0.646952 0.512978
0.743603 0.651057 0.496818
0 0.663676 0
0.0151217 0.662776 0
0.0509957 0.66099 0
0.0889906 0.658244 0
0.129244 0.654398 0.00569162
0.171756 0.649363 0.0225223
0.216419 0.643015 0.0457923
0.262882 0.635386 0.0766461
0.310445 0.626581 0.115908
0.357794 0.616999 0.163394
0.403433 0.607187 0.218219
0.445106 0.598184 0.276722
0.481224 0.590845 0.335058
0.511025 0.585779 0.389548
0.534478 0.583322 0.436759
0.552819 0.583078 0.47718
0.567071 0.584772 0.510445
0.578347 0.588006 0.537301
0.587564 0.592401 0.558602
0.595514 0.59765 0.575219
0.602762 0.603494 0.588006
0.609751 0.609751 0.597513
0.6168 0.616236 0.604425
0.624216 0.622873 0.608865
0.632273 0.629587 0.610727
0.641245 0.636271 0.610147
0.651331 0.642847 0.607217
0.662776 0.649271 0.602014
0.675715 0.655451 0.594675
0.690303 0.661341 0.585336
0.706661 0.666911 0.574151
0.724834 0.672084 0.561318
0.744869 0.67686 0.547036
0 0.695277 0
0.0141909 0.694392 0
0.0499123 0.692683 0
0.0876631 0.690044 0
0.127565 0.686381 0.0033875
0.169604 0.681605 0.0190433
0.213748 0.675593 0.040589
0.259739 0.66833 0.0690929
0.307042 0.659892 0.10544
0.354559 0.650599 0.149599
0.401312 0.640726 0.201801
0.445106 0.63122 0.259007
0.484291 0.622904 0.317952
0.517708 0.616495 0.375036
0.5449 0.612497 0.426627
0.566583 0.610773 0.47187
0.583597 0.611154 0.510124
0.596994 0.61326 0.541711
0.607782 0.616754 0.567346
0.616754 0.621317 0.587839
0.624582 0.626642 0.603983
0.6318 0.632517 0.616526
0.638788 0.638788 0.625956
0.645838 0.645274 0.632929
0.653208 0.651911 0.637552
0.661189 0.65861 0.639689
0.669993 0.665293 0.639506
0.679835 0.671916 0.637049
0.690913 0.67837 0.632395
0.703395 0.684627 0.625681
0.717418 0.690639 0.616983
0.733074 0.69633 0.6065
0.750454 0.701671 0.594369
0 0.726879 0
0.0132601 0.726024 0
0.0488594 0.724361 0
0.0863813 0.721828 0
0.125933 0.718334 0.00123598
0.167575 0.713771 0.0158694
0.211231 0.708064 0.0359045
0.256748 0.701152 0.0623331
0.3037 0.69308 0.0960403
0.351125 0.684138 0.137041
0.39855 0.674342 0.186419
0.443946 0.664561 0.241718
0.485634 0.655543 0.300282
0.522271 0.648035 0.358785
0.553185 0.642542 0.414191
0.57818 0.639445 0.46331
0.598215 0.638437 0.506279
0.614099 0.639338 0.542565
0.626795 0.641825 0.572671
0.637156 0.645548 0.597223
0.645899 0.650248 0.616999
0.653651 0.65565 0.632715
0.660838 0.661555 0.645045
0.667826 0.667826 0.654414
0.674861 0.674311 0.661448
0.682216 0.680934 0.666209
0.690105 0.687633 0.668605
0.698772 0.694331 0.668772
0.7084 0.700954 0.666758
0.719158 0.707469 0.662623
0.731243 0.713787 0.656458
0.744732 0.719875 0.648417
0.759777 0.725689 0.63859
0 0.758495 0
0.0123445 0.757641 0
0.0478218 0.756024 0
0.0851301 0.753597 0
0.124376 0.750256 0
0.165621 0.745892 0.0129397
0.208835 0.740459 0.0316472
0.25388 0.733867 0.0562448
0.30045 0.726146 0.087602
0.347982 0.717403 0.126329
0.395422 0.707958 0.172183
0.441917 0.69807 0.225193
0.485588 0.688594 0.282582
0.524987 0.680217 0.341512
0.559167 0.673548 0.399039
0.587747 0.66894 0.452445
0.610819 0.666651 0.499168
0.629465 0.666285 0.540032
0.644388 0.667643 0.574594
0.656458 0.670436 0.603357
0.666468 0.674372 0.626963
0.675044 0.679179 0.646097
0.682719 0.684642 0.661418
0.689876 0.690578 0.673548
0.696864 0.696849 0.682872
0.703899 0.703334 0.689937
0.711223 0.709957 0.69485
0.719036 0.716655 0.697536
0.727581 0.723354 0.697993
0.737011 0.730007 0.696376
0.747509 0.736538 0.692714
0.759213 0.742916 0.687083
0.772244 0.749096 0.679622
0 0.790097 0
0.0114137 0.789258 0
0.0467842 0.787701 0
0.0839094 0.785351 0
0.122881 0.782147 0
0.163775 0.777966 0.0102388
0.206561 0.772778 0.0277714
0.251148 0.766491 0.0507362
0.297307 0.759106 0.0800031
0.344579 0.750698 0.116152
0.39205 0.741527 0.159091
0.439292 0.731685 0.209552
0.484443 0.721935 0.265248
0.526146 0.712917 0.323812
0.563241 0.705257 0.382498
0.595071 0.699413 0.43856
0.621408 0.695766 0.489219
0.642969 0.694102 0.534325
0.660395 0.69427 0.573266
0.674495 0.69604 0.606256
0.686061 0.699107 0.633829
0.69575 0.703227 0.656565
0.704173 0.708141 0.675135
0.711772 0.713649 0.690089
0.718914 0.719615 0.702052
0.725887 0.725887 0.711315
0.732937 0.732372 0.718425
0.74023 0.738979 0.723476
0.747982 0.745663 0.726436
0.75642 0.752377 0.727138
0.765667 0.759045 0.725887
0.775921 0.765606 0.722683
0.787289 0.77203 0.717571
0 0.821698 0
0.0104982 0.820874 0
0.0457618 0.819348 0
0.0827192 0.81709 0
0.121431 0.814008 0
0.16199 0.81001 0.00772107
0.204379 0.805035 0.0242008
0.248539 0.799023 0.0457465
0.29427 0.791959 0.0730907
0.341238 0.783871 0.10692
0.388861 0.774899 0.147585
0.436255 0.765316 0.194965
0.482521 0.755428 0.248615
0.526055 0.745983 0.306127
0.565637 0.737545 0.365087
0.600458 0.730648 0.422934
0.630121 0.725628 0.477333
0.654566 0.722759 0.52575
0.674678 0.721721 0.568826
0.691066 0.722393 0.606012
0.704448 0.724514 0.637598
0.715572 0.727825 0.664088
0.725002 0.732082 0.686061
0.733288 0.737087 0.704112
0.740826 0.742657 0.718761
0.747951 0.748653 0.730541
0.754925 0.754925 0.739773
0.761959 0.76141 0.746929
0.769238 0.768017 0.752087
0.776944 0.774701 0.755245
0.785275 0.781399 0.756252
0.794369 0.788083 0.755337
0.804395 0.794675 0.752544
0 0.8533 0
0.00958267 0.852491 0
0.0447547 0.851011 0
0.081529 0.848829 0
0.120027 0.845853 0
0.160281 0.842008 0.00535592
0.202289 0.837232 0.0209049
0.246036 0.831479 0.0411536
0.291356 0.824704 0.066804
