Camo Studio.app/Contents/Resources/CamoContent_CamoContent.bundle/Contents/Resources/JUST_RGB.cube
TITLE "Generated by Resolve"
LUT_3D_SIZE 5
0 0 0
0.254337 0 0
0.50869 0 0
0.763058 0 0
1 0 0
0 0.252827 0
0.232273 0.232273 0.227619
0.393561 0.267369 0.141176
0.683024 0.264347 0.055024
0.960464 0.259174 0.0254215
0 0.505653 0
0.323705 0.459068 0.188373
0.464561 0.464561 0.455238
0.559701 0.513924 0.422354
0.787121 0.534768 0.282399
0 0.758495 0
0.30045 0.726146 0.087602
0.610819 0.666651 0.499168
0.696864 0.696849 0.682872
0.772244 0.749096 0.679622
0 1 0
0.278462 0.987274 0.0421912
0.647456 0.918135 0.376776
0.85919 0.890196 0.76614
0.929152 0.929152 0.910491
0 0 0.25687
0.0724651 0.0706951 0.0724651
0.280293 0.0727245 0.176501
0.624735 0.0388342 0.234134
0.923369 0.0229801 0.248066
0.19675 0.196872 0.196872
0.249989 0.249989 0.249989
0.504265 0.248829 0.248829
0.758556 0.247684 0.247684
1 0.246525 0.246525
0.167773 0.44445 0.306111
0.242878 0.502831 0.242878
0.482277 0.482277 0.477623
0.643565 0.517372 0.391196
0.933028 0.514351 0.305013
0.0724804 0.724437 0.289784
0.235767 0.755657 0.235767
0.573724 0.709056 0.438376
0.714565 0.714565 0.705242
0.809705 0.763928 0.672358
0.0295567 0.989242 0.269474
0.228656 1 0.228656
0.550454 0.97615 0.337591
0.860838 0.916655 0.749187
0.946853 0.946853 0.932876
0 0 0.513741
0.188663 0.0340581 0.343282
0.14493 0.14139 0.14493
0.261387 0.17232 0.231708
0.560571 0.145464 0.353017
0.115282 0.231159 0.347036
0.249454 0.249454 0.506874
0.322454 0.320684 0.322454
0.530282 0.322728 0.426505
0.874723 0.288823 0.484123
0.3935 0.393744 0.393744
0.446738 0.44686 0.44686
0.499992 0.499992 0.499992
0.754345 0.498817 0.498817
1 0.497642 0.497642
0.44947 0.610636 0.556909
0.417792 0.694453 0.556115
0.492882 0.752834 0.492882
0.73228 0.73228 0.727626
0.893568 0.767376 0.641199
0.335607 0.888914 0.612253
0.322469 0.974441 0.539788
0.485771 1 0.485771
0.823728 0.95906 0.68838
0.964569 0.964569 0.955245
0 0 0.770626
0.235126 0.0111849 0.68304
0.253986 0.116243 0.322866
0.217395 0.212085 0.217395
0.300069 0.254627 0.288716
0.046128 0.246616 0.647608
0.24892 0.24892 0.763745
0.438651 0.284047 0.593256
0.394919 0.391379 0.394919
0.511376 0.422324 0.481682
0.346044 0.425818 0.465721
0.365286 0.481163 0.597025
0.499458 0.499458 0.756878
0.572457 0.570687 0.572457
0.780285 0.572732 0.676509
0.590265 0.590631 0.590631
0.643503 0.643748 0.643748
0.696742 0.696864 0.696864
0.749996 0.749996 0.749996
1 0.748837 0.748837
0.685313 0.794537 0.767239
0.699489 0.860639 0.806912
0.667796 0.944457 0.806119
0.742885 1 0.742885
0.982284 0.982284 0.97763
0 0 1
0.246342 0.00367742 0.97438
0.377325 0.0681163 0.686534
0.312261 0.195621 0.351156
0.28986 0.28278 0.28986
0.0222934 0.25008 0.933486
0.248386 0.248386 1
0.48513 0.261173 0.933043
0.503975 0.366247 0.572839
0.467384 0.462074 0.467384
0.23061 0.462333 0.694057
0.296117 0.49662 0.897612
0.498924 0.498924 1
0.688655 0.534051 0.843259
0.644923 0.641382 0.644923
0.563546 0.619058 0.637583
0.596063 0.675822 0.715709
0.61529 0.731167 0.847028
0.749462 0.749462 1
0.822461 0.820691 0.822461
0.787015 0.787503 0.787503
0.840253 0.84062 0.84062
0.893507 0.893751 0.893751
0.946746 0.946868 0.946868
1 1 1
