Camo Studio.app/Contents/Resources/CamoContent_CamoContent.bundle/Contents/Resources/POP.cube
TITLE "Generated by Resolve"
LUT_3D_SIZE 33
0.0479133 0.0461738 0.0427558
0.073167 0.0455787 0.0420386
0.0978714 0.0453956 0.0420386
0.133288 0.0429694 0.0406195
0.180026 0.0377203 0.0375525
0.227665 0.0327764 0.0349737
0.265278 0.0298772 0.0334478
0.304601 0.0268711 0.031754
0.341405 0.0246891 0.0304417
0.378302 0.0220035 0.0294041
0.414008 0.0200961 0.0280003
0.449165 0.018143 0.0267491
0.483742 0.0164034 0.0254826
0.517723 0.0149844 0.0240024
0.550729 0.0137484 0.0226444
0.583566 0.0125277 0.0214237
0.615213 0.0115053 0.0202487
0.645594 0.0106355 0.0191806
0.674907 0.0100557 0.018265
0.702739 0.00947585 0.0175784
0.729137 0.0090486 0.0170901
0.754711 0.00877394 0.0168612
0.779034 0.00857557 0.0167697
0.802548 0.00840772 0.0166781
0.824887 0.00831617 0.0167239
0.84715 0.00830091 0.016846
0.868925 0.00827039 0.0169833
0.890333 0.00831617 0.0171206
0.912169 0.00840772 0.017258
0.932631 0.00846876 0.0174868
0.951675 0.00872816 0.017792
0.970932 0.00898756 0.0180514
0.984985 0.00949111 0.0185702
0.0577859 0.0623178 0.0510262
0.0742809 0.0637064 0.049958
0.0951705 0.0641489 0.0485542
0.123186 0.0637064 0.0459449
0.166064 0.0587015 0.0388342
0.210788 0.0538949 0.0318914
0.250523 0.0493935 0.0268864
0.290898 0.0453651 0.0226444
0.329107 0.0411536 0.021088
0.366537 0.0373236 0.0198825
0.403693 0.0334478 0.019028
0.440131 0.0296025 0.0180667
0.475578 0.0263676 0.017258
0.510231 0.0244755 0.0165408
0.544121 0.0227665 0.0157626
0.576898 0.0212711 0.0151217
0.60914 0.0199588 0.0146944
0.639948 0.0188449 0.0142061
0.669841 0.0177615 0.0137026
0.697917 0.0170748 0.013489
0.724971 0.0164034 0.0132753
0.750729 0.0158694 0.0132143
0.775509 0.0153811 0.0132906
0.799527 0.0150607 0.0132753
0.822171 0.0148775 0.0133974
0.844907 0.0145571 0.0136873
0.867033 0.0144045 0.0138399
0.888548 0.0142977 0.0140536
0.910536 0.0141604 0.0142061
0.930251 0.0153201 0.014435
0.949218 0.0170901 0.0148775
0.967514 0.0192111 0.0150912
0.982116 0.0209354 0.0157778
0.0699168 0.0786908 0.0607156
0.0807202 0.0814374 0.0620127
0.0964218 0.0834211 0.0619821
0.115785 0.0852522 0.0603952
0.151919 0.0830243 0.0493935
0.189136 0.0817273 0.0389868
0.230777 0.0781415 0.0281071
0.273655 0.073991 0.0182345
0.313848 0.0701762 0.014786
0.352987 0.0660868 0.0135348
0.39086 0.0623331 0.0128328
0.427863 0.0588388 0.0124361
0.463737 0.0556039 0.011902
0.498756 0.0525216 0.0113985
0.533394 0.0498207 0.0109407
0.567163 0.0472572 0.0106813
0.599496 0.0453956 0.0102846
0.630777 0.0439002 0.0100557
0.660975 0.0421454 0.00984207
0.689174 0.0411078 0.00970474
0.716838 0.0406348 0.00967422
0.742596 0.0405432 0.00970474
0.767117 0.0408026 0.00968948
0.791119 0.0410925 0.00975052
0.81387 0.0420386 0.00987259
0.836011 0.0433051 0.0099031
0.857679 0.0443275 0.0100252
0.879026 0.0459754 0.0099794
0.900389 0.0470283 0.00993362
0.919997 0.0489815 0.0101472
0.939055 0.0506447 0.0102541
0.956695 0.0523537 0.0103456
0.971511 0.0541085 0.0107118
0.0823529 0.0953841 0.0706951
0.090425 0.0986801 0.0735027
0.100237 0.102419 0.0759289
0.110521 0.106172 0.0783551
0.138262 0.107576 0.0627604
0.167926 0.109133 0.0474708
0.209445 0.106676 0.0312352
0.255436 0.103075 0.014847
0.297688 0.100053 0.00869764
0.338521 0.0963302 0.00703441
0.37763 0.0926528 0.00654612
0.415045 0.0895705 0.00645457
0.451102 0.0869612 0.00636301
0.487068 0.0833143 0.00637827
0.52163 0.0809949 0.0061799
0.555688 0.0790417 0.00613413
0.588479 0.0771954 0.00602731
0.619684 0.0757458 0.00596628
0.650126 0.0743267 0.0059205
0.678721 0.0732891 0.0059205
0.706172 0.0731975 0.00576791
0.73164 0.0734569 0.0056611
0.756619 0.0740215 0.00560006
0.780209 0.0749371 0.00553903
0.803189 0.0759136 0.00540169
0.825498 0.0771954 0.00521859
0.847135 0.0785077 0.00503548
0.868544 0.0803845 0.00483711
0.889738 0.0814221 0.00469978
0.909285 0.0829786 0.00456245
0.928405 0.0845197 0.00444038
0.945388 0.0866407 0.00419623
0.960723 0.0880903 0.00410468
0.0949111 0.112764 0.0817273
0.103212 0.116594 0.0853742
0.112871 0.120836 0.0885939
0.122683 0.124666 0.0916152
0.141497 0.127687 0.0848707
0.163363 0.130632 0.0753185
0.19588 0.131289 0.059678
0.23505 0.130404 0.040589
0.275868 0.128679 0.0265202
0.317906 0.126452 0.0167849
0.358709 0.123659 0.0099794
0.398535 0.120363 0.00563058
0.436332 0.117922 0.00369268
0.473701 0.115221 0.00320439
0.509514 0.113222 0.00288396
0.544305 0.11078 0.00276188
0.577844 0.109239 0.00268559
0.609659 0.108095 0.00262455
0.64004 0.107286 0.00254826
0.669123 0.106538 0.00250248
0.696773 0.106371 0.0024567
0.723064 0.106828 0.00241093
0.748379 0.107317 0.00236515
0.772534 0.10782 0.00233463
0.795819 0.108934 0.00228885
0.819028 0.110307 0.00224308
0.840909 0.111666 0.00224308
0.862867 0.11249 0.00224308
0.884184 0.114183 0.00227359
0.904234 0.11548 0.00231937
0.92398 0.117037 0.00239567
0.941176 0.118456 0.00251774
0.956832 0.119783 0.00270085
0.108171 0.131212 0.09337
0.116701 0.135256 0.097612
0.125994 0.139528 0.101305
0.135637 0.143862 0.105089
0.148455 0.148043 0.105928
0.163058 0.151812 0.10457
0.185473 0.154818 0.0945602
0.215152 0.156634 0.0768597
0.251621 0.157214 0.0574197
0.292988 0.156085 0.0370184
0.335485 0.154406 0.0214694
0.377813 0.152377 0.0099794
0.418494 0.150118 0.00418097
0.45832 0.147662 0.00291447
0.496544 0.145281 0.00218204
0.533471 0.143206 0.00195315
0.568704 0.141527 0.00178531
0.602213 0.139956 0.00169375
0.633661 0.13901 0.00161746
0.663462 0.13872 0.00154116
0.691783 0.13875 0.00146487
0.718654 0.138903 0.00141909
0.744091 0.139605 0.00137331
0.768277 0.140368 0.00132753
0.792035 0.141711 0.00128176
0.815061 0.142794 0.00123598
0.837308 0.143572 0.00122072
0.859403 0.14519 0.00117494
0.880507 0.146853 0.00114443
0.900801 0.148058 0.00117494
0.920851 0.149233 0.0011902
0.937285 0.150149 0.00131228
0.952987 0.151522 0.00146487
0.122057 0.150484 0.105608
0.130739 0.154635 0.110262
0.139971 0.15903 0.114336
0.149859 0.163973 0.118822
0.159915 0.16817 0.122423
0.171221 0.173159 0.126268
0.185977 0.17734 0.123491
0.206424 0.181201 0.111421
0.23415 0.184298 0.0937514
0.271794 0.185138 0.0673075
0.311986 0.185306 0.0442054
0.355291 0.183734 0.0242466
0.398169 0.182574 0.012314
0.440253 0.180652 0.00735485
0.480934 0.178912 0.00425727
0.51986 0.176806 0.00239567
0.557382 0.174746 0.00131228
0.592386 0.173861 0.000991836
0.625269 0.172534 0.000717174
0.655909 0.171878 0.000610361
0.685023 0.171832 0.000503548
0.712444 0.171893 0.000488289
0.738445 0.172534 0.00047303
0.763226 0.173526 0.000457771
0.787091 0.174517 0.000457771
0.810285 0.175799 0.000442512
0.832685 0.176776 0.000442512
0.855253 0.178271 0.000442512
0.876753 0.179538 0.000457771
0.897078 0.180591 0.000488289
0.917189 0.181643 0.000518807
0.933684 0.182284 0.000640879
0.94966 0.182849 0.000762951
0.136294 0.170321 0.118212
0.144991 0.174426 0.123079
0.154879 0.179751 0.128038
0.16463 0.184604 0.132631
0.175006 0.189593 0.137102
0.185748 0.194217 0.141085
0.198352 0.199237 0.143618
0.214267 0.203891 0.140932
0.23389 0.207752 0.132586
0.261036 0.210986 0.114931
0.293431 0.212741 0.0935378
0.331548 0.214191 0.0708476
0.371328 0.214389 0.0504311
0.413931 0.212955 0.0340887
0.455589 0.212009 0.0210269
0.49691 0.210468 0.0106508
0.536141 0.209598 0.00428779
0.573419 0.20827 0.00231937
0.608774 0.207233 0.000869764
0.641505 0.206424 0.000595102
0.672679 0.206241 0.000335698
0.701595 0.206638 0.000289921
0.729183 0.206821 0.000228885
0.755413 0.207324 0.000213626
0.78024 0.208133 0.000198367
0.804562 0.208957 0.000183108
0.827482 0.210056 0.000183108
0.850294 0.211185 0.000167849
0.872175 0.212039 0.000167849
0.89279 0.212955 0.000167849
0.91313 0.213886 0.000167849
0.929641 0.214832 0.000183108
0.945846 0.215412 0.000198367
0.151095 0.190936 0.13135
0.160586 0.195727 0.137026
0.169955 0.200458 0.141817
0.180026 0.20589 0.146883
0.190509 0.211307 0.151904
0.201434 0.216403 0.156603
0.212787 0.2215 0.161273
0.224872 0.226535 0.165652
0.238056 0.231281 0.167193
0.256275 0.236423 0.158267
0.278462 0.240711 0.144106
0.310735 0.243381 0.118029
0.346288 0.245365 0.0916152
0.386938 0.245762 0.0652628
0.428504 0.246143 0.0420233
0.471916 0.245319 0.0220798
0.513405 0.244175 0.00828565
0.552544 0.243793 0.00505074
0.590799 0.242267 0.00170901
0.625223 0.241596 0.0012665
0.658717 0.241215 0.000793469
0.688945 0.241184 0.000656138
0.71783 0.241199 0.000320439
0.744701 0.241581 0.000183108
0.770443 0.242267 0.000137331
0.795819 0.242939 6.10361e-05
0.819059 0.243946 4.57771e-05
0.842206 0.244694 1.5259e-05
0.864485 0.245411 0
0.885863 0.246143 0
0.907088 0.24712 0
0.924361 0.247242 0
0.94078 0.247807 0
0.166522 0.212253 0.145159
0.176287 0.217273 0.151217
0.186191 0.222614 0.156695
0.19649 0.228382 0.162127
0.206668 0.233631 0.167117
0.217929 0.239261 0.172351
0.228962 0.244175 0.177096
0.241077 0.249485 0.181903
0.253864 0.254948 0.186175
0.269032 0.260151 0.184604
0.285801 0.264759 0.17966
0.309926 0.26862 0.163226
0.336797 0.272358 0.144961
0.371572 0.274556 0.119509
0.407919 0.276387 0.0950484
0.447913 0.276738 0.07187
0.487404 0.276921 0.0521859
0.526711 0.276753 0.0393072
0.56463 0.276951 0.0278477
0.600778 0.27599 0.0186007
0.635096 0.276081 0.0102693
0.666758 0.27628 0.00672923
0.697643 0.275959 0.00292973
0.726497 0.276341 0.0012665
0.753567 0.277272 0.00077821
0.780362 0.277607 0.000259403
0.805051 0.278431 0.000183108
0.829923 0.27895 6.10361e-05
0.853803 0.279713 0
0.876631 0.280125 0
0.899245 0.280537 0
0.917357 0.280354 0
0.93492 0.280247 0
0.182818 0.234501 0.159747
0.192798 0.239597 0.166125
0.202945 0.245289 0.172076
0.212863 0.250813 0.177325
0.223392 0.25658 0.182773
0.234409 0.262043 0.188067
0.245853 0.267582 0.193469
0.257755 0.272892 0.198489
0.269932 0.27834 0.203586
0.282612 0.283513 0.208225
0.295735 0.28864 0.211536
0.312184 0.29398 0.205661
0.33051 0.298665 0.195926
0.357733 0.30277 0.173465
0.387793 0.306416 0.149371
0.424369 0.307897 0.122332
0.460975 0.309728 0.0979629
0.500069 0.310323 0.0755016
0.538445 0.310216 0.0540017
0.57496 0.310567 0.0367285
0.610529 0.310628 0.0201419
0.644297 0.310491 0.0137331
0.676509 0.310872 0.00772107
0.706462 0.311559 0.00553903
0.734707 0.311864 0.005066
0.762829 0.312428 0.00410468
0.789029 0.312795 0.00375372
0.814923 0.31371 0.0030518
0.839567 0.314366 0.00209049
0.863722 0.314321 0.00157168
0.887373 0.314549 0.000839246
0.906279 0.314382 0.000656138
0.924331 0.314015 0.00062562
0.200061 0.257557 0.175402
0.210086 0.262776 0.181918
0.22002 0.268238 0.187854
0.229908 0.273793 0.193164
0.240436 0.279759 0.198795
0.251865 0.285847 0.204593
0.262943 0.291157 0.209873
0.27483 0.296651 0.215167
0.286824 0.301946 0.22034
0.299413 0.307286 0.22533
0.312322 0.312734 0.230274
0.326848 0.318013 0.229969
0.341894 0.32314 0.228092
0.36321 0.327703 0.214572
0.386023 0.331945 0.1991
0.416938 0.335317 0.175494
0.448127 0.338399 0.152575
0.483467 0.339483 0.128298
0.517937 0.340581 0.105425
0.552987 0.341894 0.0868696
0.587701 0.342397 0.0677806
0.620356 0.343511 0.0567788
0.652522 0.343755 0.0454414
0.682628 0.344823 0.037171
0.71191 0.345159 0.0300145
0.740047 0.346838 0.0235294
0.767849 0.347112 0.018265
0.794598 0.347982 0.0126497
0.820935 0.348455 0.00782788
0.845869 0.348684 0.00541695
0.87068 0.349172 0.00277714
0.891463 0.348745 0.00192264
0.910735 0.347799 0.00172427
0.217197 0.280568 0.190921
0.22742 0.285893 0.197757
0.2374 0.291371 0.203845
0.247822 0.297612 0.209735
0.258152 0.303532 0.215396
0.269047 0.309194 0.22089
0.280201 0.314717 0.226337
0.291951 0.320211 0.231769
0.304067 0.325734 0.237278
0.316716 0.331319 0.24271
0.329244 0.336706 0.24799
0.342046 0.342092 0.252979
0.35465 0.347204 0.257527
0.369512 0.352102 0.25359
0.385763 0.357321 0.247974
0.410163 0.361975 0.22771
0.435431 0.36585 0.206226
0.466941 0.368887 0.182345
0.49836 0.371252 0.158251
0.532082 0.373053 0.13727
0.564889 0.374533 0.116716
0.597208 0.375616 0.099733
0.628794 0.376791 0.083711
0.659144 0.378164 0.0702373
0.689448 0.379004 0.0577249
0.718746 0.379873 0.0458381
0.746609 0.38088 0.0380407
0.774441 0.381842 0.029984
0.801389 0.38265 0.0233616
0.827222 0.382818 0.0200809
0.852781 0.383001 0.0161898
0.874113 0.382452 0.0149844
0.894286 0.380972 0.0142519
0.234775 0.304006 0.20705
0.245182 0.309545 0.214145
0.255283 0.315084 0.220462
0.2654 0.321218 0.226261
0.275761 0.32723 0.232013
0.286534 0.332876 0.237537
0.297704 0.338598 0.243137
0.309438 0.344137 0.248692
0.321553 0.349828 0.254337
0.333654 0.354971 0.259525
0.34612 0.360372 0.264927
0.358648 0.365728 0.2701
0.37145 0.371328 0.275471
0.385183 0.376349 0.276158
0.398993 0.381308 0.276219
0.418524 0.386328 0.264942
0.438239 0.391196 0.25304
0.46482 0.394858 0.231846
0.490837 0.398566 0.211551
0.521355 0.401358 0.190539
0.550607 0.404059 0.170489
0.581186 0.405509 0.151431
0.610697 0.407858 0.135332
0.640269 0.409674 0.119799
0.669291 0.410758 0.105486
0.697398 0.412345 0.0923629
0.725032 0.413382 0.0818036
0.752728 0.414328 0.0712444
0.780041 0.415335 0.0618143
0.806363 0.415335 0.0543679
0.831739 0.415885 0.0471656
0.854078 0.415091 0.0422065
0.874495 0.413825 0.0383307
0.252644 0.327825 0.223438
0.262913 0.333059 0.230503
0.273136 0.338903 0.237095
0.283085 0.344884 0.242817
0.293172 0.350713 0.248508
0.304067 0.356588 0.254231
0.315251 0.362493 0.260014
0.326589 0.367788 0.26537
0.33843 0.373266 0.270909
0.3505 0.378561 0.276295
0.363195 0.384268 0.282078
0.37554 0.389487 0.287327
0.388144 0.395071 0.292836
0.401007 0.400443 0.297948
0.413962 0.405951 0.302892
0.428443 0.411002 0.300771
0.443275 0.416434 0.298558
0.464317 0.420844 0.281392
0.485557 0.426032 0.265415
0.511696 0.429282 0.244129
0.537469 0.432532 0.223545
0.56553 0.435889 0.204944
0.593652 0.438102 0.185809
0.620752 0.441077 0.169909
0.648966 0.442557 0.154299
0.676524 0.444053 0.139101
0.704036 0.445823 0.127047
0.731441 0.446952 0.114702
0.758663 0.447929 0.102907
0.785016 0.448051 0.092134
0.811368 0.447898 0.0812848
0.833783 0.447959 0.0747234
0.854734 0.446372 0.0684367
0.270375 0.351308 0.239887
0.280751 0.356878 0.247166
0.290806 0.362417 0.253742
0.300725 0.368429 0.25951
0.310994 0.37464 0.265492
0.321584 0.380316 0.271077
0.332265 0.385779 0.276555
0.343969 0.391684 0.282399
0.355688 0.397162 0.287968
0.368109 0.40296 0.293797
0.380377 0.408225 0.299275
0.392874 0.413672 0.304829
0.405447 0.419257 0.31046
0.418036 0.424598 0.31577
0.43093 0.430182 0.321294
0.444221 0.435218 0.323079
0.457969 0.440787 0.324773
0.475074 0.445808 0.316564
0.492226 0.450492 0.307134
0.514092 0.454887 0.290974
0.536095 0.459297 0.274632
0.560479 0.462959 0.257084
0.58555 0.465965 0.238819
0.610346 0.4692 0.222507
0.636301 0.471351 0.206302
0.661845 0.474006 0.191119
0.687556 0.476143 0.177523
0.713726 0.477562 0.163333
0.739452 0.478859 0.149554
0.765743 0.479286 0.137057
0.791333 0.479728 0.124773
0.81413 0.479088 0.114839
0.834546 0.477577 0.106874
0.288441 0.375204 0.256672
0.298268 0.380163 0.263554
0.30837 0.385855 0.270283
0.318624 0.392233 0.276432
0.328557 0.398199 0.282277
0.339086 0.403906 0.287892
0.350027 0.409796 0.293721
0.361425 0.415518 0.299458
0.37351 0.4215 0.305455
0.385672 0.427085 0.311177
0.398016 0.43267 0.316915
0.410315 0.437919 0.322393
0.422721 0.443305 0.327962
0.435538 0.449088 0.333806
0.448035 0.454322 0.339223
0.46099 0.459876 0.344305
0.473915 0.465385 0.349203
0.48748 0.470253 0.348516
0.501228 0.475425 0.347677
0.518471 0.480171 0.336583
0.536446 0.484596 0.322957
0.556848 0.489265 0.308217
0.578653 0.493278 0.291341
0.600671 0.497169 0.275044
0.624369 0.500023 0.258274
0.64773 0.50312 0.242054
0.671962 0.505287 0.226703
0.69688 0.507134 0.211551
0.721981 0.508904 0.196384
0.747311 0.50959 0.182528
0.771908 0.510307 0.169207
0.795148 0.509758 0.156985
0.815702 0.508461 0.147967
0.306142 0.398367 0.273289
0.316472 0.404028 0.28072
0.326513 0.409751 0.28748
0.336294 0.415793 0.29337
0.346273 0.42182 0.299275
0.356954 0.427771 0.305165
0.368048 0.433906 0.311238
0.379431 0.439658 0.317037
0.391104 0.44535 0.322835
0.403357 0.451164 0.328771
0.415259 0.456336 0.334203
0.427787 0.462013 0.340047
0.440436 0.467857 0.346014
0.452506 0.472816 0.351278
0.465278 0.478462 0.357092
0.477974 0.483986 0.362631
0.490623 0.489357 0.368048
0.50367 0.494728 0.371038
0.516243 0.499672 0.373144
0.530724 0.504295 0.368017
0.545907 0.509148 0.361212
0.563165 0.513695 0.350347
0.582208 0.518364 0.33698
0.600961 0.522667 0.323827
0.622232 0.525643 0.307408
0.642985 0.529198 0.292576
0.665202 0.532052 0.27744
0.688029 0.534005 0.261311
0.71043 0.536629 0.246632
0.734096 0.53756 0.231525
0.757534 0.538735 0.216999
0.779583 0.538537 0.203159
0.799252 0.53695 0.19205
0.324285 0.421775 0.290364
0.334585 0.427604 0.297841
0.344442 0.433204 0.304494
0.354162 0.439246 0.310384
0.364462 0.445838 0.316701
0.375158 0.451835 0.322698
0.38584 0.457542 0.328466
0.397406 0.463661 0.334615
0.408865 0.469169 0.340276
0.420722 0.474723 0.345998
0.43299 0.4804 0.351888
0.445594 0.48632 0.357946
0.457542 0.491493 0.363409
0.469856 0.496864 0.369055
0.482338 0.502251 0.374731
0.495094 0.507866 0.380545
0.507652 0.513237 0.386145
0.520119 0.518563 0.391073
0.532464 0.523781 0.395712
0.5449 0.52845 0.396368
0.557412 0.533227 0.396231
0.57145 0.537758 0.390372
0.586938 0.542504 0.380606
0.602472 0.546853 0.370153
0.621256 0.550652 0.355322
0.639185 0.554772 0.341955
0.658579 0.557992 0.327123
0.679103 0.560464 0.31107
0.699718 0.563684 0.296086
0.722011 0.564691 0.279225
0.743893 0.566064 0.263508
0.764965 0.566171 0.248081
0.784131 0.564675 0.235859
0.342748 0.44538 0.307897
0.35288 0.451102 0.315267
0.362692 0.456931 0.32192
0.37258 0.463218 0.328084
0.38265 0.469459 0.334249
0.393133 0.475364 0.340139
0.403815 0.481239 0.346059
0.414939 0.486931 0.351888
0.426688 0.492851 0.357961
0.438514 0.498451 0.36379
0.450599 0.504097 0.369619
0.462776 0.509575 0.375357
0.47483 0.514992 0.381048
0.487251 0.520577 0.386908
0.49958 0.525917 0.392569
0.511879 0.531106 0.398077
0.5243 0.536568 0.403754
0.5364 0.541573 0.409018
0.548775 0.547082 0.414649
0.560906 0.552224 0.418296
0.572168 0.556725 0.420737
0.584558 0.561196 0.419104
0.597665 0.565332 0.413123
0.611261 0.570321 0.408133
0.627482 0.574166 0.395926
0.643275 0.578103 0.384527
0.660471 0.581476 0.371389
0.678767 0.584298 0.35668
0.697215 0.587167 0.341878
0.717403 0.589105 0.326314
0.737484 0.590387 0.310124
0.757168 0.591165 0.294377
0.774929 0.58967 0.281239
0.361364 0.468925 0.325643
0.371008 0.474311 0.332662
0.380972 0.480476 0.339406
0.390707 0.486564 0.345495
0.400854 0.492973 0.351781
0.411048 0.498634 0.357534
0.421912 0.504784 0.363684
0.433158 0.510674 0.369726
0.444251 0.515969 0.375341
0.456062 0.521691 0.381247
0.467857 0.527138 0.386984
0.479881 0.532586 0.392721
0.492195 0.538415 0.398764
0.504036 0.543343 0.40412
0.51606 0.54844 0.409613
0.528481 0.553964 0.415396
0.54081 0.559319 0.421073
0.55285 0.564324 0.426413
0.564797 0.569512 0.431861
0.576715 0.574716 0.436744
0.588022 0.579431 0.440909
0.59939 0.58381 0.442512
0.610834 0.588373 0.442496
0.621637 0.591974 0.44097
0.635599 0.596429 0.432807
0.648768 0.600137 0.424094
0.663417 0.604044 0.413993
0.679576 0.607263 0.400687
0.695811 0.610101 0.38645
0.713802 0.612284 0.37116
0.731868 0.613962 0.355306
0.750195 0.615366 0.339269
0.766735 0.61387 0.325292
0.379904 0.492103 0.34345
0.389807 0.497993 0.350805
0.399283 0.503792 0.357046
0.408789 0.509804 0.363043
0.418677 0.515938 0.369162
0.428977 0.521828 0.375097
0.439673 0.527779 0.38117
0.450568 0.53341 0.387015
0.461799 0.53904 0.392874
0.473426 0.544594 0.398703
0.485054 0.549859 0.404349
0.497093 0.555474 0.410239
0.509102 0.561028 0.416068
0.520668 0.565759 0.421286
0.53283 0.571237 0.42707
0.544808 0.576211 0.432486
0.556725 0.581247 0.437888
0.568582 0.586191 0.443244
0.580591 0.59144 0.448829
0.592096 0.596307 0.454002
0.603555 0.601541 0.459388
0.614023 0.605661 0.462943
0.624552 0.609995 0.465644
0.634546 0.613931 0.467643
0.646326 0.617899 0.462455
0.658061 0.621881 0.457359
0.670771 0.625681 0.449989
0.684886 0.628702 0.438209
0.699138 0.631907 0.426673
0.715282 0.63444 0.412802
0.731594 0.635981 0.39707
0.747768 0.637461 0.381476
0.763348 0.635889 0.366812
0.398413 0.515068 0.361349
0.407797 0.520668 0.368261
0.417258 0.526726 0.374517
0.426841 0.532799 0.380621
0.436744 0.538964 0.386801
0.446891 0.544671 0.39266
0.457267 0.550484 0.398581
0.467994 0.555917 0.404288
0.479454 0.561959 0.410483
0.490837 0.567285 0.416159
0.502037 0.572229 0.421546
0.513802 0.5776 0.427253
0.525368 0.582742 0.432807
0.53724 0.588022 0.438453
0.549065 0.593133 0.443961
0.560632 0.597803 0.449119
0.572519 0.602853 0.454612
0.584192 0.607599 0.459876
0.595911 0.612726 0.465339
0.607065 0.617197 0.470253
0.618509 0.622461 0.475776
0.629038 0.626764 0.479957
0.639155 0.630823 0.483421
0.649714 0.635599 0.487266
0.660075 0.639231 0.485801
0.670268 0.642969 0.484672
0.681163 0.646326 0.4804
0.693339 0.649393 0.471672
0.705364 0.65243 0.463081
0.71931 0.65481 0.450675
0.734035 0.656809 0.4365
0.748409 0.658381 0.421897
0.762585 0.657328 0.407904
0.416419 0.537453 0.378866
0.425681 0.543252 0.385779
0.435004 0.549249 0.391775
0.444663 0.555657 0.398062
0.454185 0.561395 0.403876
0.463859 0.566766 0.40943
0.474434 0.572824 0.415564
0.485054 0.578225 0.421256
0.495857 0.583597 0.426917
0.507271 0.589059 0.4327
0.518608 0.594217 0.438315
0.530068 0.599191 0.443763
0.54139 0.604074 0.449165
0.553124 0.609339 0.45478
0.564569 0.614054 0.460029
0.57615 0.61886 0.465339
0.587762 0.623682 0.47068
0.599191 0.628321 0.475837
0.610727 0.633158 0.481224
0.621881 0.637751 0.486259
0.632883 0.642588 0.491508
0.643656 0.647288 0.496544
0.654002 0.651759 0.501274
0.664057 0.656199 0.505898
0.673243 0.659709 0.50808
0.681849 0.662699 0.509819
0.691295 0.665965 0.508736
0.701823 0.669291 0.503105
0.711971 0.672023 0.496834
0.724147 0.674754 0.486793
0.737179 0.676783 0.47364
0.749767 0.678752 0.46096
0.762539 0.677638 0.446677
0.434089 0.559686 0.396231
0.443015 0.565301 0.40267
0.452216 0.57142 0.408667
0.461387 0.57731 0.414496
0.470771 0.582956 0.420157
0.480766 0.5888 0.426093
0.490852 0.594369 0.4318
0.50135 0.599725 0.43743
0.51191 0.604837 0.442878
0.523156 0.610117 0.448585
0.534127 0.614984 0.453956
0.545266 0.619669 0.459205
0.556695 0.624735 0.464759
0.568307 0.629923 0.470344
0.579446 0.634379 0.475349
0.590875 0.639002 0.480552
0.602243 0.643595 0.48574
0.613535 0.648188 0.490852
0.624781 0.65275 0.495949
0.635798 0.65716 0.500923
0.646525 0.661707 0.505913
0.657008 0.666133 0.510735
0.667475 0.670802 0.515724
0.677409 0.675212 0.520378
0.686824 0.679011 0.523491
0.695567 0.682231 0.526131
0.704601 0.685496 0.526848
0.714214 0.68867 0.524346
0.723537 0.691402 0.521355
0.733928 0.693507 0.513741
0.745449 0.695735 0.503761
0.756481 0.69752 0.493431
0.767926 0.696376 0.480125
0.451514 0.581506 0.413382
0.460121 0.587106 0.41944
0.46891 0.592874 0.42504
0.477852 0.598733 0.430732
0.487251 0.604517 0.436423
0.496574 0.609674 0.441749
0.506401 0.615 0.447242
0.516884 0.620356 0.452903
0.527596 0.625666 0.458534
0.538293 0.630426 0.463844
0.549508 0.635569 0.469474
0.560678 0.640375 0.47483
0.571603 0.644938 0.479973
0.582666 0.649485 0.485069
0.593988 0.654307 0.490394
0.605142 0.658671 0.495399
0.616434 0.663249 0.500526
0.627573 0.667643 0.505501
0.638605 0.672114 0.510521
0.649226 0.676081 0.515145
0.659907 0.680461 0.520088
0.670268 0.68481 0.524865
0.680461 0.689235 0.529702
0.690486 0.693721 0.534539
0.699886 0.697673 0.538415
0.709133 0.701564 0.542275
0.717754 0.704646 0.544457
0.726482 0.707683 0.545007
0.734707 0.710033 0.544762
0.743725 0.712062 0.5402
0.753552 0.713909 0.532357
0.76321 0.715694 0.524544
0.773434 0.714931 0.513115
0.467857 0.60238 0.429694
0.476371 0.608194 0.435508
0.484749 0.613931 0.440742
0.493126 0.619593 0.44593
0.502235 0.624964 0.45127
0.51165 0.630335 0.456748
0.52134 0.635447 0.462058
0.531395 0.640452 0.467414
0.542046 0.645716 0.47303
0.552834 0.650507 0.478416
0.563577 0.655116 0.483619
0.574624 0.65977 0.488899
0.585473 0.664286 0.494011
0.596323 0.668605 0.498955
0.607431 0.673198 0.504173
0.618387 0.677317 0.509026
0.629725 0.682002 0.51426
