Camo Studio.app/Contents/Resources/CamoContent_CamoContent.bundle/Contents/Resources/POP.cube
TITLE "Generated by Resolve"
LUT_3D_SIZE 9
0.0479133 0.0461738 0.0427558
0.180026 0.0377203 0.0375525
0.341405 0.0246891 0.0304417
0.483742 0.0164034 0.0254826
0.615213 0.0115053 0.0202487
0.729137 0.0090486 0.0170901
0.824887 0.00831617 0.0167239
0.912169 0.00840772 0.017258
0.984985 0.00949111 0.0185702
0.0949111 0.112764 0.0817273
0.141497 0.127687 0.0848707
0.275868 0.128679 0.0265202
0.436332 0.117922 0.00369268
0.577844 0.109239 0.00268559
0.696773 0.106371 0.0024567
0.795819 0.108934 0.00228885
0.884184 0.114183 0.00227359
0.956832 0.119783 0.00270085
0.151095 0.190936 0.13135
0.190509 0.211307 0.151904
0.238056 0.231281 0.167193
0.346288 0.245365 0.0916152
0.513405 0.244175 0.00828565
0.658717 0.241215 0.000793469
0.770443 0.242267 0.000137331
0.864485 0.245411 0
0.94078 0.247807 0
0.217197 0.280568 0.190921
0.258152 0.303532 0.215396
0.304067 0.325734 0.237278
0.35465 0.347204 0.257527
0.435431 0.36585 0.206226
0.564889 0.374533 0.116716
0.689448 0.379004 0.0577249
0.801389 0.38265 0.0233616
0.894286 0.380972 0.0142519
0.288441 0.375204 0.256672
0.328557 0.398199 0.282277
0.37351 0.4215 0.305455
0.422721 0.443305 0.327962
0.473915 0.465385 0.349203
0.536446 0.484596 0.322957
0.624369 0.500023 0.258274
0.721981 0.508904 0.196384
0.815702 0.508461 0.147967
0.361364 0.468925 0.325643
0.400854 0.492973 0.351781
0.444251 0.515969 0.375341
0.492195 0.538415 0.398764
0.54081 0.559319 0.421073
0.588022 0.579431 0.440909
0.635599 0.596429 0.432807
0.695811 0.610101 0.38645
0.766735 0.61387 0.325292
0.434089 0.559686 0.396231
0.470771 0.582956 0.420157
0.51191 0.604837 0.442878
0.556695 0.624735 0.464759
0.602243 0.643595 0.48574
0.646525 0.661707 0.505913
0.686824 0.679011 0.523491
0.723537 0.691402 0.521355
0.767926 0.696376 0.480125
0.498787 0.641855 0.460746
0.531136 0.663706 0.480339
0.569116 0.682963 0.500587
0.611261 0.700664 0.520516
0.654276 0.717327 0.539635
0.696345 0.73312 0.558175
0.735195 0.749294 0.576379
0.77113 0.764279 0.592721
0.799893 0.768429 0.591485
0.549599 0.70692 0.512749
0.578637 0.725902 0.529946
0.613108 0.743725 0.547662
0.653147 0.760601 0.566827
0.694636 0.77705 0.585641
0.736004 0.793286 0.604334
0.774304 0.8094 0.622553
0.810529 0.825406 0.640497
0.84593 0.838987 0.659785
0.0490578 0.0377203 0.232761
0.11194 0.0536812 0.128191
0.291447 0.0295567 0.129854
0.469612 0.0127565 0.142168
0.609979 0.00767529 0.137194
0.724315 0.00570687 0.132982
0.820035 0.00521859 0.132616
0.90724 0.00523384 0.13521
0.980911 0.00653086 0.137819
0.0724804 0.122774 0.15375
0.137163 0.135317 0.130816
0.288609 0.123445 0.113298
0.443244 0.110964 0.103349
0.577173 0.103944 0.0987716
0.694102 0.1028 0.0990921
0.792462 0.107362 0.104051
0.880217 0.114122 0.111177
0.952041 0.122515 0.119692
0.158877 0.198795 0.153918
0.197894 0.219669 0.173236
0.249012 0.239704 0.18616
0.390082 0.244282 0.112444
0.550759 0.237049 0.078706
0.676936 0.234989 0.076524
0.777493 0.238254 0.0832532
0.866117 0.243488 0.0928359
0.938735 0.248188 0.105409
0.226017 0.289555 0.212711
0.26717 0.313008 0.236698
0.312978 0.335241 0.258091
0.364416 0.356527 0.27657
0.461997 0.372503 0.211109
0.606409 0.374472 0.136584
0.730694 0.375418 0.107378
0.835706 0.37705 0.0982528
0.919203 0.376837 0.101656
0.297032 0.384115 0.27744
0.337636 0.407416 0.302861
0.382605 0.431052 0.32604
0.431907 0.452903 0.348409
0.483345 0.474845 0.369253
0.553109 0.493584 0.332113
0.653284 0.505516 0.264134
0.758953 0.510552 0.211673
0.854765 0.507271 0.177401
0.369848 0.47776 0.345907
0.410391 0.502373 0.372885
0.453651 0.525841 0.396445
0.500938 0.547448 0.419028
0.549554 0.568383 0.441184
0.597055 0.588373 0.460258
0.6477 0.604913 0.445228
0.714458 0.617426 0.39292
0.792767 0.618219 0.331243
0.443091 0.56875 0.417578
0.480903 0.592325 0.442786
0.520989 0.613809 0.46479
0.565179 0.633585 0.485679
0.610254 0.652018 0.50576
0.654215 0.669673 0.525246
0.694484 0.686671 0.541924
0.732677 0.698741 0.534951
0.782025 0.703151 0.48748
0.507454 0.649775 0.482704
0.542123 0.671519 0.505028
0.578363 0.691203 0.523888
0.619043 0.708431 0.541909
0.661479 0.724819 0.559838
0.70341 0.740536 0.577737
0.742214 0.756603 0.595666
0.778347 0.771603 0.611643
0.808179 0.775891 0.60647
0.556802 0.713878 0.532876
0.58909 0.733852 0.55378
0.621912 0.75172 0.570428
0.6607 0.768307 0.587991
0.701625 0.78436 0.605707
0.742809 0.800458 0.623606
0.781277 0.816709 0.641764
0.817533 0.832425 0.65948
0.852888 0.846143 0.678203
0.130846 0.00733959 0.471473
0.155108 0.0280156 0.397894
0.165515 0.0699321 0.168551
0.327932 0.0439612 0.199863
0.539773 0.0135348 0.251545
0.69279 0.0061799 0.264881
0.805859 0.0040589 0.269993
0.901228 0.00340276 0.273152
0.977691 0.00459297 0.273106
0.0101778 0.124147 0.418311
0.0700389 0.13959 0.361608
0.199619 0.151247 0.215091
0.39176 0.124514 0.226246
0.565209 0.104311 0.239338
0.691295 0.10016 0.239979
0.790173 0.105257 0.242878
0.878218 0.11281 0.247486
0.949981 0.122499 0.249638
0.126055 0.212848 0.235035
0.165118 0.234913 0.252598
0.252308 0.249241 0.231418
0.413779 0.239918 0.221698
0.557351 0.235019 0.218601
0.676951 0.235401 0.220371
0.776242 0.240742 0.226062
0.864195 0.248066 0.233799
0.936217 0.256107 0.24213
0.235676 0.298619 0.243992
0.276295 0.322225 0.267018
0.321843 0.344945 0.288014
0.37528 0.365866 0.303426
0.508553 0.372854 0.234592
0.653178 0.369116 0.206882
0.761395 0.371344 0.208927
0.852445 0.375845 0.218097
0.927489 0.379644 0.228962
0.306371 0.393256 0.307179
0.347219 0.416983 0.332006
0.392599 0.441306 0.355642
0.441321 0.462867 0.37705
0.4934 0.484565 0.39675
0.578988 0.501167 0.344335
0.694987 0.507378 0.284993
0.805356 0.508598 0.253086
0.897551 0.504265 0.240482
0.37937 0.487511 0.375051
0.419852 0.511803 0.401114
0.464042 0.535897 0.425834
0.510506 0.557275 0.447654
0.558404 0.577493 0.468788
0.606394 0.597375 0.48632
0.663478 0.613108 0.461051
0.741466 0.623102 0.403555
0.829053 0.620645 0.348684
0.451789 0.577493 0.445304
0.489799 0.600977 0.470436
0.531914 0.623728 0.494575
0.574273 0.642527 0.514061
0.618692 0.66067 0.533318
0.662303 0.678019 0.552117
0.702541 0.694453 0.567102
0.744076 0.706615 0.552926
0.801221 0.709743 0.498497
0.515602 0.658 0.509911
0.550912 0.679332 0.532723
0.589853 0.699382 0.554665
0.628519 0.716716 0.571405
0.669566 0.732784 0.587854
0.71075 0.748043 0.604685
0.749615 0.764035 0.622202
0.785534 0.778698 0.637064
0.818006 0.783673 0.626429
0.564034 0.721279 0.558694
0.597513 0.740978 0.580423
0.634653 0.760006 0.601938
0.670558 0.776455 0.617319
0.71014 0.792538 0.633616
0.750561 0.808255 0.650614
0.788861 0.824277 0.668193
0.825193 0.840269 0.686076
0.860548 0.854154 0.704143
0.214237 0.00169375 0.58558
0.245624 0.00575265 0.566003
0.25832 0.0343328 0.40444
0.214252 0.0918288 0.196368
0.342138 0.0758068 0.240803
0.53373 0.0392157 0.312459
0.689616 0.0219577 0.355444
0.820844 0.015671 0.382788
0.924758 0.0131075 0.393591
0.0718547 0.0968643 0.559243
0.107347 0.119112 0.547036
0.191516 0.136721 0.466102
0.263432 0.174395 0.254994
0.417853 0.156771 0.294759
0.59852 0.130663 0.343526
0.736263 0.121401 0.365927
0.848066 0.120806 0.377966
0.933227 0.126085 0.380118
0.0139773 0.227146 0.507332
0.0259861 0.255512 0.553414
0.154437 0.265644 0.47071
0.317586 0.27245 0.32462
0.503792 0.251179 0.343969
0.660151 0.238483 0.360616
0.769619 0.24007 0.366415
0.860487 0.247349 0.371008
0.93431 0.256474 0.372992
0.202289 0.314305 0.330892
0.234836 0.339467 0.358938
0.285451 0.362478 0.375158
0.381018 0.375418 0.348562
0.534707 0.36817 0.345739
0.662013 0.367483 0.34638
0.763592 0.37319 0.352819
0.85272 0.380682 0.360952
0.926574 0.388708 0.369345
0.315847 0.402533 0.343694
0.357351 0.426734 0.367834
0.401633 0.450538 0.390875
0.450416 0.47303 0.41239
0.504143 0.49395 0.429664
0.622126 0.502098 0.370581
0.743557 0.502617 0.348669
0.841779 0.504265 0.348882
0.919081 0.504921 0.356359
0.388785 0.496925 0.410208
0.42948 0.521187 0.43595
0.47332 0.545342 0.460243
0.519875 0.566979 0.482261
0.567269 0.586938 0.502464
0.61651 0.606119 0.516304
0.687099 0.619577 0.479118
0.781033 0.624475 0.425544
0.874647 0.619669 0.391791
0.460716 0.58648 0.479408
0.49868 0.609567 0.504097
0.540154 0.632044 0.527459
0.584146 0.652033 0.548714
0.626978 0.669154 0.566552
0.670268 0.686229 0.584543
0.711131 0.702525 0.597284
0.75935 0.71429 0.572702
0.828656 0.715373 0.514794
0.523857 0.665965 0.542702
0.558633 0.687144 0.565103
0.597482 0.706981 0.586587
0.638819 0.724758 0.606348
0.678492 0.740688 0.622278
0.718532 0.75584 0.637903
0.756771 0.771176 0.654429
0.793454 0.786435 0.66804
0.830289 0.791836 0.649012
0.571817 0.728618 0.59028
0.604379 0.748028 0.61117
0.641611 0.766918 0.632197
0.682689 0.785382 0.653376
0.720256 0.800916 0.668666
0.759335 0.816556 0.684474
0.796841 0.832319 0.701213
0.833463 0.848753 0.719173
0.868727 0.862562 0.736156
0.284031 0.000335698 0.677638
0.313024 0.00210575 0.664363
0.367514 0.00822461 0.601297
0.326879 0.0509346 0.375677
0.263279 0.115709 0.230762
0.35819 0.111162 0.274922
0.50454 0.0891127 0.343679
0.650645 0.0690471 0.401984
0.779385 0.0542153 0.440543
0.150698 0.0748455 0.650492
0.178424 0.100038 0.637781
0.252461 0.116136 0.60029
0.31342 0.152117 0.436851
0.323842 0.201373 0.29482
0.433951 0.197131 0.340871
0.584024 0.179248 0.403372
0.722622 0.166171 0.44712
0.83566 0.159243 0.468498
0.0568704 0.20856 0.659113
0.0903792 0.236225 0.660868
0.17583 0.25594 0.632776
0.294865 0.269169 0.543969
0.388388 0.299931 0.366934
0.520088 0.291249 0.410346
0.669902 0.275425 0.458503
0.796826 0.268894 0.484657
0.894896 0.268742 0.492912
0.104356 0.329885 0.555657
0.104814 0.361715 0.616571
0.134234 0.387701 0.664424
0.285222 0.394873 0.569482
0.446372 0.401144 0.43563
0.607919 0.384939 0.467445
0.742657 0.37882 0.487892
0.844083 0.382971 0.496208
0.92224 0.389532 0.498253
0.278996 0.418784 0.438331
0.317693 0.444007 0.459281
0.361227 0.468772 0.483055
0.422721 0.489189 0.490791
0.510155 0.5037 0.476066
0.646403 0.499809 0.477653
0.755016 0.502434 0.482017
0.844633 0.508751 0.489219
0.919509 0.514382 0.495491
0.396582 0.506554 0.450599
0.438773 0.530587 0.474434
0.482246 0.554299 0.497963
0.528252 0.575921 0.519738
0.575448 0.596246 0.539681
0.628885 0.614221 0.550149
0.721904 0.621592 0.511604
0.824613 0.621454 0.486778
0.909224 0.618433 0.483101
0.469627 0.5953 0.516442
0.507622 0.618128 0.540795
0.548623 0.640497 0.563745
0.591745 0.659861 0.584024
0.635386 0.677729 0.602731
0.677867 0.694209 0.619471
0.720088 0.709911 0.628244
0.78204 0.720043 0.593027
0.8663 0.717479 0.543023
0.532219 0.674052 0.578271
0.56669 0.694697 0.60032
0.604776 0.714473 0.621256
0.645701 0.731991 0.640146
0.687785 0.749142 0.658839
0.72668 0.763622 0.673701
0.76405 0.778546 0.689143
0.801541 0.793713 0.699855
0.846738 0.799374 0.671321
0.579477 0.735973 0.624262
0.611872 0.755154 0.644984
0.648661 0.774212 0.665583
0.689174 0.79202 0.685634
0.730755 0.809613 0.705531
0.768673 0.824857 0.721019
0.805325 0.840345 0.737026
0.841428 0.856641 0.754437
0.876967 0.871229 0.770642
0.337377 0 0.749813
0.365209 0.000900282 0.738247
0.431083 0.00270085 0.704158
0.448524 0.0209659 0.554726
0.370413 0.0814221 0.35404
0.326787 0.13521 0.280995
0.385122 0.145068 0.311162
0.50106 0.133394 0.373709
0.624811 0.118257 0.42858
0.212772 0.0592355 0.724697
0.234623 0.0879835 0.710323
0.303639 0.105135 0.678111
0.384314 0.126329 0.589868
0.39176 0.181399 0.411841
0.379629 0.230488 0.337743
0.458976 0.236881 0.381796
0.580758 0.226108 0.444556
0.699519 0.213916 0.489693
0.121798 0.193408 0.734112
0.153079 0.222934 0.731182
0.231205 0.245808 0.704372
0.337774 0.258106 0.655009
0.422675 0.288731 0.501015
0.447623 0.329809 0.410117
0.538094 0.33257 0.455558
0.664836 0.321401 0.514122
0.78172 0.311894 0.549691
0.0925917 0.326513 0.724239
0.10631 0.35642 0.765393
0.181735 0.37734 0.752972
0.293568 0.391318 0.710796
0.423514 0.401831 0.620142
0.509758 0.430426 0.479896
0.619577 0.428031 0.528054
0.750484 0.417563 0.575708
0.860685 0.411704 0.596109
0.204425 0.432685 0.611505
0.214786 0.463508 0.659083
0.233845 0.492866 0.714717
0.274983 0.516762 0.75845
0.436362 0.521416 0.653559
0.56997 0.530587 0.548043
0.702205 0.521172 0.588281
0.824079 0.514672 0.61239
0.913695 0.515587 0.615305
0.3579 0.522774 0.548333
0.395895 0.548333 0.571664
0.439536 0.572229 0.593072
0.484688 0.593835 0.615228
0.544686 0.611353 0.621805
0.628244 0.623438 0.603387
0.734157 0.623255 0.604562
0.836225 0.621805 0.606882
0.913207 0.624063 0.609995
0.470237 0.605722 0.563333
0.510872 0.627665 0.583551
0.553506 0.648936 0.603693
0.597971 0.667903 0.621988
0.642298 0.685603 0.639384
0.684901 0.702235 0.655833
0.730922 0.716686 0.662226
0.813855 0.720806 0.630777
0.901808 0.717327 0.611261
0.540002 0.681865 0.614267
0.574624 0.702296 0.63595
0.612497 0.722026 0.656748
0.652735 0.739376 0.675273
0.694163 0.755978 0.693049
0.734646 0.771557 0.709743
0.771282 0.786099 0.724453
0.811154 0.800275 0.730373
0.870497 0.805264 0.695949
0.58706 0.743313 0.658717
0.619303 0.762264 0.679164
0.655726 0.78114 0.69955
0.696147 0.799313 0.719402
0.737392 0.816464 0.738735
0.778363 0.833555 0.757733
0.814328 0.84892 0.773754
0.849226 0.8645 0.789929
0.884993 0.87953 0.80502
0.378729 0 0.805463
0.404883 0.000335698 0.79469
0.470268 0.00175479 0.765698
0.527001 0.00798047 0.67393
0.483482 0.0453346 0.486442
0.407538 0.114412 0.357885
0.380453 0.160189 0.323537
0.423941 0.174899 0.351904
0.520562 0.168231 0.404959
0.259815 0.0505989 0.783047
0.279072 0.0806134 0.767224
0.343832 0.0992905 0.735683
0.43357 0.114427 0.678248
0.469047 0.157427 0.530709
0.447425 0.215213 0.413611
0.442771 0.256794 0.389838
0.496986 0.270375 0.42446
0.593378 0.263691 0.474876
0.170581 0.184771 0.78912
0.200824 0.215595 0.785702
0.274678 0.240925 0.759838
0.376257 0.25388 0.716548
0.473686 0.273625 0.618097
0.498085 0.319265 0.48954
0.506508 0.3579 0.459525
0.571588 0.368505 0.499031
0.672496 0.360739 0.548959
0.123186 0.318334 0.817334
0.151553 0.347433 0.829725
0.229175 0.370077 0.807935
0.336492 0.386557 0.766934
0.455589 0.396124 0.710567
0.541665 0.423651 0.578088
0.571908 0.458061 0.533165
0.648005 0.464958 0.573449
0.755001 0.455726 0.62034
0.173098 0.436805 0.754391
0.17966 0.468132 0.806851
0.219791 0.493965 0.843519
0.310658 0.510979 0.828458
0.436393 0.52282 0.774594
0.562585 0.53225 0.685313
0.634913 0.554208 0.60911
0.724254 0.556039 0.642557
0.834424 0.545495 0.67808
0.303426 0.534737 0.677119
0.324331 0.562951 0.714443
0.353979 0.589731 0.752483
0.388266 0.613367 0.793347
0.449882 0.631342 0.808576
0.586908 0.635782 0.724163
0.687953 0.643442 0.673182
0.79292 0.638788 0.69279
0.891752 0.632074 0.707118
0.434165 0.619867 0.65301
0.468894 0.643198 0.675929
0.509819 0.664988 0.695903
0.553979 0.684062 0.713771
0.598611 0.701518 0.730968
0.662242 0.714534 0.72546
0.731243 0.724376 0.710979
0.818814 0.724834 0.713802
0.909575 0.720913 0.713298
0.533379 0.692073 0.663798
0.570336 0.711986 0.681819
0.611475 0.730831 0.698131
0.655406 0.747372 0.71252
0.697429 0.763317 0.728664
0.739162 0.778622 0.74342
0.778134 0.793729 0.757733
0.821149 0.806134 0.763882
0.897154 0.807691 0.735424
0.593194 0.750942 0.692256
0.625803 0.769314 0.71162
0.662745 0.788235 0.731594
0.702953 0.806165 0.750805
0.743938 0.823484 0.76968
0.784894 0.840391 0.788464
0.823423 0.857542 0.807446
0.856855 0.87219 0.822599
0.892653 0.886946 0.835477
0.414786 0 0.853162
0.438987 0.000122072 0.842939
0.502342 0.00120546 0.816129
0.579675 0.00262455 0.757458
0.575998 0.0252384 0.601663
0.507591 0.0844282 0.452781
0.450919 0.14406 0.379858
0.426093 0.188815 0.361379
0.460731 0.203586 0.388418
0.300343 0.0441444 0.832914
0.317815 0.0756847 0.816449
0.378531 0.0956588 0.785
0.469841 0.108766 0.738537
0.532006 0.139361 0.628626
0.526009 0.193988 0.500832
0.499702 0.24686 0.440696
0.492973 0.286091 0.431968
0.534432 0.29868 0.460502
0.211612 0.178805 0.836179
0.241505 0.21033 0.831876
0.312535 0.238178 0.806943
0.409857 0.251087 0.765759
0.514595 0.26453 0.698894
0.559899 0.302556 0.578759
0.556451 0.349645 0.511818
0.560204 0.386084 0.504936
0.60737 0.397848 0.535271
0.162325 0.310491 0.875181
0.194553 0.340368 0.87599
0.270253 0.364233 0.853361
0.373831 0.384329 0.814542
0.487282 0.393454 0.764828
0.585122 0.412772 0.673976
0.611124 0.452354 0.590127
0.62475 0.486854 0.577707
0.680293 0.494987 0.610498
0.170901 0.434302 0.861295
0.184543 0.4654 0.904463
0.24715 0.488792 0.909575
0.350561 0.505547 0.874525
0.47013 0.520806 0.827756
0.586114 0.527932 0.771588
0.657023 0.552804 0.676768
0.682475 0.582666 0.645472
0.749294 0.584634 0.681285
0.265538 0.540581 0.798184
0.277394 0.570642 0.844007
0.307332 0.596704 0.885206
0.360616 0.617014 0.911589
0.457511 0.630488 0.891081
0.579416 0.638788 0.832761
0.680034 0.648234 0.760647
0.731441 0.669108 0.705837
0.81416 0.663767 0.741909
0.388128 0.629175 0.757229
0.412818 0.654444 0.788052
0.444862 0.677653 0.817105
0.481086 0.698466 0.846311
0.522988 0.716762 0.87483
0.601236 0.727657 0.859709
0.709255 0.733913 0.794629
0.779797 0.742748 0.763088
0.871504 0.735729 0.785763
0.502083 0.704738 0.743526
0.534585 0.72546 0.763134
0.573556 0.74464 0.779202
0.619165 0.76202 0.791165
0.66183 0.777081 0.805798
0.7066 0.791516 0.818708
0.765591 0.802625 0.810803
0.82002 0.813977 0.806653
0.895262 0.814664 0.810636
0.584283 0.760296 0.740566
0.619257 0.779004 0.757046
0.659617 0.796948 0.771893
0.702953 0.81416 0.787366
0.747036 0.830823 0.802701
0.790158 0.847486 0.818769
0.829038 0.863783 0.835615
0.863828 0.879423 0.852186
0.900069 0.893629 0.863783
0.442557 0 0.895003
0.465766 3.0518e-05 0.886213
0.526879 0.000793469 0.860563
0.611704 0.0019379 0.817243
0.644327 0.0148165 0.697734
0.60116 0.0551461 0.551339
0.538766 0.118364 0.453147
0.491341 0.172778 0.407034
0.473945 0.211246 0.400916
0.332998 0.0386511 0.877256
0.348074 0.0726329 0.860822
0.405264 0.093492 0.829877
0.493141 0.106661 0.786709
0.573419 0.127825 0.705776
0.589319 0.174029 0.584451
0.567819 0.226535 0.505623
0.542641 0.274937 0.470863
0.537484 0.310399 0.470909
0.245502 0.171786 0.878676
0.274144 0.20528 0.874128
0.341787 0.236545 0.849912
0.433753 0.249958 0.810895
0.538933 0.260609 0.757427
0.605295 0.288869 0.659586
0.613382 0.33315 0.577295
0.601236 0.377798 0.542138
0.602319 0.412253 0.543786
0.197574 0.302083 0.916655
0.229465 0.332341 0.915984
0.302739 0.358465 0.894255
0.403082 0.382971 0.857862
0.510399 0.392691 0.811521
0.613977 0.405188 0.747509
0.658 0.439017 0.660822
0.661295 0.479545 0.616999
0.666606 0.511345 0.616938
0.185 0.426123 0.938842
0.208133 0.455695 0.963561
0.279561 0.47985 0.950561
0.382208 0.499672 0.915007
0.498863 0.519753 0.871092
0.607569 0.526101 0.822416
0.690288 0.543114 0.751904
0.71696 0.575097 0.69102
0.726909 0.603067 0.686015
0.244999 0.537392 0.900649
0.257115 0.566537 0.944213
0.29807 0.591501 0.973953
0.376364 0.608942 0.971206
0.487709 0.623285 0.931151
0.603067 0.636332 0.883864
0.700008 0.643122 0.833036
0.760769 0.661768 0.764843
0.778897 0.685084 0.746944
0.347326 0.628702 0.858671
0.364813 0.654459 0.895338
0.394797 0.677943 0.928512
0.438224 0.697978 0.956176
0.503975 0.714397 0.965393
0.600946 0.724865 0.936584
0.707027 0.733791 0.882841
0.786862 0.742809 0.829572
0.824735 0.759213 0.801892
0.455177 0.704417 0.831098
0.481041 0.72697 0.856596
0.513161 0.747509 0.879484
0.550927 0.766537 0.901701
0.593606 0.784604 0.924086
0.644495 0.799954 0.93959
0.72575 0.810056 0.914321
0.813458 0.819501 0.86836
0.866911 0.830076 0.852964
0.554269 0.768627 0.815427
0.585245 0.788251 0.833814
0.62266 0.806653 0.84976
0.666407 0.824674 0.8636
0.712856 0.8421 0.876478
0.76022 0.859358 0.888426
0.807004 0.87454 0.896834
0.859068 0.887373 0.894759
0.904875 0.900389 0.897902
