Camo Studio.app/Contents/Resources/CamoContent_CamoContent.bundle/Contents/Resources/POP.cube
TITLE "Generated by Resolve"
LUT_3D_SIZE 5
0.0479133 0.0461738 0.0427558
0.341405 0.0246891 0.0304417
0.615213 0.0115053 0.0202487
0.824887 0.00831617 0.0167239
0.984985 0.00949111 0.0185702
0.151095 0.190936 0.13135
0.238056 0.231281 0.167193
0.513405 0.244175 0.00828565
0.770443 0.242267 0.000137331
0.94078 0.247807 0
0.288441 0.375204 0.256672
0.37351 0.4215 0.305455
0.473915 0.465385 0.349203
0.624369 0.500023 0.258274
0.815702 0.508461 0.147967
0.434089 0.559686 0.396231
0.51191 0.604837 0.442878
0.602243 0.643595 0.48574
0.686824 0.679011 0.523491
0.767926 0.696376 0.480125
0.549599 0.70692 0.512749
0.613108 0.743725 0.547662
0.694636 0.77705 0.585641
0.774304 0.8094 0.622553
0.84593 0.838987 0.659785
0.130846 0.00733959 0.471473
0.165515 0.0699321 0.168551
0.539773 0.0135348 0.251545
0.805859 0.0040589 0.269993
0.977691 0.00459297 0.273106
0.126055 0.212848 0.235035
0.252308 0.249241 0.231418
0.557351 0.235019 0.218601
0.776242 0.240742 0.226062
0.936217 0.256107 0.24213
0.306371 0.393256 0.307179
0.392599 0.441306 0.355642
0.4934 0.484565 0.39675
0.694987 0.507378 0.284993
0.897551 0.504265 0.240482
0.451789 0.577493 0.445304
0.531914 0.623728 0.494575
0.618692 0.66067 0.533318
0.702541 0.694453 0.567102
0.801221 0.709743 0.498497
0.564034 0.721279 0.558694
0.634653 0.760006 0.601938
0.71014 0.792538 0.633616
0.788861 0.824277 0.668193
0.860548 0.854154 0.704143
0.284031 0.000335698 0.677638
0.367514 0.00822461 0.601297
0.263279 0.115709 0.230762
0.50454 0.0891127 0.343679
0.779385 0.0542153 0.440543
0.0568704 0.20856 0.659113
0.17583 0.25594 0.632776
0.388388 0.299931 0.366934
0.669902 0.275425 0.458503
0.894896 0.268742 0.492912
0.278996 0.418784 0.438331
0.361227 0.468772 0.483055
0.510155 0.5037 0.476066
0.755016 0.502434 0.482017
0.919509 0.514382 0.495491
0.469627 0.5953 0.516442
0.548623 0.640497 0.563745
0.635386 0.677729 0.602731
0.720088 0.709911 0.628244
0.8663 0.717479 0.543023
0.579477 0.735973 0.624262
0.648661 0.774212 0.665583
0.730755 0.809613 0.705531
0.805325 0.840345 0.737026
0.876967 0.871229 0.770642
0.378729 0 0.805463
0.470268 0.00175479 0.765698
0.483482 0.0453346 0.486442
0.380453 0.160189 0.323537
0.520562 0.168231 0.404959
0.170581 0.184771 0.78912
0.274678 0.240925 0.759838
0.473686 0.273625 0.618097
0.506508 0.3579 0.459525
0.672496 0.360739 0.548959
0.173098 0.436805 0.754391
0.219791 0.493965 0.843519
0.436393 0.52282 0.774594
0.634913 0.554208 0.60911
0.834424 0.545495 0.67808
0.434165 0.619867 0.65301
0.509819 0.664988 0.695903
0.598611 0.701518 0.730968
0.731243 0.724376 0.710979
0.909575 0.720913 0.713298
0.593194 0.750942 0.692256
0.662745 0.788235 0.731594
0.743938 0.823484 0.76968
0.823423 0.857542 0.807446
0.892653 0.886946 0.835477
0.442557 0 0.895003
0.526879 0.000793469 0.860563
0.644327 0.0148165 0.697734
0.538766 0.118364 0.453147
0.473945 0.211246 0.400916
0.245502 0.171786 0.878676
0.341787 0.236545 0.849912
0.538933 0.260609 0.757427
0.613382 0.33315 0.577295
0.602319 0.412253 0.543786
0.185 0.426123 0.938842
0.279561 0.47985 0.950561
0.498863 0.519753 0.871092
0.690288 0.543114 0.751904
0.726909 0.603067 0.686015
0.347326 0.628702 0.858671
0.394797 0.677943 0.928512
0.503975 0.714397 0.965393
0.707027 0.733791 0.882841
0.824735 0.759213 0.801892
0.554269 0.768627 0.815427
0.62266 0.806653 0.84976
0.712856 0.8421 0.876478
0.807004 0.87454 0.896834
0.904875 0.900389 0.897902
