Camo Studio.app/Contents/Resources/CamoContent_CamoContent.bundle/Contents/Resources/PROTANOMOLY.cube
TITLE "Generated by Resolve"
LUT_3D_SIZE 33
0 0 0
0.0231632 0.0115206 0.0037995
0.0463264 0.0193637 0.00392157
0.065568 0.0306401 0.00784314
0.0887312 0.0387274 0.0112764
0.111894 0.05037 0.0117647
0.135042 0.0580911 0.0156863
0.158206 0.0697337 0.0187533
0.180392 0.0803998 0.0196078
0.204532 0.0890974 0.0235294
0.227695 0.10074 0.0262303
0.24828 0.111025 0.027451
0.2701 0.120104 0.0313726
0.293263 0.130144 0.0337072
0.316426 0.139467 0.0352941
0.33959 0.15111 0.0392157
0.362737 0.160784 0.0411841
0.385901 0.170459 0.0431373
0.409064 0.182101 0.0470588
0.432227 0.191424 0.0486458
0.451469 0.201465 0.0509804
0.474632 0.210544 0.054902
0.497795 0.220829 0.0561227
0.520958 0.232471 0.0588235
0.544121 0.241184 0.0627451
0.567285 0.251835 0.0635996
0.590448 0.263478 0.0666667
0.613596 0.271199 0.0705882
0.632837 0.282841 0.0710765
0.656001 0.290929 0.0745098
0.679164 0.302205 0.0784314
0.702327 0.310048 0.0785534
0.72549 0.321569 0.0823529
0.0192416 0.0270848 0
0.0311284 0.0308843 0
0.0503395 0.0350042 0.00392157
0.0698405 0.0459754 0.00749218
0.0925307 0.0541695 0.00794995
0.115679 0.0618906 0.0117647
0.135042 0.0735027 0.0149844
0.158206 0.0813458 0.0157778
0.181369 0.0928969 0.0196078
0.204532 0.103456 0.0235294
0.227695 0.112322 0.0262303
0.250858 0.122591 0.027451
0.271519 0.131701 0.0313726
0.293263 0.143267 0.0337072
0.316426 0.151095 0.0352941
0.33959 0.162615 0.0392157
0.362737 0.172366 0.0411841
0.385901 0.182101 0.0431373
0.409064 0.193591 0.0470588
0.432227 0.203021 0.0486458
0.453849 0.213031 0.0509804
0.474632 0.222141 0.054902
0.497795 0.232364 0.0561227
0.520958 0.243992 0.0588235
0.544121 0.252781 0.0627451
0.567285 0.263386 0.0635996
0.590448 0.274968 0.0666667
0.613596 0.282841 0.0705882
0.636271 0.294377 0.0710765
0.656001 0.302556 0.0745098
0.679164 0.31371 0.0784314
0.702327 0.321691 0.0785534
0.72549 0.333211 0.0823529
0.0384833 0.057847 0
0.0502174 0.0577859 0
0.0656901 0.0615396 0.000228885
0.0813306 0.0655222 0.00392157
0.10071 0.0732891 0.00738537
0.123171 0.0809644 0.0111543
0.142641 0.0889754 0.0119631
0.162936 0.0966659 0.0156863
0.187991 0.108278 0.0186923
0.208453 0.11603 0.019791
0.231373 0.127703 0.0235294
0.25452 0.135393 0.027451
0.274022 0.147066 0.0299077
0.297185 0.15491 0.0313726
0.320104 0.166415 0.0352941
0.341299 0.174243 0.0373846
0.364706 0.185901 0.0393378
0.389563 0.197391 0.0431373
0.409064 0.205249 0.0449836
0.432227 0.216754 0.0471656
0.45539 0.224598 0.0509804
0.478294 0.236118 0.052491
0.497795 0.245274 0.0549783
0.520958 0.255482 0.0588235
0.545037 0.264393 0.0599832
0.570138 0.275105 0.0635996
0.590448 0.286519 0.0666667
0.613596 0.295033 0.0705882
0.636759 0.305913 0.0710765
0.659663 0.314168 0.0745098
0.679164 0.325261 0.0784314
0.702327 0.336858 0.0785534
0.72549 0.344854 0.0823529
0.0577249 0.0848096 0
0.0692607 0.0848096 0
0.0813153 0.0884565 0
0.0965744 0.0923171 0.000335698
0.115938 0.0964523 0.00347906
0.134676 0.104173 0.00784314
0.153887 0.108309 0.0111086
0.173236 0.11606 0.0120546
0.195712 0.126436 0.0156863
0.21593 0.135317 0.0196078
0.236637 0.143099 0.0224308
0.258335 0.153185 0.0237736
0.281498 0.162493 0.027451
0.300893 0.170214 0.0299382
0.323888 0.181827 0.0335851
0.345174 0.189578 0.0352941
0.368444 0.199451 0.0392157
0.391714 0.20911 0.0412604
0.412985 0.220554 0.0433051
0.435996 0.228458 0.0470588
0.458946 0.239948 0.0487526
0.478553 0.247791 0.0511025
0.501717 0.259281 0.054902
0.524773 0.268132 0.05626
0.547768 0.278767 0.0598001
0.571206 0.290318 0.0627451
0.594293 0.298085 0.0666667
0.616602 0.309682 0.067277
0.636759 0.318212 0.0705882
0.659922 0.329046 0.0745098
0.683085 0.337331 0.0747539
0.705882 0.348409 0.0784314
0.72549 0.356497 0.0823529
0.0769665 0.111757 0
0.0885023 0.112245 0
0.100496 0.115465 0
0.115938 0.116136 0
0.131365 0.120043 0
0.146807 0.127321 0.0037995
0.166171 0.131121 0.00784314
0.184787 0.138842 0.011017
0.20441 0.146563 0.0147097
0.22475 0.154284 0.0160372
0.246815 0.162493 0.0196078
0.266056 0.170214 0.0223545
0.286763 0.180087 0.0259861
0.308461 0.18938 0.0277409
0.329686 0.197299 0.0313726
0.350851 0.20502 0.0336919
0.374014 0.216663 0.0372625
0.397177 0.226001 0.0392157
0.418845 0.236027 0.0431373
0.439872 0.243748 0.0450141
0.462745 0.25539 0.0472419
0.484733 0.263111 0.0509804
0.505638 0.274754 0.0525368
0.528313 0.282475 0.0550393
0.551598 0.291539 0.0588235
0.575021 0.302693 0.0627451
0.597787 0.313481 0.0634775
0.617517 0.321813 0.0666667
0.640681 0.332845 0.0705882
0.663355 0.341375 0.0709544
0.686305 0.352209 0.0745403
0.706249 0.360525 0.0784314
0.729412 0.371572 0.0789197
0.0962081 0.139345 0
0.107729 0.139345 0
0.119234 0.14258 0
0.131685 0.143206 0
0.146807 0.147112 0
0.162249 0.151003 0
0.18085 0.157656 0.00381476
0.197055 0.162005 0.00831617
0.219364 0.169726 0.0117647
0.236225 0.177447 0.0147555
0.255543 0.182864 0.0183871
0.277302 0.189578 0.0200046
0.296941 0.20061 0.0235294
0.316182 0.208331 0.0261082
0.337118 0.216007 0.0278019
0.358572 0.224384 0.0313726
0.381735 0.233768 0.0352941
0.404898 0.243748 0.0374609
0.424125 0.251438 0.0394903
0.447303 0.260533 0.0431373
0.466926 0.270832 0.0449836
0.489708 0.278553 0.0484016
0.511833 0.290166 0.0511788
0.532113 0.297917 0.054902
0.555428 0.306615 0.0563363
0.578912 0.317281 0.0589609
0.601572 0.328893 0.0627451
0.621439 0.336645 0.0666667
0.644526 0.348287 0.067155
0.667155 0.356008 0.0705882
0.690105 0.36762 0.0745098
0.71017 0.375372 0.075227
0.732723 0.387015 0.0784314
0.112261 0.169604 0
0.123842 0.169543 0
0.138521 0.169604 0
0.150698 0.170291 0
0.16553 0.174166 0
0.180835 0.178012 0
0.197055 0.181369 0
0.212467 0.185809 0.00381476
0.230884 0.192889 0.00839246
0.251194 0.200565 0.0122988
0.269596 0.20441 0.0156863
0.288838 0.212085 0.0185245
0.308125 0.219852 0.0200656
0.327352 0.227527 0.0235294
0.347051 0.235294 0.027451
0.367773 0.243366 0.0298924
0.389456 0.251469 0.0317388
0.412604 0.262333 0.0352941
0.431861 0.27042 0.0374304
0.453422 0.278523 0.0408026
0.474266 0.286275 0.0434119
0.49633 0.297398 0.0470588
0.51667 0.305638 0.0487831
0.539818 0.314214 0.051194
0.560601 0.325002 0.0550851
0.585443 0.333379 0.0588235
0.605386 0.344366 0.0601511
0.628534 0.352056 0.0628672
0.648524 0.363729 0.0666667
0.670939 0.37142 0.0677043
0.694118 0.383093 0.0708324
0.714092 0.390784 0.0745098
0.736522 0.398535 0.0784314
0.131624 0.196567 0
0.143236 0.196567 0
0.154803 0.197314 0
0.169314 0.200198 0
0.181994 0.201236 0
0.197055 0.203937 0
0.212467 0.207706 0
0.227939 0.212253 0
0.246326 0.216815 0.0037995
0.265568 0.223774 0.0084535
0.282078 0.227527 0.0123598
0.301472 0.235294 0.0156863
0.319692 0.243015 0.0184634
0.338949 0.248905 0.0219425
0.35819 0.25536 0.0240177
0.377935 0.263111 0.027451
0.400244 0.272358 0.0298466
0.42034 0.281621 0.0332036
0.441291 0.289296 0.0356756
0.462745 0.297414 0.0392157
0.481987 0.305638 0.0412299
0.503792 0.313359 0.0434272
0.524376 0.324102 0.0470588
0.546441 0.332723 0.0509804
0.567773 0.341207 0.0525978
0.589944 0.352087 0.0550851
0.613092 0.359777 0.0588235
0.633066 0.370733 0.0627451
0.655512 0.379171 0.0639811
0.678386 0.386892 0.066743
0.697902 0.398505 0.0705882
0.72108 0.406256 0.0715343
0.741176 0.417029 0.0745098
0.153918 0.227451 0
0.165438 0.227451 0
0.176959 0.227451 0
0.188846 0.230121 0
0.203922 0.23125 0
0.215595 0.23386 0
0.230884 0.23769 0
0.246326 0.239216 0
0.264714 0.246082 0
0.281834 0.249882 0.00167849
0.299565 0.254902 0.00851453
0.316579 0.261402 0.0124056
0.334798 0.267277 0.0162966
0.35346 0.272923 0.0196078
0.371084 0.280644 0.0222477
0.390448 0.288365 0.0240482
0.411765 0.296086 0.0279393
0.433082 0.303792 0.0313726
0.452873 0.311513 0.0336461
0.473411 0.320226 0.0356909
0.493263 0.327947 0.0392157
0.512871 0.335668 0.0412146
0.534127 0.343389 0.0450294
0.555001 0.35111 0.0473335
0.575494 0.362737 0.0509804
0.59997 0.370459 0.0525978
0.620829 0.378363 0.0564279
0.64007 0.389822 0.0589761
0.663233 0.397543 0.0627451
0.685145 0.405356 0.0639963
0.705638 0.416907 0.0667277
0.728679 0.424628 0.0705882
0.748043 0.433326 0.0745098
0.173159 0.255512 0
0.18471 0.255512 0
0.196231 0.258106 0
0.20882 0.258335 0
0.220691 0.259297 0
0.235782 0.261814 0
0.25008 0.265599 0
0.265568 0.267033 0
0.281834 0.270924 0
0.297551 0.27715 0
0.314885 0.281697 0.0015259
0.332357 0.285542 0.00759899
0.348486 0.292576 0.0124514
0.367163 0.297063 0.0163424
0.38526 0.304738 0.0196078
0.404562 0.310994 0.0222171
0.423835 0.316854 0.0254826
0.445121 0.325124 0.0279698
0.464424 0.331701 0.0313726
0.483772 0.339467 0.0336309
0.503105 0.347601 0.036759
0.524132 0.356008 0.0395972
0.54374 0.363699 0.0431373
0.565011 0.37145 0.0450294
0.586145 0.381979 0.0480354
0.609064 0.389944 0.0512245
0.628534 0.398505 0.054902
0.651102 0.406256 0.0564431
0.670954 0.416785 0.0589609
0.690196 0.42562 0.0627451
0.713344 0.433295 0.0666667
0.732601 0.441138 0.0678569
0.755764 0.452689 0.0705882
0.192401 0.285298 0
0.203922 0.285237 0
0.215518 0.285298 0
0.227039 0.285237 0
0.24004 0.286519 0
0.254078 0.289158 0
0.266667 0.292638 0
0.282078 0.294041 0
0.297551 0.297978 0
0.314885 0.301808 0
0.331975 0.305745 0
0.347768 0.311757 0.000808728
0.363241 0.316426 0.00759899
0.382574 0.321767 0.0124971
0.398733 0.327947 0.0163729
0.417365 0.334951 0.0196078
0.438727 0.339467 0.0235294
0.456672 0.347143 0.0260319
0.47602 0.35491 0.02916
0.495323 0.36257 0.0318761
0.514672 0.370336 0.0352941
0.533974 0.378012 0.0374609
0.555016 0.385779 0.0395972
0.574258 0.393454 0.0431373
0.594553 0.401221 0.0470588
0.617014 0.409171 0.0488746
0.638468 0.417899 0.0512093
0.65922 0.425589 0.054902
0.678676 0.436027 0.0588235
0.701457 0.443702 0.0603037
0.72108 0.452689 0.0628214
0.740307 0.46038 0.0666667
0.763485 0.468132 0.0678874
0.211643 0.312261 0
0.223209 0.312261 0
0.23473 0.3122 0
0.246326 0.313481 0
0.259068 0.315862 0
0.270985 0.316182 0
0.286 0.319554 0
0.30013 0.321157 0
0.316579 0.325032 0
0.332357 0.328908 0
0.347768 0.332738 0
0.363241 0.336675 0
0.378683 0.341054 0.000839246
0.398032 0.347311 0.00759899
0.413443 0.351064 0.0125277
0.432837 0.358816 0.0164034
0.450248 0.362615 0.0202792
0.470207 0.370336 0.0235294
0.489464 0.378012 0.027451
0.507973 0.385779 0.0298466
0.526238 0.390936 0.0318761
0.545556 0.397299 0.0352941
0.565652 0.404974 0.0392157
0.585885 0.412741 0.0412909
0.605509 0.420798 0.043473
0.628382 0.429541 0.0470588
0.647898 0.437232 0.0509804
0.667155 0.44538 0.0527199
0.688655 0.455268 0.0550698
0.709438 0.462989 0.0588235
0.728786 0.470665 0.0603342
0.751842 0.479774 0.0627909
0.771206 0.487495 0.0666667
0.228428 0.339223 0
0.240024 0.340642 0
0.251621 0.340688 0
0.265583 0.340688 0
0.27715 0.343145 0
0.290333 0.344381 0
0.304204 0.346593 0
0.316915 0.348211 0
0.334188 0.352087 0
0.347799 0.355962 0
0.363241 0.359075 0
0.378683 0.362875 0
0.397482 0.36759 0
0.413474 0.371466 0.000869764
0.428916 0.377356 0.00653086
0.447135 0.381979 0.0125429
0.46569 0.3897 0.0176394
0.483772 0.3935 0.0202945
0.502449 0.401221 0.0241703
0.521813 0.407355 0.027451
0.539651 0.412741 0.0298466
0.558938 0.420462 0.0327153
0.57821 0.428183 0.0357519
0.597498 0.435904 0.0392157
0.617151 0.443626 0.0413062
0.638315 0.451347 0.0451514
0.659281 0.459068 0.0473335
0.678569 0.466789 0.0509804
0.698039 0.47451 0.0527504
0.719493 0.482231 0.0550393
0.7402 0.489952 0.0588235
0.759686 0.499138 0.0627451
0.778927 0.506859 0.06421
0.247791 0.367773 0
0.259388 0.367773 0
0.270939 0.369894 0
0.282567 0.370092 0
0.296407 0.370092 0
0.309316 0.371695 0
0.321233 0.373953 0
0.336278 0.375616 0
0.351324 0.379141 0
0.367163 0.381857 0
0.382574 0.385 0
0.398032 0.388907 0
0.413474 0.392752 0
0.428916 0.397543 0
0.444327 0.402319 0
0.463722 0.406989 0.0065156
0.481132 0.412863 0.0137331
0.498527 0.418753 0.0183719
0.517861 0.424338 0.0213169
0.53492 0.432105 0.0241703
0.553292 0.435904 0.0280461
0.572061 0.443626 0.0313726
0.591394 0.451301 0.0337072
0.60911 0.458412 0.0357366
0.628794 0.463264 0.0396124
0.649866 0.472175 0.0431373
0.669581 0.479866 0.045182
0.690196 0.48603 0.047303
0.709484 0.495338 0.0509804
0.728923 0.503059 0.054902
0.750317 0.51075 0.0566415
0.76965 0.518502 0.0588693
0.79057 0.526223 0.0627451
0.267155 0.397055 0
0.278706 0.396994 0
0.290333 0.397055 0
0.301885 0.396994 0
0.315435 0.398566 0
0.327184 0.40058 0
0.340612 0.400977 0
0.354253 0.402655 0
0.36936 0.406195 0
0.383185 0.408759 0
0.398032 0.412055 0
0.413443 0.415854 0
0.428916 0.41976 0
0.444327 0.42356 0
0.461051 0.427466 0
0.479133 0.432181 0
0.496574 0.437125 0.00650034
0.513939 0.443702 0.0145266
0.531121 0.448783 0.0183719
0.548745 0.455222 0.0222324
0.568139 0.460441 0.0241703
0.584894 0.466743 0.0280461
0.603479 0.47451 0.0313726
0.622766 0.478264 0.0337224
0.642649 0.48603 0.0375677
0.663203 0.493706 0.0395972
0.682521 0.501472 0.0431373
0.701793 0.509148 0.0470588
0.721111 0.516915 0.0490578
0.740383 0.52459 0.0511482
0.759701 0.532357 0.054902
0.779034 0.540032 0.0566873
0.800488 0.547799 0.0588235
0.286519 0.424018 0
0.2981 0.424018 0
0.309651 0.423957 0
0.321279 0.425696 0
0.33286 0.425864 0
0.346487 0.427939 0
0.359533 0.429374 0
0.371542 0.431403 0
0.386526 0.433234 0
0.401953 0.435782 0
0.417365 0.439002 0
0.431632 0.442908 0
0.446448 0.445472 0
0.462974 0.449393 0
0.479133 0.453269 0
0.494606 0.458335 0
0.512016 0.463111 0
0.529412 0.468009 0.00650034
0.546532 0.473777 0.0125734
0.564218 0.478431 0.0183719
0.581125 0.485466 0.0222324
0.599023 0.489952 0.0260929
0.618357 0.497627 0.0280308
0.63624 0.501472 0.0318914
0.654169 0.509194 0.0352941
0.676463 0.516915 0.0375982
0.694118 0.52459 0.0414588
0.713436 0.532357 0.0434272
0.732738 0.537987 0.0470588
0.752041 0.543877 0.0491035
0.771313 0.551553 0.0512245
0.790631 0.559319 0.054963
0.812009 0.567041 0.0588235
0.307836 0.454902 0
0.319356 0.454902 0
0.330877 0.454902 0
0.342397 0.454902 0
0.353918 0.456611 0
0.365438 0.45687 0
0.377691 0.458824 0
0.392401 0.460349 0
0.407843 0.462257 0
0.420462 0.464714 0
0.434806 0.468009 0
0.450248 0.470588 0
0.46569 0.473777 0
0.481132 0.477638 0
0.496574 0.481498 0
0.512016 0.485359 0
0.529412 0.490196 0
0.546807 0.495949 0
0.563119 0.499748 0.00367742
0.580453 0.505882 0.0113985
0.597787 0.511269 0.0183871
0.615137 0.515068 0.0222477
0.632471 0.522789 0.0261082
0.65037 0.528008 0.0280003
0.669612 0.53431 0.0318608
0.688853 0.542031 0.0357214
0.708095 0.547799 0.0392157
0.727016 0.555215 0.0414893
0.746075 0.561273 0.0433814
0.765438 0.568994 0.0472419
0.784802 0.576715 0.0509804
0.804166 0.582483 0.0530098
0.823529 0.590188 0.054902
0.327077 0.48394 0
0.338659 0.48394 0
0.35021 0.483894 0
0.361837 0.485786 0
0.373419 0.485786 0
0.38677 0.485786 0
0.398596 0.487816 0
0.4121 0.489708 0
0.426627 0.491264 0
0.440681 0.493629 0
0.454658 0.496925 0
0.468269 0.498909 0
0.483085 0.50277 0
0.498527 0.50663 0
0.513939 0.509636 0
0.529412 0.513481 0
0.546807 0.517281 0
0.564218 0.522057 0
0.579629 0.52784 0
0.596689 0.532601 0.00167849
0.614466 0.5364 0.0113985
0.629908 0.542763 0.0184024
0.649241 0.547875 0.0222782
0.665812 0.554528 0.0261387
0.685054 0.559442 0.0284276
0.703883 0.567163 0.0318303
0.722759 0.57409 0.0356909
0.742153 0.578683 0.0392157
0.759915 0.586404 0.0415351
0.779217 0.59411 0.0435035
0.796536 0.597864 0.0471962
0.815808 0.605631 0.0509804
0.83505 0.613352 0.0530709
0.346319 0.512749 0
0.356222 0.512688 0
0.367758 0.512749 0
0.379294 0.512688 0
0.392676 0.512749 0
0.404227 0.5149 0
0.417639 0.51635 0
0.429511 0.516609 0
0.444602 0.520165 0
0.458427 0.522118 0
0.472099 0.52398 0
0.486976 0.525902 0
0.502449 0.529809 0
0.515633 0.532296 0
0.531121 0.535531 0
0.546517 0.539345 0
0.563119 0.544366 0
0.579629 0.548119 0
0.595102 0.552926 0
0.613108 0.556725 0
0.629908 0.562646 0.00164797
0.645319 0.567239 0.0114137
0.664714 0.572259 0.0178988
0.68011 0.578759 0.0223087
0.700496 0.582605 0.0261692
0.718837 0.59028 0.030045
0.736843 0.597299 0.032105
0.754253 0.601785 0.0356451
0.773312 0.609552 0.0392157
0.79237 0.616861 0.0431373
0.811765 0.621073 0.0454566
0.82945 0.628748 0.0471351
0.848768 0.636515 0.0509804
0.363973 0.539712 0
0.37554 0.539712 0
0.387076 0.539651 0
0.398688 0.539712 0
0.410254 0.542031 0
0.423529 0.543389 0
0.43508 0.543572 0
0.448875 0.545449 0
0.463966 0.547158 0
0.477089 0.549218 0
0.490898 0.550912 0
0.504845 0.553796 0
0.518486 0.556848 0
0.533333 0.558663 0
0.548745 0.562478 0
0.564218 0.5664 0
0.57966 0.570275 0
0.596689 0.574151 0
0.613108 0.577966 0
0.629908 0.582849 0
0.64535 0.58764 0
0.661341 0.593011 0.000793469
0.68011 0.598123 0.0103304
0.695583 0.601953 0.0163424
0.714946 0.609674 0.0223392
0.73431 0.613474 0.026215
0.750454 0.621149 0.0300908
0.769116 0.624994 0.0339513
0.788479 0.632715 0.035584
0.804288 0.64007 0.0394293
0.823407 0.64419 0.0431373
0.842725 0.651957 0.0455177
0.862013 0.659678 0.0493935
0.383337 0.569116 0
0.394903 0.569116 0
0.40647 0.569116 0
0.418036 0.569116 0
0.429603 0.570397 0
0.442405 0.570596 0
0.454383 0.570596 0
0.467887 0.573037 0
0.480888 0.574502 0
0.495262 0.576272 0
0.508614 0.578424 0
0.522316 0.58088 0
0.537255 0.583886 0
0.551247 0.585672 0
0.565682 0.589548 0
0.580346 0.593423 0
0.597055 0.597299 0
0.614466 0.601175 0
0.629908 0.605051 0
0.64535 0.608927 0
0.660777 0.613733 0
0.677577 0.617517 0
0.695583 0.622339 0.000762951
0.711025 0.628351 0.00927749
0.730388 0.632837 0.0166629
0.749752 0.640024 0.022385
0.765194 0.644358 0.0262608
0.784558 0.651469 0.0301366
0.800488 0.655879 0.0340124
0.819364 0.6636 0.0378882
0.838727 0.667399 0.0393683
0.856657 0.67512 0.0432136
0.873533 0.682841 0.0470588
0.402701 0.596201 0
0.414267 0.596201 0
0.425788 0.597406 0
0.437385 0.597543 0
0.448936 0.597543 0
0.460502 0.597543 0
0.47361 0.599588 0
0.485252 0.601175 0
0.50013 0.601465 0
0.514214 0.604044 0
0.527031 0.605325 0
0.541176 0.60885 0
0.555016 0.610925 0
0.568689 0.61323 0
0.583551 0.61651 0
0.599023 0.61973 0
0.614466 0.62237 0
0.629908 0.626215 0
0.645319 0.629999 0
0.660777 0.635416 0
0.677577 0.639841 0
0.695583 0.643717 0
0.710994 0.648356 0
0.726467 0.653178 0
0.74583 0.659281 0.0074464
0.765194 0.663722 0.018555
0.780606 0.668559 0.022446
0.798871 0.675242 0.0263218
0.815442 0.680217 0.0301976
0.834806 0.686763 0.0340734
0.850462 0.691768 0.0379644
0.869612 0.698283 0.039292
0.888975 0.706004 0.0431373
0.422065 0.624506 0
0.433585 0.624445 0
0.445182 0.624506 0
0.456687 0.624445 0
0.468284 0.624506 0
0.479805 0.626734 0
0.491402 0.627207 0
0.504479 0.628367 0
0.518135 0.630457 0
0.531609 0.631952 0
0.54548 0.634211 0
0.558724 0.635798 0
0.572519 0.637964 0
0.587472 0.640131 0
0.601419 0.64358 0
0.615641 0.646769 0
0.631861 0.649393 0
0.649241 0.653178 0
0.664714 0.657069 0
0.68011 0.660853 0
0.695583 0.664744 0
0.710994 0.668513 0
0.726467 0.674647 0
0.742214 0.678477 0
0.761273 0.683085 0
0.780606 0.689906 0.00714122
0.796078 0.694606 0.0161898
0.8121 0.69836 0.0225071
0.830884 0.705791 0.0263828
0.849119 0.70988 0.0302739
0.86569 0.717479 0.0341497
0.885023 0.721401 0.0380407
0.900496 0.729168 0.0419165
0.441428 0.651469 0
0.452934 0.651469 0
0.461784 0.651408 0
0.473426 0.654032 0
0.487495 0.654292 0
0.499184 0.654292 0
0.510704 0.655329 0
0.523156 0.65539 0
0.537499 0.658213 0
0.550912 0.659312 0
0.564431 0.661204 0
0.577081 0.663233 0
0.591424 0.666056 0
0.605188 0.667155 0
0.61883 0.670542 0
0.633829 0.673899 0
0.649271 0.676402 0
0.664714 0.680232 0
0.68011 0.684016 0
0.695583 0.687907 0
0.711025 0.691737 0
0.726467 0.695567 0
0.742214 0.699351 0
0.761273 0.703243 0
0.776989 0.709468 0
0.796078 0.71397 0
0.81149 0.718608 0.00660716
0.827573 0.725048 0.015198
0.846326 0.72929 0.0225681
0.862135 0.736645 0.0264591
0.881102 0.740764 0.0303502
0.899413 0.745678 0.034226
0.915938 0.752331 0.038117
0.458824 0.682353 0
0.46949 0.682353 0
0.481132 0.682353 0
0.492775 0.682353 0
0.505272 0.682353 0
0.519356 0.68333 0
0.530877 0.68333 0
0.542397 0.685634 0
0.557839 0.686275 0
0.56936 0.687251 0
0.582101 0.690196 0
0.596323 0.691173 0
0.609308 0.694118 0
0.623285 0.696849 0
0.638727 0.698589 0
0.652079 0.701961 0
0.667643 0.704417 0
0.684596 0.708247 0
0.698222 0.711513 0
0.712016 0.714122 0
0.727459 0.718013 0
0.74583 0.721904 0
0.761273 0.726711 0
0.776989 0.73051 0
0.793866 0.73431 0
0.811734 0.741176 0
0.827939 0.74583 0
0.843839 0.74963 0.00634775
0.861891 0.756863 0.015198
0.878462 0.761151 0.0226444
0.896635 0.76495 0.0265354
0.913085 0.772641 0.0304265
0.93138 0.776471 0.0343175
0.48014 0.712383 0
0.491691 0.712383 0
0.503197 0.712337 0
0.514778 0.713237 0
0.526329 0.713237 0
0.539071 0.713237 0
0.550652 0.713176 0
0.56231 0.716304 0
0.576867 0.716945 0
0.589456 0.717159 0
0.603418 0.72018 0
0.616617 0.72108 0
0.630152 0.724147 0
0.643763 0.725002 0
0.65745 0.728496 0
0.672557 0.730541 0
0.687984 0.734371 0
0.703426 0.736767 0
0.718837 0.740154 0
0.733074 0.744106 0
0.746685 0.747997 0
0.762127 0.751888 0
0.780606 0.755734 0
0.796078 0.759686 0
0.811734 0.76434 0
0.830884 0.768139 0
0.846296 0.77258 0
0.861769 0.779049 0
0.877699 0.783078 0.00114443
0.896574 0.787259 0.0144198
0.912184 0.79469 0.0226902
0.93138 0.798779 0.026627
0.946807 0.803433 0.030518
0.499504 0.7402 0
0.511009 0.740139 0
0.522591 0.7402 0
0.534096 0.740139 0
0.545678 0.7402 0
0.557183 0.740139 0
0.569955 0.743389 0
0.581537 0.743908 0
0.59559 0.744121 0
0.608698 0.746349 0
0.622553 0.747814 0
0.634287 0.750072 0
0.649516 0.75169 0
0.661295 0.753796 0
0.676463 0.755566 0
0.690181 0.75903 0
0.70576 0.761395 0
0.719554 0.763668 0
0.73431 0.767239 0
0.749722 0.771084 0
0.765194 0.774762 0
0.780606 0.776532 0
0.796078 0.780407 0
0.81149 0.784176 0
0.827939 0.790631 0
0.846296 0.794476 0
0.861769 0.799023 0
0.87718 0.802777 0
0.896574 0.807263 0
0.911986 0.813993 0.000610361
0.927504 0.818143 0.0145113
0.946777 0.822599 0.0197147
0.962249 0.829664 0.0267185
0.518868 0.767163 0
0.530404 0.767163 0
0.541909 0.767102 0
0.553491 0.767163 0
0.565026 0.770459 0
0.576562 0.770459 0
0.588067 0.770916 0
0.600839 0.771084 0
0.614954 0.773556 0
