Camo Studio.app/Contents/Resources/CamoContent_CamoContent.bundle/Contents/Resources/PROTANOMOLY.cube
TITLE "Generated by Resolve"
LUT_3D_SIZE 5
0 0 0
0.180392 0.0803998 0.0196078
0.362737 0.160784 0.0411841
0.544121 0.241184 0.0627451
0.72549 0.321569 0.0823529
0.153918 0.227451 0
0.264714 0.246082 0
0.411765 0.296086 0.0279393
0.575494 0.362737 0.0509804
0.748043 0.433326 0.0745098
0.307836 0.454902 0
0.407843 0.462257 0
0.529412 0.490196 0
0.669612 0.53431 0.0318608
0.823529 0.590188 0.054902
0.458824 0.682353 0
0.557839 0.686275 0
0.667643 0.704417 0
0.793866 0.73431 0
0.93138 0.776471 0.0343175
0.611765 0.909804 0
0.707851 0.912749 0
0.813733 0.92549 0
0.907835 0.946075 0.337255
1 0.980392 0.537255
0 0.0460822 0.188235
0.0921645 0.0882429 0.276722
0.327443 0.162737 0.3196
0.522545 0.243381 0.324269
0.710781 0.321569 0.331365
0.142885 0.231373 0.238239
0.253193 0.250004 0.249271
0.399634 0.297063 0.272053
0.564095 0.362737 0.293324
0.739467 0.436271 0.308827
0.303914 0.45687 0.234318
0.403189 0.46421 0.238239
0.524514 0.492164 0.247059
0.66421 0.535912 0.261402
0.819608 0.592157 0.276967
0.457847 0.682353 0.230396
0.553918 0.687251 0.234318
0.66569 0.705882 0.238239
0.790204 0.737255 0.246082
0.928435 0.778683 0.257847
0.611765 0.909804 0.226474
0.707851 0.913725 0.226474
0.811765 0.92549 0.230396
0.907835 0.94902 0.438239
1 0.980392 0.637263
0 0.0921645 0.376471
0.0921645 0.118624 0.427451
0.180392 0.175494 0.553918
0.430396 0.248524 0.635294
0.654902 0.32549 0.641184
0.0607919 0.247059 0.496574
0.181247 0.262257 0.512627
0.340932 0.307103 0.548775
0.516793 0.369116 0.580514
0.699016 0.440192 0.604898
0.285298 0.463722 0.476478
0.385046 0.471321 0.483818
0.504906 0.498527 0.499016
0.645106 0.542153 0.521813
0.798047 0.596078 0.545098
0.448035 0.687251 0.472557
0.544488 0.692287 0.476341
0.654902 0.710292 0.483818
0.779538 0.741299 0.496086
0.916671 0.780392 0.511772
0.603922 0.913725 0.468635
0.700008 0.917647 0.472053
0.804898 0.929412 0.476478
0.907835 0.952941 0.566659
1 0.984314 0.745098
0 0.138231 0.564706
0.0921645 0.15613 0.598779
0.180392 0.202457 0.697551
0.272541 0.263966 0.832349
0.553918 0.337255 0.907835
0 0.276219 0.663478
0.0921645 0.2878 0.689219
0.180392 0.325368 0.768627
0.356008 0.378866 0.871138
0.6103 0.448035 0.899748
0.242161 0.476967 0.730388
0.342153 0.484321 0.736645
0.463233 0.509071 0.757839
0.603433 0.549996 0.787869
0.757839 0.603922 0.81912
0.427207 0.695827 0.717647
0.523278 0.701411 0.718624
0.633951 0.717769 0.730388
0.758572 0.746807 0.749264
0.895338 0.788235 0.770336
0.592157 0.917647 0.710781
0.687251 0.921569 0.713726
0.792157 0.935286 0.718624
0.907835 0.957839 0.731121
1 0.989212 0.869612
0 0.184314 0.752941
0.0921645 0.199023 0.779416
0.180392 0.233341 0.858824
0.272541 0.288243 0.971572
0.596078 0.356863 1
0 0.31078 0.828428
0.0921645 0.322301 0.85098
0.180392 0.352453 0.917159
0.377935 0.402213 1
0.634318 0.467643 1
0.129412 0.494118 0.99411
0.237247 0.501961 1
0.392157 0.52549 1
0.562249 0.565682 1
0.737255 0.617655 1
0.392157 0.706859 0.967651
0.488243 0.713726 0.971572
0.597543 0.729412 0.983825
0.723537 0.757839 1
0.86569 0.8 1
0.568627 0.929412 0.956863
0.664714 0.932357 0.956863
0.768627 0.94313 0.964706
0.885298 0.965682 0.980392
1 1 1
