Camo Studio.app/Contents/Resources/CamoContent_CamoContent.bundle/Contents/Resources/PROTANOMOLY.cube
TITLE "Generated by Resolve"
LUT_3D_SIZE 9
0 0 0
0.0887312 0.0387274 0.0112764
0.180392 0.0803998 0.0196078
0.2701 0.120104 0.0313726
0.362737 0.160784 0.0411841
0.451469 0.201465 0.0509804
0.544121 0.241184 0.0627451
0.632837 0.282841 0.0710765
0.72549 0.321569 0.0823529
0.0769665 0.111757 0
0.131365 0.120043 0
0.20441 0.146563 0.0147097
0.286763 0.180087 0.0259861
0.374014 0.216663 0.0372625
0.462745 0.25539 0.0472419
0.551598 0.291539 0.0588235
0.640681 0.332845 0.0705882
0.729412 0.371572 0.0789197
0.153918 0.227451 0
0.203922 0.23125 0
0.264714 0.246082 0
0.334798 0.267277 0.0162966
0.411765 0.296086 0.0279393
0.493263 0.327947 0.0392157
0.575494 0.362737 0.0509804
0.663233 0.397543 0.0627451
0.748043 0.433326 0.0745098
0.228428 0.339223 0
0.27715 0.343145 0
0.334188 0.352087 0
0.397482 0.36759 0
0.46569 0.3897 0.0176394
0.539651 0.412741 0.0298466
0.617151 0.443626 0.0413062
0.698039 0.47451 0.0527504
0.778927 0.506859 0.06421
0.307836 0.454902 0
0.353918 0.456611 0
0.407843 0.462257 0
0.46569 0.473777 0
0.529412 0.490196 0
0.597787 0.511269 0.0183871
0.669612 0.53431 0.0318608
0.746075 0.561273 0.0433814
0.823529 0.590188 0.054902
0.383337 0.569116 0
0.429603 0.570397 0
0.480888 0.574502 0
0.537255 0.583886 0
0.597055 0.597299 0
0.660777 0.613733 0
0.730388 0.632837 0.0166629
0.800488 0.655879 0.0340124
0.873533 0.682841 0.0470588
0.458824 0.682353 0
0.505272 0.682353 0
0.557839 0.686275 0
0.609308 0.694118 0
0.667643 0.704417 0
0.727459 0.718013 0
0.793866 0.73431 0
0.861891 0.756863 0.015198
0.93138 0.776471 0.0343175
0.538231 0.797543 0
0.584375 0.797543 0
0.634318 0.801465 0
0.684504 0.80589 0
0.742153 0.815442 0
0.8 0.82678 0
0.861891 0.842039 0
0.927443 0.860349 0
0.993133 0.879896 0.0200961
0.611765 0.909804 0
0.658335 0.909804 0
0.707851 0.912749 0
0.759319 0.917647 0
0.813733 0.92549 0
0.86421 0.934798 0.203433
0.907835 0.946075 0.337255
0.953918 0.961273 0.444602
1 0.980392 0.537255
0 0.0230411 0.0926528
0.0460822 0.042649 0.135302
0.165194 0.0813764 0.158328
0.262257 0.120104 0.162249
0.355154 0.160784 0.162249
0.447547 0.201465 0.166171
0.537621 0.241184 0.170214
0.632837 0.282841 0.174945
0.721569 0.321569 0.181857
0.0696117 0.115679 0.119615
0.123949 0.123522 0.123522
0.200046 0.146929 0.135515
0.281529 0.181369 0.14548
0.368597 0.216663 0.152941
0.458824 0.25539 0.159243
0.547677 0.294118 0.166186
0.637125 0.332845 0.170642
0.725917 0.371572 0.178424
0.149996 0.227451 0.115679
0.200061 0.231373 0.116884
0.26186 0.246082 0.122789
0.332036 0.269123 0.128389
0.408087 0.296086 0.136217
0.489937 0.327947 0.144045
0.573861 0.362737 0.152514
0.659632 0.397543 0.159808
0.748043 0.433326 0.167651
0.228428 0.340688 0.115679
0.276997 0.343145 0.115679
0.332357 0.352087 0.117021
0.394125 0.36759 0.122606
0.464607 0.3897 0.127459
0.537911 0.412741 0.133761
0.615732 0.443626 0.141299
0.697856 0.47451 0.148836
0.778927 0.506859 0.156374
0.306127 0.454902 0.111757
0.353918 0.45687 0.111757
0.406867 0.462745 0.11519
0.464607 0.47451 0.115679
0.528435 0.491173 0.120592
0.597055 0.511269 0.127459
0.669612 0.53431 0.131868
0.746075 0.561273 0.139239
0.823529 0.590188 0.147066
0.383337 0.569116 0.107851
0.429603 0.570596 0.107851
0.480888 0.574502 0.111498
0.537255 0.583886 0.111757
0.597055 0.597299 0.115679
0.660777 0.613733 0.119615
0.727459 0.632837 0.126345
0.800046 0.655879 0.131365
0.873533 0.682841 0.139208
0.458824 0.682353 0.103792
0.504417 0.683101 0.103914
0.557839 0.687007 0.105852
0.609308 0.694118 0.107713
0.667643 0.704417 0.111452
0.727459 0.718975 0.115557
0.793866 0.735042 0.119615
0.861769 0.756863 0.123903
0.93138 0.776471 0.131365
0.538231 0.797543 0.0990158
0.584375 0.797971 0.0993973
0.634318 0.801465 0.0995041
0.684504 0.80589 0.101823
0.740658 0.815442 0.103639
0.8 0.82678 0.107805
0.861769 0.842039 0.111757
0.927443 0.860349 0.119173
0.993133 0.879896 0.125124
0.611765 0.909804 0.0906844
0.658335 0.909804 0.0911116
0.707851 0.913725 0.0911727
0.759319 0.917647 0.0938125
0.813733 0.92549 0.0955825
0.86421 0.934798 0.251286
0.907835 0.94902 0.384314
0.953918 0.961273 0.490745
1 0.980392 0.583825
0 0.0460822 0.188235
0.0460822 0.0574807 0.214832
0.0921645 0.0882429 0.276722
0.213718 0.124025 0.319234
0.327443 0.162737 0.3196
0.428916 0.202945 0.323537
0.522545 0.243381 0.324269
0.618143 0.282841 0.327443
0.710781 0.321569 0.331365
0.0300298 0.123033 0.248402
0.0869306 0.13051 0.256611
0.168963 0.15288 0.274083
0.258335 0.183474 0.291218
0.349508 0.218631 0.302449
0.440421 0.25539 0.309621
0.533608 0.29424 0.315816
0.625864 0.332906 0.320104
0.717281 0.371572 0.324025
0.142885 0.231373 0.238239
0.191608 0.235264 0.242161
0.253193 0.250004 0.249271
0.32285 0.269947 0.261128
0.399634 0.297063 0.272053
0.481041 0.327947 0.283452
0.564095 0.362737 0.293324
0.65211 0.397665 0.301076
0.739467 0.436271 0.308827
0.223407 0.343145 0.236393
0.271427 0.346212 0.238239
0.32723 0.354284 0.242161
0.389776 0.369665 0.247547
0.457847 0.3897 0.256611
0.532189 0.416663 0.265309
0.609934 0.443626 0.274632
0.69073 0.475654 0.28275
0.773892 0.509316 0.292531
0.303914 0.45687 0.234318
0.349996 0.458762 0.234318
0.403189 0.46421 0.238239
0.461769 0.475731 0.242161
0.524514 0.492164 0.247059
0.592218 0.511269 0.253925
0.66421 0.535912 0.261402
0.740871 0.563241 0.269184
0.819608 0.592157 0.276967
0.38088 0.570596 0.234318
0.427268 0.570596 0.234318
0.479408 0.576349 0.234318
0.533471 0.585489 0.238239
0.593866 0.59823 0.242161
0.657008 0.614649 0.246082
0.726558 0.633951 0.252811
0.797101 0.657176 0.258152
0.869612 0.682841 0.26569
0.457847 0.682353 0.230396
0.50396 0.68333 0.230396
0.553918 0.687251 0.234318
0.607843 0.694728 0.234318
0.66569 0.705882 0.238239
0.727459 0.71957 0.242161
0.790204 0.737255 0.246082
0.858824 0.756954 0.25037
0.928435 0.778683 0.257847
0.534798 0.797909 0.230396
0.581308 0.798032 0.230396
0.630884 0.801831 0.230396
0.684321 0.808026 0.23093
0.738476 0.817395 0.234318
0.797101 0.829099 0.238239
0.858915 0.842039 0.242161
0.923812 0.860349 0.246082
0.993133 0.879896 0.250004
0.611765 0.909804 0.226474
0.657847 0.909804 0.226474
0.707851 0.913725 0.226474
0.757839 0.917647 0.230396
0.811765 0.92549 0.230396
0.86421 0.937255 0.314214
0.907835 0.94902 0.438239
0.953918 0.964706 0.543755
1 0.980392 0.637263
0 0.0691234 0.281865
0.0460822 0.0769665 0.298528
0.0921645 0.100984 0.348043
0.13579 0.131868 0.415259
0.24535 0.166659 0.474998
0.383825 0.205386 0.47892
0.491661 0.24509 0.479286
0.591669 0.285481 0.482841
0.687739 0.32549 0.486763
0 0.138231 0.331365
0.0460822 0.14345 0.342992
0.0921645 0.162325 0.382345
0.173754 0.189502 0.43508
0.303761 0.222553 0.450248
0.407675 0.259312 0.4598
0.506859 0.297078 0.467643
0.602945 0.336767 0.471717
0.697734 0.375494 0.476783
0.122057 0.238849 0.363729
0.169482 0.242557 0.367605
0.230884 0.254536 0.378424
0.301106 0.27512 0.392935
0.378683 0.300984 0.409125
0.461967 0.331868 0.42385
0.547555 0.366659 0.435477
0.636133 0.401465 0.446387
0.723903 0.436271 0.454536
0.213657 0.347051 0.358831
0.261357 0.349874 0.358831
0.317128 0.358206 0.366049
0.379004 0.373587 0.373587
0.447272 0.393622 0.385046
0.521569 0.418204 0.396506
0.598474 0.447547 0.408194
0.68069 0.478431 0.419425
0.76231 0.510231 0.430335
0.296086 0.458824 0.354894
0.342489 0.460777 0.354894
0.396078 0.467582 0.358831
0.453925 0.478431 0.364248
0.517037 0.494728 0.371572
0.585565 0.51519 0.381125
0.656611 0.538231 0.390692
0.733242 0.565194 0.400153
0.810544 0.59411 0.409064
0.376043 0.573037 0.354894
0.422232 0.573846 0.354894
0.473732 0.578424 0.354894
0.529412 0.587808 0.358831
0.588449 0.599268 0.364248
0.652949 0.616724 0.370596
0.7196 0.636759 0.378439
0.792157 0.6598 0.386282
0.86569 0.682841 0.394125
0.453925 0.68333 0.350973
0.500053 0.686275 0.350973
0.549996 0.690196 0.354894
0.603922 0.696941 0.354894
0.661768 0.707851 0.358831
0.723537 0.721569 0.36582
0.786114 0.738231 0.370596
0.854902 0.757351 0.377569
0.923903 0.780392 0.384192
0.532174 0.798032 0.350973
0.577386 0.799908 0.350973
0.626963 0.801968 0.350973
0.680461 0.809613 0.354894
0.735454 0.817548 0.35555
0.796078 0.829297 0.358831
0.855268 0.844724 0.364614
0.921401 0.861219 0.370596
0.989212 0.879896 0.374502
0.607843 0.909804 0.347051
0.654414 0.909804 0.348531
0.703914 0.913725 0.350973
0.754467 0.920104 0.350973
0.808576 0.927459 0.354894
0.86421 0.937255 0.385779
0.907835 0.949996 0.499016
0.953918 0.965011 0.598535
1 0.980392 0.687251
0 0.0921645 0.376471
0.0460822 0.0995041 0.387991
0.0921645 0.118624 0.427451
0.13579 0.144366 0.485298
0.180392 0.175494 0.553918
0.242405 0.209308 0.626963
0.430396 0.248524 0.635294
0.550484 0.287007 0.639216
0.654902 0.32549 0.641184
0 0.153918 0.412741
0.0460822 0.15935 0.424018
0.0921645 0.176287 0.457847
0.13579 0.199512 0.50898
0.180392 0.229419 0.573892
0.333181 0.263233 0.612253
0.456611 0.299199 0.620096
0.565682 0.337469 0.627726
0.666178 0.375494 0.631861
0.0607919 0.247059 0.496574
0.110964 0.250919 0.500923
0.181247 0.262257 0.512627
0.25742 0.281071 0.530144
0.340932 0.307103 0.548775
0.428733 0.33579 0.566354
0.516793 0.369116 0.580514
0.609308 0.404105 0.593256
0.699016 0.440192 0.604898
0.194858 0.353674 0.484321
0.243626 0.355642 0.484962
0.297551 0.364034 0.492164
0.359319 0.378897 0.502998
0.428428 0.397543 0.516793
0.502998 0.422095 0.531624
0.579416 0.450553 0.545403
0.663081 0.479896 0.559655
0.744854 0.513237 0.572061
0.285298 0.463722 0.476478
0.331624 0.46569 0.480262
0.385046 0.471321 0.483818
0.442161 0.482353 0.489464
0.504906 0.498527 0.499016
0.573892 0.518746 0.51017
0.645106 0.542153 0.521813
0.720836 0.568017 0.533578
0.798047 0.596078 0.545098
0.368383 0.575738 0.475731
0.41471 0.576959 0.476478
0.466117 0.582162 0.477394
0.520806 0.590967 0.483757
0.580758 0.603189 0.488228
0.644327 0.619333 0.497002
0.711757 0.639155 0.506737
0.782605 0.662165 0.515846
0.855879 0.686763 0.525979
0.448035 0.687251 0.472557
0.494362 0.688548 0.472557
0.544488 0.692287 0.476341
0.597116 0.698833 0.478859
0.654902 0.710292 0.483818
0.715694 0.723659 0.488228
0.779538 0.741299 0.496086
0.847242 0.760784 0.503914
0.916671 0.780392 0.511772
0.526955 0.801709 0.472557
0.573465 0.801968 0.472557
0.623041 0.805753 0.472557
0.675395 0.811948 0.476387
0.73051 0.821195 0.479286
0.788632 0.832929 0.484321
0.850553 0.84596 0.488228
0.915679 0.864271 0.496086
0.981369 0.883818 0.503426
0.603922 0.913725 0.468635
0.650492 0.913725 0.468635
0.700008 0.917647 0.472053
0.750729 0.921569 0.472557
0.804898 0.929412 0.476478
0.861769 0.93872 0.480385
0.907835 0.952941 0.566659
0.953918 0.966918 0.660288
1 0.984314 0.745098
0 0.11519 0.471077
0.0460822 0.121263 0.481071
0.0921645 0.136278 0.512871
0.13579 0.159319 0.562249
0.180392 0.187747 0.624506
0.226474 0.221073 0.692714
0.272541 0.254047 0.766659
0.470771 0.290684 0.79559
0.599512 0.329412 0.798047
0 0.175189 0.501472
0.0460822 0.178836 0.508873
0.0921645 0.192203 0.537835
0.13579 0.213794 0.583627
0.180392 0.240925 0.641672
0.226474 0.271138 0.707408
0.324941 0.30428 0.772274
0.498589 0.34107 0.780392
0.616175 0.379416 0.784314
0 0.260288 0.587259
0.0460822 0.263111 0.592462
0.0921645 0.274327 0.614923
0.13579 0.29012 0.651987
0.243565 0.313298 0.688792
0.364904 0.343008 0.708827
0.467643 0.374517 0.725856
0.568139 0.409308 0.74078
0.663233 0.444114 0.752331
0.163729 0.361212 0.613718
0.211276 0.364096 0.615076
0.267033 0.371832 0.622812
0.328237 0.385687 0.634806
0.398993 0.405386 0.651225
0.473045 0.428428 0.667079
0.552087 0.45539 0.68394
0.636271 0.484642 0.700206
0.72108 0.515618 0.714702
0.269123 0.470588 0.601953
0.315282 0.471229 0.603922
0.367895 0.478126 0.609308
0.425269 0.487953 0.616907
0.488106 0.503914 0.627817
0.556374 0.523033 0.640223
0.626963 0.546075 0.654902
0.70367 0.571084 0.668437
0.781613 0.598779 0.682353
0.356802 0.58088 0.598047
0.403143 0.582238 0.598047
0.454582 0.586267 0.601953
0.508904 0.595651 0.607416
0.568841 0.607111 0.614954
0.632425 0.623056 0.624567
0.699077 0.642618 0.634775
0.77116 0.66421 0.647623
0.843076 0.690684 0.659312
0.438849 0.691173 0.594125
0.485206 0.692149 0.594125
0.53492 0.695918 0.598047
0.588464 0.702708 0.601953
0.646082 0.713909 0.605875
0.707851 0.726955 0.613718
0.770489 0.742428 0.622309
0.838895 0.762554 0.632395
0.908461 0.784314 0.641169
0.521263 0.805386 0.592645
0.567544 0.805585 0.594125
0.615198 0.809308 0.594125
0.668742 0.813733 0.598047
0.724025 0.823285 0.601953
0.783047 0.834623 0.605875
0.843366 0.849515 0.613718
0.907866 0.865141 0.621576
0.973831 0.884321 0.629404
0.6 0.91519 0.590204
0.646082 0.917647 0.590204
0.694606 0.917647 0.592645
0.746075 0.92549 0.594125
0.8 0.932113 0.598047
0.857298 0.941176 0.601953
0.907835 0.953918 0.642649
0.953918 0.969116 0.725978
1 0.988235 0.806867
0 0.138231 0.564706
0.0460822 0.142153 0.572427
0.0921645 0.15613 0.598779
0.13579 0.175982 0.643137
0.180392 0.202457 0.697551
0.226474 0.232837 0.762753
0.272541 0.263966 0.832349
0.325368 0.298528 0.905272
0.553918 0.337255 0.907835
0 0.196078 0.587747
0.0460822 0.199725 0.595315
0.0921645 0.210788 0.620981
0.13579 0.229908 0.662028
0.180392 0.254597 0.714214
0.226474 0.282963 0.777005
0.272541 0.314061 0.844388
0.385138 0.348547 0.907835
0.565194 0.38468 0.907835
0 0.276219 0.663478
0.0460822 0.279316 0.669612
0.0921645 0.2878 0.689219
0.13579 0.303548 0.723659
0.180392 0.325368 0.768627
0.226474 0.351476 0.824903
0.356008 0.378866 0.871138
0.498527 0.41323 0.886763
0.6103 0.448035 0.899748
0.0969406 0.370962 0.746441
0.144793 0.372595 0.748089
0.204623 0.380362 0.75613
0.272114 0.393423 0.76997
0.348531 0.411765 0.785473
0.427573 0.433097 0.804532
0.510903 0.459403 0.822858
0.599023 0.490196 0.840177
0.685908 0.52108 0.857725
0.242161 0.476967 0.730388
0.289952 0.478431 0.730877
0.342153 0.484321 0.736645
0.4 0.494423 0.745647
0.463233 0.509071 0.757839
0.53106 0.527581 0.771939
0.603433 0.549996 0.787869
0.6804 0.575494 0.803677
0.757839 0.603922 0.81912
0.340688 0.586267 0.722545
0.387121 0.586892 0.722545
0.437659 0.592187 0.726467
0.493919 0.600717 0.732158
0.552453 0.612985 0.741421
0.615518 0.628489 0.751308
0.682872 0.648066 0.764584
0.754269 0.668498 0.776791
0.825864 0.694606 0.791669
0.427207 0.695827 0.717647
0.473594 0.698039 0.718593
0.523278 0.701411 0.718624
0.576745 0.707317 0.724392
0.633951 0.717769 0.730388
0.695094 0.731029 0.738506
0.758572 0.746807 0.749264
0.826474 0.766049 0.758862
0.895338 0.788235 0.770336
0.511269 0.809308 0.714702
0.557565 0.80943 0.714702
0.607233 0.81323 0.714702
0.659922 0.817639 0.718624
0.714458 0.827207 0.723842
0.772915 0.838544 0.730388
0.833768 0.852781 0.738231
0.899138 0.869062 0.746075
0.964828 0.887739 0.757351
0.592157 0.917647 0.710781
0.638239 0.921202 0.710781
0.687251 0.921569 0.713726
0.738231 0.928313 0.714702
0.792157 0.935286 0.718624
0.849027 0.945098 0.724025
0.907835 0.957839 0.731121
0.953918 0.972671 0.796567
1 0.989212 0.869612
0 0.161273 0.660288
0.0460822 0.165194 0.667643
0.0921645 0.176837 0.690562
0.13579 0.194797 0.727642
0.180392 0.218143 0.777447
0.226474 0.24509 0.835782
0.272541 0.275608 0.901961
0.412253 0.310292 0.953918
0.573037 0.345098 0.953918
0 0.218631 0.679408
0.0460822 0.21912 0.686717
0.0921645 0.229908 0.708141
0.13579 0.246387 0.744228
0.180392 0.268559 0.792645
0.226474 0.295537 0.850492
0.272541 0.325658 0.91249
0.437797 0.360296 0.953918
0.583886 0.395102 0.953918
0 0.29424 0.746197
0.0460822 0.295567 0.751202
0.0921645 0.305333 0.769604
0.13579 0.318929 0.800488
0.180392 0.3402 0.841917
0.226474 0.363241 0.894209
0.28481 0.390234 0.951812
0.494926 0.422431 0.953918
0.617655 0.456001 0.953918
0 0.383825 0.843626
0.0460822 0.384314 0.847379
0.0921645 0.391806 0.862257
0.13579 0.40354 0.887907
0.209339 0.421073 0.920165
0.333211 0.440558 0.94522
0.451911 0.467338 0.953918
0.563989 0.495903 0.953918
0.667643 0.526772 0.953918
0.202945 0.486275 0.862745
0.249516 0.486488 0.862989
0.30312 0.493263 0.870161
0.361028 0.502113 0.878584
0.42562 0.515938 0.892164
0.494362 0.534798 0.9075
0.567163 0.55613 0.924269
0.645624 0.581094 0.941665
0.727459 0.608087 0.953918
0.31783 0.592828 0.849027
0.364385 0.594125 0.851469
0.417105 0.598276 0.854856
0.471565 0.607416 0.860975
0.529412 0.618875 0.871809
0.592477 0.633463 0.883391
0.659892 0.652445 0.896696
0.730953 0.675059 0.910948
0.803922 0.698528 0.925978
0.411643 0.701961 0.841184
0.458061 0.702083 0.844114
0.507713 0.705974 0.84509
0.560876 0.713726 0.850996
0.618265 0.723598 0.858335
0.679896 0.737255 0.867689
0.742 0.753063 0.877485
0.809018 0.772549 0.891173
0.877455 0.792157 0.902937
0.499504 0.813291 0.837247
0.545907 0.813733 0.837247
0.595529 0.817533 0.841184
0.646723 0.823713 0.844907
0.702937 0.831342 0.849027
0.760891 0.842725 0.85687
0.822339 0.857359 0.864698
0.885115 0.872984 0.87599
0.953429 0.891661 0.884321
0.583825 0.922057 0.833341
0.626963 0.92549 0.833341
0.676463 0.92549 0.837247
0.727764 0.932052 0.839704
0.782101 0.939208 0.844846
0.838239 0.94902 0.849027
0.896941 0.961761 0.85687
0.953918 0.976532 0.876967
1 0.996078 0.938231
0 0.184314 0.752941
0.0460822 0.188235 0.760296
0.0921645 0.199023 0.779416
0.13579 0.214221 0.8103
0.180392 0.233341 0.858824
0.226474 0.260288 0.912749
0.272541 0.288243 0.971572
0.46128 0.322057 1
0.596078 0.356863 1
0 0.238239 0.771572
0.0460822 0.242161 0.775982
0.0921645 0.250004 0.794614
0.13579 0.26569 0.825483
0.180392 0.287251 0.8701
0.226474 0.310292 0.924025
0.272541 0.338598 0.982849
0.476478 0.372061 1
0.603922 0.406867 1
0 0.31078 0.828428
0.0460822 0.314702 0.832349
0.0921645 0.322301 0.85098
0.13579 0.33431 0.877943
0.180392 0.352453 0.917159
0.226474 0.375006 0.965682
0.377935 0.402213 1
0.521569 0.433829 1
0.634318 0.467643 1
0 0.399512 0.917159
0.0460822 0.399512 0.92108
0.0921645 0.406744 0.93579
0.13579 0.417639 0.958831
0.180392 0.432837 0.992401
0.359869 0.454963 1
0.477943 0.47892 1
0.582849 0.507347 1
0.679408 0.536767 1
0.129412 0.494118 0.99411
0.179416 0.496086 0.995834
0.237247 0.501961 1
0.31078 0.512261 1
0.392157 0.52549 1
0.477455 0.543877 1
0.562249 0.565682 1
0.650492 0.590692 1
0.737255 0.617655 1
0.288228 0.600488 0.976471
0.33431 0.601953 0.978927
0.384314 0.605875 0.982849
0.440681 0.613718 0.989761
0.500496 0.625986 0.999268
0.569604 0.641184 1
0.642649 0.660288 1
0.721752 0.682841 1
0.799023 0.706371 1
0.392157 0.706859 0.967651
0.438239 0.709804 0.968627
0.488243 0.713726 0.971572
0.541543 0.718624 0.976471
0.597543 0.729412 0.983825
0.657847 0.741543 0.995102
0.723537 0.757839 1
0.796078 0.776959 1
0.86569 0.8 1
0.483818 0.817639 0.960784
0.530388 0.821073 0.960784
0.579904 0.821576 0.964218
0.631373 0.828916 0.968444
0.687495 0.837003 0.972549
0.745586 0.848524 0.980392
0.806989 0.861646 0.98909
0.869551 0.876905 1
0.938231 0.896086 1
0.568627 0.929412 0.956863
0.615198 0.929412 0.956863
0.664714 0.932357 0.956863
0.716182 0.937255 0.960784
0.768627 0.94313 0.964706
0.826474 0.952941 0.972549
0.885298 0.965682 0.980392
0.946075 0.980392 0.988235
1 1 1
