Camo Studio.app/Contents/Resources/CamoContent_CamoContent.bundle/Contents/Resources/QUIET_BACKGROUND.cube
TITLE "Generated by Resolve"
LUT_3D_SIZE 9
0 0 0
0.125399 0 0
0.250797 0 0
0.376211 0 0
0.50161 0 0
0.627024 0 0
0.752422 0 0
0.877836 0 0
1 0 0
0.0893873 0.0893873 0.0893873
0.115969 0.115969 0.115969
0.249989 0.124987 0
0.37499 0.124987 0
0.499992 0.124987 0
0.624994 0.124987 0
0.749996 0.124987 0
0.874998 0.124987 0
1 0.124987 0
0.17879 0.17879 0.17879
0.205371 0.205371 0.205371
0.231937 0.231937 0.231937
0.337545 0.252735 0.0831006
0.499992 0.249989 0
0.624994 0.249989 0
0.749996 0.249989 0
0.874998 0.249989 0
1 0.249989 0
0.268193 0.268193 0.268193
0.294759 0.294759 0.294759
0.32134 0.32134 0.32134
0.347921 0.347921 0.347921
0.3991 0.374594 0.301076
0.612177 0.376486 0.0229496
0.749996 0.37499 0
0.874998 0.37499 0
1 0.37499 0
0.357595 0.357595 0.357595
0.384161 0.384161 0.384161
0.410742 0.410742 0.410742
0.437324 0.437324 0.437324
0.46389 0.46389 0.46389
0.497078 0.490944 0.466377
0.67512 0.50547 0.166201
0.870787 0.500542 0.0069276
1 0.499992 0
0.446998 0.446998 0.446998
0.473564 0.473564 0.473564
0.500145 0.500145 0.500145
0.526726 0.526726 0.526726
0.553292 0.553292 0.553292
0.579873 0.579873 0.579873
0.607691 0.606607 0.60119
0.725643 0.629953 0.390707
0.956588 0.629404 0.0841077
0.5364 0.5364 0.5364
0.562966 0.562966 0.562966
0.589548 0.589548 0.589548
0.616114 0.616114 0.616114
0.642695 0.642695 0.642695
0.669276 0.669276 0.669276
0.695842 0.695842 0.695842
0.722454 0.722423 0.722271
0.798184 0.749187 0.602243
0.625803 0.625803 0.625803
0.652369 0.652369 0.652369
0.67895 0.67895 0.67895
0.705516 0.705516 0.705516
0.732097 0.732097 0.732097
0.758679 0.758679 0.758679
0.785245 0.785245 0.785245
0.811826 0.811826 0.811826
0.838392 0.838392 0.838392
0.715206 0.715206 0.715206
0.741772 0.741772 0.741772
0.768353 0.768353 0.768353
0.794919 0.794919 0.794919
0.8215 0.8215 0.8215
0.848081 0.848081 0.848081
0.874647 0.874647 0.874647
0.901228 0.901228 0.901228
0.927794 0.927794 0.927794
0.00901808 0.00901808 0.00901808
0.0355993 0.0355993 0.0355993
0.0660563 0.0608835 0.0634775
0.37847 0 0.125429
0.506142 0 0.125139
0.632715 0 0.124712
0.759289 0 0.124285
0.885863 0 0.123873
1 0 0.123445
0.0984207 0.0984207 0.0984207
0.124987 0.124987 0.124987
0.250401 0.12488 0.12488
0.375799 0.124773 0.124773
0.501213 0.124651 0.124651
0.626612 0.124544 0.124544
0.752026 0.124437 0.124437
0.877424 0.124331 0.124331
1 0.124224 0.124224
0.187823 0.187823 0.187823
0.214389 0.214389 0.214389
0.24097 0.24097 0.24097
0.37499 0.249989 0.124987
0.499992 0.249989 0.124987
0.624994 0.249989 0.124987
0.749996 0.249989 0.124987
0.874998 0.249989 0.124987
1 0.249989 0.124987
0.277211 0.277211 0.277211
0.303792 0.303792 0.303792
0.330358 0.330358 0.330358
0.356939 0.356939 0.356939
0.462531 0.377737 0.208118
0.624994 0.37499 0.124987
0.749996 0.37499 0.124987
0.874998 0.37499 0.124987
1 0.37499 0.124987
0.366613 0.366613 0.366613
0.393194 0.393194 0.393194
0.41976 0.41976 0.41976
0.446342 0.446342 0.446342
0.472923 0.472923 0.472923
0.524086 0.499596 0.426108
0.737179 0.501488 0.147951
0.874998 0.499992 0.124987
1 0.499992 0.124987
0.456016 0.456016 0.456016
0.482597 0.482597 0.482597
0.509163 0.509163 0.509163
0.535744 0.535744 0.535744
0.562325 0.562325 0.562325
0.588891 0.588891 0.588891
0.62208 0.61593 0.591363
0.800092 0.630472 0.291249
0.995789 0.625544 0.131914
0.545419 0.545419 0.545419
0.572 0.572 0.572
0.598566 0.598566 0.598566
0.625147 0.625147 0.625147
0.651713 0.651713 0.651713
0.678294 0.678294 0.678294
0.704875 0.704875 0.704875
0.732692 0.731609 0.726192
0.850645 0.754955 0.515709
0.634821 0.634821 0.634821
0.661402 0.661402 0.661402
0.687968 0.687968 0.687968
0.714549 0.714549 0.714549
0.741115 0.741115 0.741115
0.767697 0.767697 0.767697
0.794278 0.794278 0.794278
0.820844 0.820844 0.820844
0.847456 0.847425 0.847272
0.724224 0.724224 0.724224
0.75079 0.75079 0.75079
0.777371 0.777371 0.777371
0.803952 0.803952 0.803952
0.830518 0.830518 0.830518
0.857099 0.857099 0.857099
0.88368 0.88368 0.88368
0.910246 0.910246 0.910246
0.936828 0.936828 0.936828
0.0180514 0.0180514 0.0180514
0.0446174 0.0446174 0.0446174
0.0711986 0.0711986 0.0711986
0.0977646 0.0977646 0.0977646
0.132128 0.121767 0.126955
0.500816 0.0395361 0.224033
0.756954 0 0.250874
0.88571 0 0.250721
1 0 0.250294
0.107439 0.107439 0.107439
0.134005 0.134005 0.134005
0.160586 0.160586 0.160586
0.191043 0.18587 0.188464
0.503471 0.123903 0.250431
0.631144 0.12314 0.250141
0.757717 0.122713 0.249714
0.884291 0.122301 0.249287
1 0.121874 0.248875
0.196841 0.196841 0.196841
0.223407 0.223407 0.223407
0.249989 0.249989 0.249989
0.375402 0.249882 0.249882
0.500801 0.249775 0.249775
0.626215 0.249653 0.249653
0.751614 0.249546 0.249546
0.877028 0.249439 0.249439
1 0.249332 0.249332
0.286244 0.286244 0.286244
0.31281 0.31281 0.31281
0.339391 0.339391 0.339391
0.365972 0.365972 0.365972
0.499992 0.37499 0.249989
0.624994 0.37499 0.249989
0.749996 0.37499 0.249989
0.874998 0.37499 0.249989
1 0.37499 0.249989
0.375647 0.375647 0.375647
0.402213 0.402213 0.402213
0.428794 0.428794 0.428794
0.45536 0.45536 0.45536
0.481941 0.481941 0.481941
0.587533 0.502739 0.33312
0.749996 0.499992 0.249989
0.874998 0.499992 0.249989
1 0.499992 0.249989
0.465049 0.465049 0.465049
0.491615 0.491615 0.491615
0.518196 0.518196 0.518196
0.544762 0.544762 0.544762
0.571344 0.571344 0.571344
0.597925 0.597925 0.597925
0.649088 0.624598 0.55111
0.862181 0.62649 0.272953
1 0.624994 0.249989
0.554452 0.554452 0.554452
0.581018 0.581018 0.581018
0.607599 0.607599 0.607599
0.634165 0.634165 0.634165
0.660746 0.660746 0.660746
0.687327 0.687327 0.687327
0.713893 0.713893 0.713893
0.747082 0.740932 0.716365
0.925093 0.755474 0.416251
0.643854 0.643854 0.643854
0.67042 0.67042 0.67042
0.697002 0.697002 0.697002
0.723568 0.723568 0.723568
0.750149 0.750149 0.750149
0.776715 0.776715 0.776715
0.803296 0.803296 0.803296
0.829877 0.829877 0.829877
0.857694 0.856611 0.851194
0.733242 0.733242 0.733242
0.759823 0.759823 0.759823
0.786404 0.786404 0.786404
0.81297 0.81297 0.81297
0.839551 0.839551 0.839551
0.866117 0.866117 0.866117
0.892699 0.892699 0.892699
0.91928 0.91928 0.91928
0.945846 0.945846 0.945846
0.0270695 0.0270695 0.0270695
0.0536507 0.0536507 0.0536507
0.0802167 0.0802167 0.0802167
0.106798 0.106798 0.106798
0.133379 0.133379 0.133379
0.159945 0.159945 0.159945
0.198169 0.182666 0.190417
0.519188 0.114549 0.287968
0.927321 0.0229038 0.362051
0.116472 0.116472 0.116472
0.143038 0.143038 0.143038
0.169619 0.169619 0.169619
0.196185 0.196185 0.196185
0.222766 0.222766 0.222766
0.257099 0.246769 0.251942
0.625818 0.164523 0.349035
0.881956 0.122835 0.375875
1 0.121721 0.375723
0.205859 0.205859 0.205859
0.232441 0.232441 0.232441
0.259007 0.259007 0.259007
0.285588 0.285588 0.285588
0.316045 0.310872 0.313466
0.628473 0.248905 0.375433
0.756146 0.248142 0.375143
0.882719 0.247715 0.374716
1 0.247303 0.374289
0.295262 0.295262 0.295262
0.321843 0.321843 0.321843
0.348409 0.348409 0.348409
0.37499 0.37499 0.37499
0.500404 0.374884 0.374884
0.625803 0.374777 0.374777
0.751217 0.374655 0.374655
0.876616 0.374548 0.374548
1 0.374441 0.374441
0.384665 0.384665 0.384665
0.411246 0.411246 0.411246
0.437812 0.437812 0.437812
0.464393 0.464393 0.464393
0.490974 0.490974 0.490974
0.624994 0.499992 0.37499
0.749996 0.499992 0.37499
0.874998 0.499992 0.37499
1 0.499992 0.37499
0.474067 0.474067 0.474067
0.500648 0.500648 0.500648
0.527214 0.527214 0.527214
0.553796 0.553796 0.553796
0.580362 0.580362 0.580362
0.606943 0.606943 0.606943
0.712535 0.627741 0.458122
0.874998 0.624994 0.37499
1 0.624994 0.37499
0.56347 0.56347 0.56347
0.590051 0.590051 0.590051
0.616617 0.616617 0.616617
0.643198 0.643198 0.643198
0.669764 0.669764 0.669764
0.696345 0.696345 0.696345
0.722927 0.722927 0.722927
0.77409 0.749599 0.676112
0.987182 0.751492 0.397955
0.652873 0.652873 0.652873
0.679438 0.679438 0.679438
0.70602 0.70602 0.70602
0.732601 0.732601 0.732601
0.759167 0.759167 0.759167
0.785748 0.785748 0.785748
0.812329 0.812329 0.812329
0.838895 0.838895 0.838895
0.872084 0.865934 0.841382
0.742275 0.742275 0.742275
0.768841 0.768841 0.768841
0.795422 0.795422 0.795422
0.822003 0.822003 0.822003
0.848569 0.848569 0.848569
0.875151 0.875151 0.875151
0.901717 0.901717 0.901717
0.928298 0.928298 0.928298
0.954879 0.954879 0.954879
0.0361028 0.0361028 0.0361028
0.0626688 0.0626688 0.0626688
0.08925 0.08925 0.08925
0.115816 0.115816 0.115816
0.142397 0.142397 0.142397
0.168978 0.168978 0.168978
0.195544 0.195544 0.195544
0.222126 0.222126 0.222126
0.264225 0.243565 0.253895
0.12549 0.12549 0.12549
0.152056 0.152056 0.152056
0.178637 0.178637 0.178637
0.205219 0.205219 0.205219
0.231785 0.231785 0.231785
0.258366 0.258366 0.258366
0.284932 0.284932 0.284932
0.323171 0.307652 0.315404
0.644175 0.239551 0.412955
0.214893 0.214893 0.214893
0.241459 0.241459 0.241459
0.26804 0.26804 0.26804
0.294621 0.294621 0.294621
0.321187 0.321187 0.321187
0.347768 0.347768 0.347768
0.382101 0.371771 0.376944
0.75082 0.289525 0.474037
1 0.247837 0.500877
0.304295 0.304295 0.304295
0.330861 0.330861 0.330861
0.357443 0.357443 0.357443
0.384009 0.384009 0.384009
0.41059 0.41059 0.41059
0.441047 0.435874 0.438468
0.753475 0.373907 0.500435
0.881148 0.373144 0.500145
1 0.372717 0.499718
0.393698 0.393698 0.393698
0.420264 0.420264 0.420264
0.446845 0.446845 0.446845
0.473411 0.473411 0.473411
0.499992 0.499992 0.499992
0.625406 0.499886 0.499886
0.750805 0.499779 0.499779
0.876219 0.499657 0.499657
1 0.49955 0.49955
0.483101 0.483101 0.483101
0.509667 0.509667 0.509667
0.536248 0.536248 0.536248
0.562814 0.562814 0.562814
0.589395 0.589395 0.589395
0.615976 0.615976 0.615976
0.749996 0.624994 0.499992
0.874998 0.624994 0.499992
1 0.624994 0.499992
0.572503 0.572503 0.572503
0.599069 0.599069 0.599069
0.62565 0.62565 0.62565
0.652216 0.652216 0.652216
0.678798 0.678798 0.678798
0.705364 0.705364 0.705364
0.731945 0.731945 0.731945
0.837537 0.752743 0.583124
1 0.749996 0.499992
0.661891 0.661891 0.661891
0.688472 0.688472 0.688472
0.715053 0.715053 0.715053
0.741619 0.741619 0.741619
0.7682 0.7682 0.7682
0.794766 0.794766 0.794766
0.821347 0.821347 0.821347
0.847929 0.847929 0.847929
0.899092 0.874601 0.801114
0.751293 0.751293 0.751293
0.777874 0.777874 0.777874
0.80444 0.80444 0.80444
0.831022 0.831022 0.831022
0.857603 0.857603 0.857603
0.884169 0.884169 0.884169
0.91075 0.91075 0.91075
0.937331 0.937331 0.937331
0.963897 0.963897 0.963897
0.0451209 0.0451209 0.0451209
0.0717021 0.0717021 0.0717021
0.0982681 0.0982681 0.0982681
0.124849 0.124849 0.124849
0.151431 0.151431 0.151431
0.177996 0.177996 0.177996
0.204578 0.204578 0.204578
0.231144 0.231144 0.231144
0.257725 0.257725 0.257725
0.134508 0.134508 0.134508
0.161089 0.161089 0.161089
0.187655 0.187655 0.187655
0.214237 0.214237 0.214237
0.240818 0.240818 0.240818
0.267384 0.267384 0.267384
0.293965 0.293965 0.293965
0.320546 0.320546 0.320546
0.347112 0.347112 0.347112
0.223911 0.223911 0.223911
0.250492 0.250492 0.250492
0.277058 0.277058 0.277058
0.303639 0.303639 0.303639
0.33022 0.33022 0.33022
0.356786 0.356786 0.356786
0.383368 0.383368 0.383368
0.409934 0.409934 0.409934
0.448173 0.432654 0.440406
0.313313 0.313313 0.313313
0.339895 0.339895 0.339895
0.366461 0.366461 0.366461
0.393042 0.393042 0.393042
0.419623 0.419623 0.419623
0.446189 0.446189 0.446189
0.47277 0.47277 0.47277
0.507103 0.496773 0.501945
0.875822 0.414527 0.599039
0.402716 0.402716 0.402716
0.429297 0.429297 0.429297
0.455863 0.455863 0.455863
0.482444 0.482444 0.482444
0.50901 0.50901 0.50901
0.535592 0.535592 0.535592
0.566049 0.560876 0.56347
0.878477 0.498909 0.625437
1 0.498146 0.625147
0.492119 0.492119 0.492119
0.5187 0.5187 0.5187
0.545266 0.545266 0.545266
0.571847 0.571847 0.571847
0.598413 0.598413 0.598413
0.624994 0.624994 0.624994
0.750408 0.624887 0.624887
0.875807 0.624781 0.624781
1 0.624659 0.624659
0.581521 0.581521 0.581521
0.608087 0.608087 0.608087
0.634668 0.634668 0.634668
0.66125 0.66125 0.66125
0.687816 0.687816 0.687816
0.714397 0.714397 0.714397
0.740978 0.740978 0.740978
0.874998 0.749996 0.624994
1 0.749996 0.624994
0.670924 0.670924 0.670924
0.69749 0.69749 0.69749
0.724071 0.724071 0.724071
0.750652 0.750652 0.750652
0.777218 0.777218 0.777218
0.8038 0.8038 0.8038
0.830365 0.830365 0.830365
0.856947 0.856947 0.856947
0.962539 0.877745 0.708125
0.760327 0.760327 0.760327
0.786892 0.786892 0.786892
0.813474 0.813474 0.813474
0.840055 0.840055 0.840055
0.866621 0.866621 0.866621
0.893202 0.893202 0.893202
0.919768 0.919768 0.919768
0.946349 0.946349 0.946349
0.97293 0.97293 0.97293
0.0541543 0.0541543 0.0541543
0.0807202 0.0807202 0.0807202
0.107301 0.107301 0.107301
0.133867 0.133867 0.133867
0.160449 0.160449 0.160449
0.18703 0.18703 0.18703
0.213596 0.213596 0.213596
0.240177 0.240177 0.240177
0.266743 0.266743 0.266743
0.143542 0.143542 0.143542
0.170108 0.170108 0.170108
0.196689 0.196689 0.196689
0.22327 0.22327 0.22327
0.249836 0.249836 0.249836
0.276417 0.276417 0.276417
0.302983 0.302983 0.302983
0.329564 0.329564 0.329564
0.356146 0.356146 0.356146
0.232944 0.232944 0.232944
0.25951 0.25951 0.25951
0.286091 0.286091 0.286091
0.312657 0.312657 0.312657
0.339239 0.339239 0.339239
0.36582 0.36582 0.36582
0.392386 0.392386 0.392386
0.418967 0.418967 0.418967
0.445548 0.445548 0.445548
0.322347 0.322347 0.322347
0.348913 0.348913 0.348913
0.375494 0.375494 0.375494
0.40206 0.40206 0.40206
0.428641 0.428641 0.428641
0.455222 0.455222 0.455222
0.481788 0.481788 0.481788
0.50837 0.50837 0.50837
0.534936 0.534936 0.534936
0.411749 0.411749 0.411749
0.438315 0.438315 0.438315
0.464897 0.464897 0.464897
0.491463 0.491463 0.491463
0.518044 0.518044 0.518044
0.544625 0.544625 0.544625
0.571191 0.571191 0.571191
0.597772 0.597772 0.597772
0.632105 0.621775 0.626947
0.501152 0.501152 0.501152
0.527718 0.527718 0.527718
0.554299 0.554299 0.554299
0.580865 0.580865 0.580865
0.607446 0.607446 0.607446
0.634012 0.634012 0.634012
0.660594 0.660594 0.660594
0.691051 0.685878 0.688472
1 0.623911 0.750439
0.590555 0.590555 0.590555
0.617121 0.617121 0.617121
0.643702 0.643702 0.643702
0.670268 0.670268 0.670268
0.696849 0.696849 0.696849
0.723415 0.723415 0.723415
0.749996 0.749996 0.749996
0.87541 0.749889 0.749889
1 0.749783 0.749783
0.679942 0.679942 0.679942
0.706523 0.706523 0.706523
0.733089 0.733089 0.733089
0.75967 0.75967 0.75967
0.786252 0.786252 0.786252
0.812818 0.812818 0.812818
0.839399 0.839399 0.839399
0.86598 0.86598 0.86598
1 0.874998 0.749996
0.769345 0.769345 0.769345
0.795926 0.795926 0.795926
0.822492 0.822492 0.822492
0.849073 0.849073 0.849073
0.875654 0.875654 0.875654
0.90222 0.90222 0.90222
0.928801 0.928801 0.928801
0.955367 0.955367 0.955367
0.981949 0.981949 0.981949
0.0631723 0.0631723 0.0631723
0.0897536 0.0897536 0.0897536
0.11632 0.11632 0.11632
0.142901 0.142901 0.142901
0.169467 0.169467 0.169467
0.196048 0.196048 0.196048
0.222629 0.222629 0.222629
0.249195 0.249195 0.249195
0.275776 0.275776 0.275776
0.15256 0.15256 0.15256
0.179141 0.179141 0.179141
0.205707 0.205707 0.205707
0.232288 0.232288 0.232288
0.258869 0.258869 0.258869
0.285435 0.285435 0.285435
0.312016 0.312016 0.312016
0.338582 0.338582 0.338582
0.365164 0.365164 0.365164
0.241962 0.241962 0.241962
0.268544 0.268544 0.268544
0.295109 0.295109 0.295109
0.321691 0.321691 0.321691
0.348272 0.348272 0.348272
0.374838 0.374838 0.374838
0.401419 0.401419 0.401419
0.427985 0.427985 0.427985
0.454566 0.454566 0.454566
0.331365 0.331365 0.331365
0.357946 0.357946 0.357946
0.384512 0.384512 0.384512
0.411093 0.411093 0.411093
0.437659 0.437659 0.437659
0.46424 0.46424 0.46424
0.490822 0.490822 0.490822
0.517388 0.517388 0.517388
0.543969 0.543969 0.543969
0.420768 0.420768 0.420768
0.447349 0.447349 0.447349
0.473915 0.473915 0.473915
0.500496 0.500496 0.500496
0.527062 0.527062 0.527062
0.553643 0.553643 0.553643
0.580224 0.580224 0.580224
0.60679 0.60679 0.60679
0.633371 0.633371 0.633371
0.51017 0.51017 0.51017
0.536736 0.536736 0.536736
0.563317 0.563317 0.563317
0.589899 0.589899 0.589899
0.616464 0.616464 0.616464
0.643046 0.643046 0.643046
0.669627 0.669627 0.669627
0.696193 0.696193 0.696193
0.722774 0.722774 0.722774
0.599573 0.599573 0.599573
0.626139 0.626139 0.626139
0.65272 0.65272 0.65272
0.679301 0.679301 0.679301
0.705867 0.705867 0.705867
0.732448 0.732448 0.732448
0.759014 0.759014 0.759014
0.785595 0.785595 0.785595
0.816052 0.81088 0.813474
0.688975 0.688975 0.688975
0.715541 0.715541 0.715541
0.742123 0.742123 0.742123
0.768704 0.768704 0.768704
0.79527 0.79527 0.79527
0.821851 0.821851 0.821851
0.848417 0.848417 0.848417
0.874998 0.874998 0.874998
1 0.874891 0.874891
0.778378 0.778378 0.778378
0.804944 0.804944 0.804944
0.831525 0.831525 0.831525
0.858091 0.858091 0.858091
0.884672 0.884672 0.884672
0.911254 0.911254 0.911254
0.937819 0.937819 0.937819
0.964401 0.964401 0.964401
0.990982 0.990982 0.990982
0.0722057 0.0722057 0.0722057
0.0987716 0.0987716 0.0987716
0.125353 0.125353 0.125353
0.151919 0.151919 0.151919
0.1785 0.1785 0.1785
0.205081 0.205081 0.205081
0.231647 0.231647 0.231647
0.258228 0.258228 0.258228
0.284794 0.284794 0.284794
0.161593 0.161593 0.161593
0.188159 0.188159 0.188159
0.21474 0.21474 0.21474
0.241306 0.241306 0.241306
0.267887 0.267887 0.267887
0.294469 0.294469 0.294469
0.321035 0.321035 0.321035
0.347616 0.347616 0.347616
0.374197 0.374197 0.374197
0.250996 0.250996 0.250996
0.277562 0.277562 0.277562
0.304143 0.304143 0.304143
0.330709 0.330709 0.330709
0.35729 0.35729 0.35729
0.383871 0.383871 0.383871
0.410437 0.410437 0.410437
0.437018 0.437018 0.437018
0.463584 0.463584 0.463584
0.340398 0.340398 0.340398
0.366964 0.366964 0.366964
0.393545 0.393545 0.393545
0.420111 0.420111 0.420111
0.446693 0.446693 0.446693
0.473274 0.473274 0.473274
0.49984 0.49984 0.49984
0.526421 0.526421 0.526421
0.552987 0.552987 0.552987
0.429801 0.429801 0.429801
0.456367 0.456367 0.456367
0.482948 0.482948 0.482948
0.509514 0.509514 0.509514
0.536095 0.536095 0.536095
0.562661 0.562661 0.562661
0.589242 0.589242 0.589242
0.615824 0.615824 0.615824
0.64239 0.64239 0.64239
0.519203 0.519203 0.519203
0.545769 0.545769 0.545769
0.572351 0.572351 0.572351
0.598917 0.598917 0.598917
0.625498 0.625498 0.625498
0.652064 0.652064 0.652064
0.678645 0.678645 0.678645
0.705226 0.705226 0.705226
0.731792 0.731792 0.731792
0.608591 0.608591 0.608591
0.635172 0.635172 0.635172
0.661738 0.661738 0.661738
0.688319 0.688319 0.688319
0.7149 0.7149 0.7149
0.741466 0.741466 0.741466
0.768048 0.768048 0.768048
0.794629 0.794629 0.794629
0.821195 0.821195 0.821195
0.697993 0.697993 0.697993
0.724575 0.724575 0.724575
0.751141 0.751141 0.751141
0.777722 0.777722 0.777722
0.804303 0.804303 0.804303
0.830869 0.830869 0.830869
0.85745 0.85745 0.85745
0.884016 0.884016 0.884016
0.910597 0.910597 0.910597
0.787396 0.787396 0.787396
0.813977 0.813977 0.813977
0.840543 0.840543 0.840543
0.867124 0.867124 0.867124
0.893706 0.893706 0.893706
0.920272 0.920272 0.920272
0.946853 0.946853 0.946853
0.973419 0.973419 0.973419
1 1 1
