Camo Studio.app/Contents/Resources/CamoContent_CamoContent.bundle/Contents/Resources/QUIET_BACKGROUND.cube
TITLE "Generated by Resolve"
LUT_3D_SIZE 33
0 0 0
0.031342 0 0
0.0626841 0 0
0.0940414 0 0
0.125399 0 0
0.156741 0 0
0.188098 0 0
0.21944 0 0
0.250797 0 0
0.282155 0 0
0.313497 0 0
0.344854 0 0
0.376211 0 0
0.407553 0 0
0.438911 0 0
0.470268 0 0
0.50161 0 0
0.532967 0 0
0.564324 0 0
0.595666 0 0
0.627024 0 0
0.658366 0 0
0.689723 0 0
0.72108 0 0
0.752422 0 0
0.78378 0 0
0.815137 0 0
0.846479 0 0
0.877836 0 0
0.909194 0 0
0.940536 0 0
0.971893 0 0
1 0 0
0.0223392 0.0223392 0.0223392
0.0289769 0.0289769 0.0289769
0.0624857 0.0312352 0
0.0937362 0.0312352 0
0.124987 0.0312352 0
0.156237 0.0312352 0
0.187488 0.0312352 0
0.218738 0.0312352 0
0.249989 0.0312352 0
0.281239 0.0312352 0
0.31249 0.0312352 0
0.34374 0.0312352 0
0.37499 0.0312352 0
0.406241 0.0312352 0
0.437507 0.0312352 0
0.468772 0.0312352 0
0.500053 0.03122 0
0.531334 0.0312047 0
0.562631 0.0312047 0
0.593927 0.0311894 0
0.625223 0.0311742 0
0.656535 0.0311589 0
0.687846 0.0311437 0
0.719158 0.0311284 0
0.750484 0.0311131 0
0.781796 0.0310826 0
0.813123 0.0310674 0
0.84445 0.0310521 0
0.875776 0.0310216 0
0.907118 0.0310063 0
0.938445 0.0309758 0
0.969772 0.0309606 0
1 0.0309453 0
0.0446937 0.0446937 0.0446937
0.0513313 0.0513313 0.0513313
0.057969 0.057969 0.057969
0.0843824 0.0631723 0.0207523
0.124987 0.0624857 0
0.156237 0.0624857 0
0.187488 0.0624857 0
0.218738 0.0624857 0
0.249989 0.0624857 0
0.281239 0.0624857 0
0.31249 0.0624857 0
0.34374 0.0624857 0
0.37499 0.0624857 0
0.406241 0.0624857 0
0.437491 0.0624857 0
0.468742 0.0624857 0
0.499992 0.0624857 0
0.531243 0.0624857 0
0.562493 0.0624857 0
0.593744 0.0624857 0
0.624994 0.0624857 0
0.656245 0.0624857 0
0.687495 0.0624857 0
0.718746 0.0624857 0
0.749996 0.0624857 0
0.781247 0.0624857 0
0.812497 0.0624857 0
0.843763 0.0624857 0
0.875013 0.0624857 0
0.906279 0.0624704 0
0.93756 0.0624704 0
0.968826 0.0624704 0
1 0.0624552 0
0.0670329 0.0670329 0.0670329
0.0736858 0.0736858 0.0736858
0.0803235 0.0803235 0.0803235
0.0869612 0.0869612 0.0869612
0.0997635 0.0936294 0.0752575
0.153033 0.0941024 0.00573739
0.187488 0.0937362 0
0.218738 0.0937362 0
0.249989 0.0937362 0
0.281239 0.0937362 0
0.31249 0.0937362 0
0.34374 0.0937362 0
0.37499 0.0937362 0
0.406241 0.0937362 0
0.437491 0.0937362 0
0.468742 0.0937362 0
0.499992 0.0937362 0
0.531243 0.0937362 0
0.562493 0.0937362 0
0.593744 0.0937362 0
0.624994 0.0937362 0
0.656245 0.0937362 0
0.687495 0.0937362 0
0.718746 0.0937362 0
0.749996 0.0937362 0
0.781247 0.0937362 0
0.812497 0.0937362 0
0.843748 0.0937362 0
0.874998 0.0937362 0
0.906249 0.0937362 0
0.937499 0.0937362 0
0.96875 0.0937362 0
1 0.0937362 0
0.0893873 0.0893873 0.0893873
0.096025 0.096025 0.096025
0.102678 0.102678 0.102678
0.109316 0.109316 0.109316
0.115969 0.115969 0.115969
0.124254 0.122728 0.116579
0.16878 0.12636 0.0415351
0.217685 0.125124 0.00172427
0.249989 0.124987 0
0.281239 0.124987 0
0.31249 0.124987 0
0.34374 0.124987 0
0.37499 0.124987 0
0.406241 0.124987 0
0.437491 0.124987 0
0.468742 0.124987 0
0.499992 0.124987 0
0.531243 0.124987 0
0.562493 0.124987 0
0.593744 0.124987 0
0.624994 0.124987 0
0.656245 0.124987 0
0.687495 0.124987 0
0.718746 0.124987 0
0.749996 0.124987 0
0.781247 0.124987 0
0.812497 0.124987 0
0.843748 0.124987 0
0.874998 0.124987 0
0.906249 0.124987 0
0.937499 0.124987 0
0.96875 0.124987 0
1 0.124987 0
0.111742 0.111742 0.111742
0.118379 0.118379 0.118379
0.125032 0.125032 0.125032
0.13167 0.13167 0.13167
0.138308 0.138308 0.138308
0.144961 0.144961 0.144961
0.151919 0.151644 0.150286
0.181415 0.157473 0.0976425
0.239139 0.157336 0.0210117
0.28098 0.156268 0.000411994
0.31249 0.156237 0
0.34374 0.156237 0
0.37499 0.156237 0
0.406241 0.156237 0
0.437491 0.156237 0
0.468742 0.156237 0
0.499992 0.156237 0
0.531243 0.156237 0
0.562493 0.156237 0
0.593744 0.156237 0
0.624994 0.156237 0
0.656245 0.156237 0
0.687495 0.156237 0
0.718746 0.156237 0
0.749996 0.156237 0
0.781247 0.156237 0
0.812497 0.156237 0
0.843748 0.156237 0
0.874998 0.156237 0
0.906249 0.156237 0
0.937499 0.156237 0
0.96875 0.156237 0
1 0.156237 0
0.134096 0.134096 0.134096
0.140734 0.140734 0.140734
0.147372 0.147372 0.147372
0.154025 0.154025 0.154025
0.160662 0.160662 0.160662
0.1673 0.1673 0.1673
0.173953 0.173953 0.173953
0.180606 0.180591 0.18056
0.199542 0.187289 0.15053
0.253162 0.189548 0.0623178
0.306081 0.188235 0.0114748
0.343709 0.187488 3.0518e-05
0.37499 0.187488 0
0.406241 0.187488 0
0.437491 0.187488 0
0.468742 0.187488 0
0.499992 0.187488 0
0.531243 0.187488 0
0.562493 0.187488 0
0.593744 0.187488 0
0.624994 0.187488 0
0.656245 0.187488 0
0.687495 0.187488 0
0.718746 0.187488 0
0.749996 0.187488 0
0.781247 0.187488 0
0.812497 0.187488 0
0.843748 0.187488 0
0.874998 0.187488 0
0.906249 0.187488 0
0.937499 0.187488 0
0.96875 0.187488 0
1 0.187488 0
0.156435 0.156435 0.156435
0.163088 0.163088 0.163088
0.169726 0.169726 0.169726
0.176364 0.176364 0.176364
0.183017 0.183017 0.183017
0.189654 0.189654 0.189654
0.196307 0.196307 0.196307
0.202945 0.202945 0.202945
0.209583 0.209583 0.209583
0.222736 0.21648 0.194583
0.265156 0.22092 0.117708
0.324407 0.220569 0.0388495
0.371298 0.219196 0.00627146
0.406241 0.218738 0
0.437491 0.218738 0
0.468742 0.218738 0
0.499992 0.218738 0
0.531243 0.218738 0
0.562493 0.218738 0
0.593744 0.218738 0
0.624994 0.218738 0
0.656245 0.218738 0
0.687495 0.218738 0
0.718746 0.218738 0
0.749996 0.218738 0
0.781247 0.218738 0
0.812497 0.218738 0
0.843748 0.218738 0
0.874998 0.218738 0
0.906249 0.218738 0
0.937499 0.218738 0
0.96875 0.218738 0
1 0.218738 0
0.17879 0.17879 0.17879
0.185428 0.185428 0.185428
0.192081 0.192081 0.192081
0.198718 0.198718 0.198718
0.205371 0.205371 0.205371
0.212009 0.212009 0.212009
0.218647 0.218647 0.218647
0.225299 0.225299 0.225299
0.231937 0.231937 0.231937
0.23859 0.23859 0.23859
0.248539 0.245457 0.233173
0.28014 0.251286 0.174365
0.337545 0.252735 0.0831006
0.392599 0.251453 0.0256352
0.435386 0.250263 0.00344854
0.468742 0.249989 0
0.499992 0.249989 0
0.531243 0.249989 0
0.562493 0.249989 0
0.593744 0.249989 0
0.624994 0.249989 0
0.656245 0.249989 0
0.687495 0.249989 0
0.718746 0.249989 0
0.749996 0.249989 0
0.781247 0.249989 0
0.812497 0.249989 0
0.843748 0.249989 0
0.874998 0.249989 0
0.906249 0.249989 0
0.937499 0.249989 0
0.96875 0.249989 0
1 0.249989 0
0.201144 0.201144 0.201144
0.207782 0.207782 0.207782
0.21442 0.21442 0.21442
0.221073 0.221073 0.221073
0.22771 0.22771 0.22771
0.234363 0.234363 0.234363
0.241001 0.241001 0.241001
0.247639 0.247639 0.247639
0.254292 0.254292 0.254292
0.260929 0.260929 0.260929
0.267582 0.267582 0.267582
0.275746 0.274372 0.268208
0.299321 0.280934 0.225803
0.349355 0.284245 0.137758
0.409155 0.283787 0.0581521
0.459129 0.282353 0.0172122
0.498848 0.281392 0.00181582
0.531243 0.281239 0
0.562493 0.281239 0
0.593744 0.281239 0
0.624994 0.281239 0
0.656245 0.281239 0
0.687495 0.281239 0
0.718746 0.281239 0
0.749996 0.281239 0
0.781247 0.281239 0
0.812497 0.281239 0
0.843748 0.281239 0
0.874998 0.281239 0
0.906249 0.281239 0
0.937499 0.281239 0
0.96875 0.281239 0
1 0.281239 0
0.223499 0.223499 0.223499
0.230137 0.230137 0.230137
0.236774 0.236774 0.236774
0.243427 0.243427 0.243427
0.250065 0.250065 0.250065
0.256703 0.256703 0.256703
0.263355 0.263355 0.263355
0.269993 0.269993 0.269993
0.276646 0.276646 0.276646
0.283284 0.283284 0.283284
0.289921 0.289921 0.289921
0.296574 0.296574 0.296574
0.303838 0.303288 0.300587
0.321935 0.310185 0.271031
0.362814 0.314961 0.195346
0.421942 0.315923 0.103868
0.478294 0.314702 0.0420233
0.52459 0.313313 0.01149
0.561959 0.312566 0.000823987
0.593744 0.31249 0
0.624994 0.31249 0
0.656245 0.31249 0
0.687495 0.31249 0
0.718746 0.31249 0
0.749996 0.31249 0
0.781247 0.31249 0
0.812497 0.31249 0
0.843748 0.31249 0
0.874998 0.31249 0
0.906249 0.31249 0
0.937499 0.31249 0
0.96875 0.31249 0
1 0.31249 0
0.245838 0.245838 0.245838
0.252491 0.252491 0.252491
0.259129 0.259129 0.259129
0.265766 0.265766 0.265766
0.272419 0.272419 0.272419
0.279057 0.279057 0.279057
0.28571 0.28571 0.28571
0.292348 0.292348 0.292348
0.298985 0.298985 0.298985
0.305638 0.305638 0.305638
0.312276 0.312276 0.312276
0.318929 0.318929 0.318929
0.325567 0.325567 0.325567
0.332387 0.332235 0.331426
0.346685 0.339239 0.311955
0.379431 0.345006 0.250385
0.433616 0.347509 0.158099
0.493797 0.347005 0.0779126
0.54583 0.345571 0.0308995
0.58912 0.344335 0.00775158
0.624811 0.343771 0.000289921
0.656245 0.34374 0
0.687495 0.34374 0
0.718746 0.34374 0
0.749996 0.34374 0
0.781247 0.34374 0
0.812497 0.34374 0
0.843748 0.34374 0
0.874998 0.34374 0
0.906249 0.34374 0
0.937499 0.34374 0
0.96875 0.34374 0
1 0.34374 0
0.268193 0.268193 0.268193
0.27483 0.27483 0.27483
0.281483 0.281483 0.281483
0.288121 0.288121 0.288121
0.294759 0.294759 0.294759
0.301411 0.301411 0.301411
0.308049 0.308049 0.308049
0.314702 0.314702 0.314702
0.32134 0.32134 0.32134
0.327977 0.327977 0.327977
0.33463 0.33463 0.33463
0.341268 0.341268 0.341268
0.347921 0.347921 0.347921
0.354559 0.354559 0.354559
0.361227 0.361212 0.36112
0.372808 0.3682 0.349767
0.3991 0.374594 0.301076
0.446357 0.37847 0.215549
0.50634 0.379095 0.124651
0.563836 0.377905 0.0591897
0.612177 0.376486 0.0229496
0.653086 0.375402 0.00518807
0.687449 0.37499 7.62951e-05
0.718746 0.37499 0
0.749996 0.37499 0
0.781247 0.37499 0
0.812497 0.37499 0
0.843748 0.37499 0
0.874998 0.37499 0
0.906249 0.37499 0
0.937499 0.37499 0
0.96875 0.37499 0
1 0.37499 0
0.290547 0.290547 0.290547
0.297185 0.297185 0.297185
0.303822 0.303822 0.303822
0.310475 0.310475 0.310475
0.317113 0.317113 0.317113
0.323766 0.323766 0.323766
0.330404 0.330404 0.330404
0.337041 0.337041 0.337041
0.343694 0.343694 0.343694
0.350332 0.350332 0.350332
0.356985 0.356985 0.356985
0.363622 0.363622 0.363622
0.37026 0.37026 0.37026
0.376913 0.376913 0.376913
0.383551 0.383551 0.383551
0.390204 0.390204 0.390204
0.399817 0.397116 0.385412
0.421225 0.403876 0.347463
0.461341 0.40882 0.272282
0.517998 0.410742 0.178393
0.578302 0.410224 0.0980697
0.631861 0.408804 0.0463569
0.677699 0.407431 0.0170748
0.716655 0.406516 0.00335698
0.749996 0.406241 0
0.781247 0.406241 0
0.812497 0.406241 0
0.843748 0.406241 0
0.874998 0.406241 0
0.906249 0.406241 0
0.937499 0.406241 0
0.96875 0.406241 0
1 0.406241 0
0.312901 0.312901 0.312901
0.319539 0.319539 0.319539
0.326177 0.326177 0.326177
0.33283 0.33283 0.33283
0.339467 0.339467 0.339467
0.346105 0.346105 0.346105
0.352758 0.352758 0.352758
0.359396 0.359396 0.359396
0.366049 0.366049 0.366049
0.372686 0.372686 0.372686
0.379324 0.379324 0.379324
0.385977 0.385977 0.385977
0.392615 0.392615 0.392615
0.399268 0.399268 0.399268
0.405905 0.405905 0.405905
0.412543 0.412543 0.412543
0.419196 0.419196 0.419196
0.427558 0.426032 0.41886
0.445487 0.432975 0.389227
0.478889 0.438697 0.326177
0.530312 0.441871 0.235477
0.590723 0.442283 0.145418
0.648829 0.441138 0.0776989
0.699016 0.439689 0.0363012
0.742626 0.438422 0.0125429
0.779919 0.437675 0.00209049
0.812497 0.437491 0
0.843748 0.437491 0
0.874998 0.437491 0
0.906249 0.437491 0
0.937499 0.437491 0
0.96875 0.437491 0
1 0.437491 0
0.335241 0.335241 0.335241
0.341878 0.341878 0.341878
0.348531 0.348531 0.348531
0.355169 0.355169 0.355169
0.361822 0.361822 0.361822
0.36846 0.36846 0.36846
0.375097 0.375097 0.375097
0.38175 0.38175 0.38175
0.388388 0.388388 0.388388
0.395041 0.395041 0.395041
0.401679 0.401679 0.401679
0.408316 0.408316 0.408316
0.414969 0.414969 0.414969
0.421607 0.421607 0.421607
0.42826 0.42826 0.42826
0.434897 0.434897 0.434897
0.441535 0.441535 0.441535
0.448188 0.448188 0.448188
0.455756 0.454948 0.450889
0.470817 0.461982 0.428901
0.498863 0.468238 0.376349
0.544228 0.472465 0.293034
0.602365 0.473976 0.198856
0.662806 0.473426 0.118334
0.717464 0.472053 0.0630503
0.765225 0.470603 0.028687
0.806897 0.469459 0.00935378
0.842954 0.468849 0.00123598
0.874998 0.468742 0
0.906249 0.468742 0
0.937499 0.468742 0
0.96875 0.468742 0
1 0.468742 0
0.357595 0.357595 0.357595
0.364233 0.364233 0.364233
0.370886 0.370886 0.370886
0.377523 0.377523 0.377523
0.384161 0.384161 0.384161
0.390814 0.390814 0.390814
0.397452 0.397452 0.397452
0.404105 0.404105 0.404105
0.410742 0.410742 0.410742
0.41738 0.41738 0.41738
0.424033 0.424033 0.424033
0.430671 0.430671 0.430671
0.437324 0.437324 0.437324
0.443961 0.443961 0.443961
0.450599 0.450599 0.450599
0.457252 0.457252 0.457252
0.46389 0.46389 0.46389
0.470542 0.470542 0.470542
0.47718 0.47718 0.47718
0.484245 0.483879 0.481987
0.497078 0.490944 0.466377
0.520806 0.497536 0.423087
0.560296 0.502602 0.348745
0.614557 0.505196 0.255222
0.67512 0.50547 0.166201
0.733639 0.504372 0.096788
0.785214 0.502922 0.0512856
0.830793 0.501549 0.0226749
0.870787 0.500542 0.0069276
0.905821 0.500053 0.000671397
0.937499 0.499992 0
0.96875 0.499992 0
1 0.499992 0
0.37995 0.37995 0.37995
0.386587 0.386587 0.386587
0.393225 0.393225 0.393225
0.399878 0.399878 0.399878
0.406516 0.406516 0.406516
0.413153 0.413153 0.413153
0.419806 0.419806 0.419806
0.426444 0.426444 0.426444
0.433097 0.433097 0.433097
0.439734 0.439734 0.439734
0.446387 0.446387 0.446387
0.453025 0.453025 0.453025
0.459663 0.459663 0.459663
0.466316 0.466316 0.466316
0.472953 0.472953 0.472953
0.479606 0.479606 0.479606
0.486244 0.486244 0.486244
0.492882 0.492882 0.492882
0.499535 0.499535 0.499535
0.506172 0.506172 0.506172
0.512963 0.51284 0.512154
0.52401 0.51986 0.502174
0.54464 0.526696 0.465705
0.5785 0.532372 0.401724
0.627665 0.535973 0.313313
0.686778 0.537179 0.219318
0.74725 0.536629 0.138811
0.803174 0.535256 0.0797894
0.852125 0.533806 0.041886
0.896025 0.532509 0.0175479
0.934371 0.53167 0.005066
0.968566 0.531273 0.000274662
1 0.531243 0
0.402289 0.402289 0.402289
0.408942 0.408942 0.408942
0.415579 0.415579 0.415579
0.422217 0.422217 0.422217
0.42887 0.42887 0.42887
0.435508 0.435508 0.435508
0.442161 0.442161 0.442161
0.448798 0.448798 0.448798
0.455436 0.455436 0.455436
0.462089 0.462089 0.462089
0.468727 0.468727 0.468727
0.47538 0.47538 0.47538
0.482017 0.482017 0.482017
0.488655 0.488655 0.488655
0.495308 0.495308 0.495308
0.501945 0.501945 0.501945
0.508598 0.508598 0.508598
0.515236 0.515236 0.515236
0.521874 0.521874 0.521874
0.528527 0.528527 0.528527
0.535164 0.535164 0.535164
0.541833 0.541817 0.541695
0.551507 0.54876 0.536431
0.569345 0.555749 0.506783
0.598627 0.561898 0.451682
0.642649 0.566339 0.370092
0.698711 0.568505 0.275517
0.759503 0.568658 0.186969
0.818326 0.567605 0.116304
0.871015 0.566171 0.0673533
0.918288 0.564736 0.0344244
0.960494 0.563546 0.0139315
0.997726 0.562799 0.00364691
0.424643 0.424643 0.424643
0.431281 0.431281 0.431281
0.437934 0.437934 0.437934
0.444572 0.444572 0.444572
0.451225 0.451225 0.451225
0.457862 0.457862 0.457862
0.4645 0.4645 0.4645
0.471153 0.471153 0.471153
0.477791 0.477791 0.477791
0.484443 0.484443 0.484443
0.491081 0.491081 0.491081
0.497719 0.497719 0.497719
0.504372 0.504372 0.504372
0.511009 0.511009 0.511009
0.517662 0.517662 0.517662
0.5243 0.5243 0.5243
0.530938 0.530938 0.530938
0.537591 0.537591 0.537591
0.544228 0.544228 0.544228
0.550881 0.550881 0.550881
0.557519 0.557519 0.557519
0.564157 0.564157 0.564157
0.570809 0.570809 0.570809
0.579461 0.577676 0.569253
0.59501 0.584726 0.545678
0.620432 0.591211 0.498665
0.659495 0.596338 0.424918
0.711437 0.59942 0.333364
0.77116 0.600397 0.239872
0.831678 0.599832 0.159319
0.888258 0.598489 0.0979782
0.938506 0.59704 0.0564126
0.983871 0.595682 0.028336
0.446998 0.446998 0.446998
0.453635 0.453635 0.453635
0.460273 0.460273 0.460273
0.466926 0.466926 0.466926
0.473564 0.473564 0.473564
0.480217 0.480217 0.480217
0.486854 0.486854 0.486854
0.493492 0.493492 0.493492
0.500145 0.500145 0.500145
0.506783 0.506783 0.506783
0.513436 0.513436 0.513436
0.520073 0.520073 0.520073
0.526726 0.526726 0.526726
0.533364 0.533364 0.533364
0.540002 0.540002 0.540002
0.546654 0.546654 0.546654
0.553292 0.553292 0.553292
0.559945 0.559945 0.559945
0.566583 0.566583 0.566583
0.57322 0.57322 0.57322
0.579873 0.579873 0.579873
0.586511 0.586511 0.586511
0.593164 0.593164 0.593164
0.599802 0.599802 0.599802
0.607691 0.606607 0.60119
0.621347 0.613672 0.582971
0.643885 0.620386 0.542077
0.678111 0.626047 0.477302
0.725643 0.629953 0.390707
0.782925 0.631785 0.295933
0.8439 0.631846 0.207752
0.902983 0.630823 0.135988
0.956588 0.629404 0.0841077
0.469352 0.469352 0.469352
0.47599 0.47599 0.47599
0.482628 0.482628 0.482628
0.489281 0.489281 0.489281
0.495918 0.495918 0.495918
0.502556 0.502556 0.502556
0.509209 0.509209 0.509209
0.515846 0.515846 0.515846
0.522499 0.522499 0.522499
0.529137 0.529137 0.529137
0.535775 0.535775 0.535775
0.542428 0.542428 0.542428
0.549065 0.549065 0.549065
0.555718 0.555718 0.555718
0.562356 0.562356 0.562356
0.568994 0.568994 0.568994
0.575647 0.575647 0.575647
0.582284 0.582284 0.582284
0.588937 0.588937 0.588937
0.595575 0.595575 0.595575
0.602213 0.602213 0.602213
0.608865 0.608865 0.608865
0.615503 0.615503 0.615503
0.622156 0.622156 0.622156
0.628794 0.628794 0.628794
0.636149 0.635538 0.632349
0.648249 0.642603 0.61883
0.668238 0.649485 0.583841
0.698405 0.655543 0.52697
0.74139 0.660136 0.446845
0.795483 0.662806 0.353231
0.855543 0.6636 0.260517
0.916136 0.66302 0.179797
0.491691 0.491691 0.491691
0.498344 0.498344 0.498344
0.504982 0.504982 0.504982
0.51162 0.51162 0.51162
0.518273 0.518273 0.518273
0.52491 0.52491 0.52491
0.531563 0.531563 0.531563
0.538201 0.538201 0.538201
0.544839 0.544839 0.544839
0.551492 0.551492 0.551492
0.558129 0.558129 0.558129
0.564782 0.564782 0.564782
0.57142 0.57142 0.57142
0.578058 0.578058 0.578058
0.58471 0.58471 0.58471
0.591348 0.591348 0.591348
0.598001 0.598001 0.598001
0.604639 0.604639 0.604639
0.611276 0.611276 0.611276
0.617929 0.617929 0.617929
0.624567 0.624567 0.624567
0.63122 0.63122 0.63122
0.637858 0.637858 0.637858
0.644495 0.644495 0.644495
0.651148 0.651148 0.651148
0.657786 0.657786 0.657786
0.66479 0.664485 0.662852
0.675563 0.671504 0.653635
0.693385 0.678492 0.623911
0.720043 0.684871 0.574319
0.758862 0.690044 0.500786
0.809033 0.693477 0.411002
0.867247 0.695033 0.316197
0.514046 0.514046 0.514046
0.520684 0.520684 0.520684
0.527337 0.527337 0.527337
0.533974 0.533974 0.533974
0.540612 0.540612 0.540612
0.547265 0.547265 0.547265
0.553903 0.553903 0.553903
0.560555 0.560555 0.560555
0.567193 0.567193 0.567193
0.573831 0.573831 0.573831
0.580484 0.580484 0.580484
0.587121 0.587121 0.587121
0.593774 0.593774 0.593774
0.600412 0.600412 0.600412
0.607065 0.607065 0.607065
0.613703 0.613703 0.613703
0.62034 0.62034 0.62034
0.626993 0.626993 0.626993
0.633631 0.633631 0.633631
0.640284 0.640284 0.640284
0.646922 0.646922 0.646922
0.653559 0.653559 0.653559
0.660212 0.660212 0.660212
0.66685 0.66685 0.66685
0.673503 0.673503 0.673503
0.68014 0.68014 0.68014
0.686778 0.686778 0.686778
0.693568 0.693446 0.692805
0.703319 0.70042 0.687068
0.719219 0.707469 0.662455
0.743175 0.714076 0.618479
0.777798 0.719707 0.552728
0.824002 0.723827 0.467842
0.5364 0.5364 0.5364
0.543038 0.543038 0.543038
0.549676 0.549676 0.549676
0.556329 0.556329 0.556329
0.562966 0.562966 0.562966
0.569619 0.569619 0.569619
0.576257 0.576257 0.576257
0.582895 0.582895 0.582895
0.589548 0.589548 0.589548
0.596185 0.596185 0.596185
0.602838 0.602838 0.602838
0.609476 0.609476 0.609476
0.616114 0.616114 0.616114
0.622766 0.622766 0.622766
0.629404 0.629404 0.629404
0.636057 0.636057 0.636057
0.642695 0.642695 0.642695
0.649332 0.649332 0.649332
0.655985 0.655985 0.655985
0.662623 0.662623 0.662623
0.669276 0.669276 0.669276
0.675914 0.675914 0.675914
0.682551 0.682551 0.682551
0.689204 0.689204 0.689204
0.695842 0.695842 0.695842
0.702495 0.702495 0.702495
0.709133 0.709133 0.709133
0.715785 0.715785 0.715785
0.722454 0.722423 0.722271
0.73135 0.729335 0.719646
0.745617 0.736416 0.699565
0.767346 0.743191 0.66041
0.798184 0.749187 0.602243
0.558755 0.558755 0.558755
0.565393 0.565393 0.565393
0.57203 0.57203 0.57203
0.578683 0.578683 0.578683
0.585321 0.585321 0.585321
0.591959 0.591959 0.591959
0.598611 0.598611 0.598611
0.605249 0.605249 0.605249
0.611902 0.611902 0.611902
0.61854 0.61854 0.61854
0.625177 0.625177 0.625177
0.63183 0.63183 0.63183
0.638468 0.638468 0.638468
0.645121 0.645121 0.645121
0.651759 0.651759 0.651759
0.658396 0.658396 0.658396
0.665049 0.665049 0.665049
0.671687 0.671687 0.671687
0.67834 0.67834 0.67834
0.684977 0.684977 0.684977
0.691615 0.691615 0.691615
0.698268 0.698268 0.698268
0.704906 0.704906 0.704906
0.711559 0.711559 0.711559
0.718196 0.718196 0.718196
0.724834 0.724834 0.724834
0.731487 0.731487 0.731487
0.738125 0.738125 0.738125
0.744778 0.744778 0.744778
0.751415 0.751415 0.751415
0.759609 0.758267 0.751492
0.772503 0.765332 0.735485
0.79205 0.772244 0.701488
0.581094 0.581094 0.581094
0.587732 0.587732 0.587732
0.594385 0.594385 0.594385
0.601022 0.601022 0.601022
0.607675 0.607675 0.607675
0.614313 0.614313 0.614313
0.620951 0.620951 0.620951
0.627604 0.627604 0.627604
0.634241 0.634241 0.634241
0.640894 0.640894 0.640894
0.647532 0.647532 0.647532
0.654169 0.654169 0.654169
0.660822 0.660822 0.660822
0.66746 0.66746 0.66746
0.674113 0.674113 0.674113
0.680751 0.680751 0.680751
0.687404 0.687404 0.687404
0.694041 0.694041 0.694041
0.700679 0.700679 0.700679
0.707332 0.707332 0.707332
0.71397 0.71397 0.71397
0.720623 0.720623 0.720623
0.72726 0.72726 0.72726
0.733898 0.733898 0.733898
0.740551 0.740551 0.740551
0.747189 0.747189 0.747189
0.753841 0.753841 0.753841
0.760479 0.760479 0.760479
0.767117 0.767117 0.767117
0.77377 0.77377 0.77377
0.780407 0.780407 0.780407
0.788052 0.787198 0.782712
0.799649 0.794232 0.770825
0.603449 0.603449 0.603449
0.610086 0.610086 0.610086
0.616739 0.616739 0.616739
0.623377 0.623377 0.623377
0.630014 0.630014 0.630014
0.636667 0.636667 0.636667
0.643305 0.643305 0.643305
0.649958 0.649958 0.649958
0.656596 0.656596 0.656596
