Camo Studio.app/Contents/Resources/CamoContent_CamoContent.bundle/Contents/Resources/QUIET_BACKGROUND.cube
TITLE "Generated by Resolve"
LUT_3D_SIZE 5
0 0 0
0.250797 0 0
0.50161 0 0
0.752422 0 0
1 0 0
0.17879 0.17879 0.17879
0.231937 0.231937 0.231937
0.499992 0.249989 0
0.749996 0.249989 0
1 0.249989 0
0.357595 0.357595 0.357595
0.410742 0.410742 0.410742
0.46389 0.46389 0.46389
0.67512 0.50547 0.166201
1 0.499992 0
0.5364 0.5364 0.5364
0.589548 0.589548 0.589548
0.642695 0.642695 0.642695
0.695842 0.695842 0.695842
0.798184 0.749187 0.602243
0.715206 0.715206 0.715206
0.768353 0.768353 0.768353
0.8215 0.8215 0.8215
0.874647 0.874647 0.874647
0.927794 0.927794 0.927794
0.0180514 0.0180514 0.0180514
0.0711986 0.0711986 0.0711986
0.132128 0.121767 0.126955
0.756954 0 0.250874
1 0 0.250294
0.196841 0.196841 0.196841
0.249989 0.249989 0.249989
0.500801 0.249775 0.249775
0.751614 0.249546 0.249546
1 0.249332 0.249332
0.375647 0.375647 0.375647
0.428794 0.428794 0.428794
0.481941 0.481941 0.481941
0.749996 0.499992 0.249989
1 0.499992 0.249989
0.554452 0.554452 0.554452
0.607599 0.607599 0.607599
0.660746 0.660746 0.660746
0.713893 0.713893 0.713893
0.925093 0.755474 0.416251
0.733242 0.733242 0.733242
0.786404 0.786404 0.786404
0.839551 0.839551 0.839551
0.892699 0.892699 0.892699
0.945846 0.945846 0.945846
0.0361028 0.0361028 0.0361028
0.08925 0.08925 0.08925
0.142397 0.142397 0.142397
0.195544 0.195544 0.195544
0.264225 0.243565 0.253895
0.214893 0.214893 0.214893
0.26804 0.26804 0.26804
0.321187 0.321187 0.321187
0.382101 0.371771 0.376944
1 0.247837 0.500877
0.393698 0.393698 0.393698
0.446845 0.446845 0.446845
0.499992 0.499992 0.499992
0.750805 0.499779 0.499779
1 0.49955 0.49955
0.572503 0.572503 0.572503
0.62565 0.62565 0.62565
0.678798 0.678798 0.678798
0.731945 0.731945 0.731945
1 0.749996 0.499992
0.751293 0.751293 0.751293
0.80444 0.80444 0.80444
0.857603 0.857603 0.857603
0.91075 0.91075 0.91075
0.963897 0.963897 0.963897
0.0541543 0.0541543 0.0541543
0.107301 0.107301 0.107301
0.160449 0.160449 0.160449
0.213596 0.213596 0.213596
0.266743 0.266743 0.266743
0.232944 0.232944 0.232944
0.286091 0.286091 0.286091
0.339239 0.339239 0.339239
0.392386 0.392386 0.392386
0.445548 0.445548 0.445548
0.411749 0.411749 0.411749
0.464897 0.464897 0.464897
0.518044 0.518044 0.518044
0.571191 0.571191 0.571191
0.632105 0.621775 0.626947
0.590555 0.590555 0.590555
0.643702 0.643702 0.643702
0.696849 0.696849 0.696849
0.749996 0.749996 0.749996
1 0.749783 0.749783
0.769345 0.769345 0.769345
0.822492 0.822492 0.822492
0.875654 0.875654 0.875654
0.928801 0.928801 0.928801
0.981949 0.981949 0.981949
0.0722057 0.0722057 0.0722057
0.125353 0.125353 0.125353
0.1785 0.1785 0.1785
0.231647 0.231647 0.231647
0.284794 0.284794 0.284794
0.250996 0.250996 0.250996
0.304143 0.304143 0.304143
0.35729 0.35729 0.35729
0.410437 0.410437 0.410437
0.463584 0.463584 0.463584
0.429801 0.429801 0.429801
0.482948 0.482948 0.482948
0.536095 0.536095 0.536095
0.589242 0.589242 0.589242
0.64239 0.64239 0.64239
0.608591 0.608591 0.608591
0.661738 0.661738 0.661738
0.7149 0.7149 0.7149
0.768048 0.768048 0.768048
0.821195 0.821195 0.821195
0.787396 0.787396 0.787396
0.840543 0.840543 0.840543
0.893706 0.893706 0.893706
0.946853 0.946853 0.946853
1 1 1
