Camo Studio.app/Contents/Resources/CamoContent_CamoContent.bundle/Contents/Resources/SUNKISSED.cube
TITLE "Generated by Resolve"
LUT_3D_SIZE 5
0.0712139 0 0.00967422
0.237964 0 0.0101472
0.490501 0 0
0.741939 0 0
0.963699 0 0
0.0814221 0.225711 0.0222782
0.253544 0.231571 0.0293126
0.522408 0.23154 0.0292821
0.791913 0.239719 0.0391546
1 0.258061 0.0608988
0.0847944 0.496162 0.0264439
0.266178 0.51487 0.0440833
0.542596 0.520912 0.0497902
0.815259 0.53341 0.0615702
1 0.555367 0.0822766
0.110048 0.773068 0.0576181
0.293004 0.789776 0.0741283
0.568582 0.791897 0.0762188
0.834333 0.795575 0.0798657
1 0.805158 0.0893416
0.148852 1 0.105562
0.32755 1 0.112016
0.595438 1 0.102998
0.852399 0.996414 0.0972152
1 0.999802 0.100572
0.0717784 0 0.190524
0.238499 0 0.190997
0.491356 0 0.179019
0.742748 0 0.17258
0.965179 0 0.177386
0.0832074 0.227543 0.205081
0.256519 0.234562 0.213367
0.527398 0.235721 0.21474
0.798001 0.244587 0.225162
1 0.263188 0.247288
0.0896162 0.50248 0.212863
0.271244 0.520912 0.229862
0.548424 0.52723 0.235828
0.821317 0.53959 0.247944
1 0.560861 0.269886
0.114702 0.778881 0.243671
0.297612 0.794949 0.260838
0.572595 0.795987 0.261952
0.837324 0.798489 0.264668
1 0.806928 0.273869
0.151186 1 0.293217
0.329244 1 0.299275
0.596551 1 0.288334
0.853178 0.997162 0.281498
1 1 0.285313
0.0695201 0 0.437995
0.236316 0 0.438499
0.488533 0 0.425666
0.740032 0 0.41883
0.963348 0 0.424979
0.0824903 0.22681 0.455497
0.256977 0.235004 0.465827
0.529229 0.237263 0.46865
0.800549 0.246632 0.48014
1 0.265156 0.501289
0.0915999 0.505058 0.467247
0.273274 0.523339 0.484779
0.550851 0.529854 0.490852
0.82359 0.541909 0.501808
1 0.562402 0.519402
0.116396 0.781018 0.497902
0.298817 0.796307 0.512001
0.572793 0.796185 0.511894
0.836316 0.797513 0.513085
1 0.804913 0.519554
0.150423 1 0.535195
0.327459 1 0.538842
0.593942 1 0.530205
0.850278 0.994354 0.524819
1 0.997986 0.527886
0.0673533 0 0.64094
0.233967 0 0.641093
0.485801 0 0.630976
0.737621 0 0.625788
0.962036 0 0.631647
0.0822309 0.226535 0.657359
0.257908 0.235935 0.667216
0.531426 0.239109 0.670558
0.80325 0.248798 0.68069
1 0.267216 0.699275
0.0935988 0.507698 0.669596
0.275502 0.525994 0.684642
0.553353 0.53257 0.690028
0.825833 0.544182 0.69958
1 0.563729 0.715694
0.118044 0.783062 0.695918
0.299855 0.797482 0.708324
0.572793 0.796185 0.70721
0.835126 0.796353 0.707347
1 0.802808 0.712917
0.149508 1 0.729778
0.325582 1 0.73286
0.591363 0.998215 0.723369
0.847517 0.991669 0.717723
1 0.995895 0.72137
0.0677653 0 0.801038
0.234531 0 0.801343
0.486381 0 0.791104
0.738766 0 0.786389
0.964508 0 0.793347
0.0849012 0.229282 0.819883
0.261936 0.239826 0.830961
0.536934 0.243778 0.835096
0.809232 0.253666 0.845335
1 0.27216 0.863844
0.098085 0.513558 0.834073
0.280644 0.532113 0.849302
0.558938 0.538598 0.854627
0.831189 0.549645 0.863706
1 0.568093 0.878935
0.122103 0.788144 0.859922
0.303487 0.801541 0.871473
0.575631 0.799069 0.869337
0.836912 0.798093 0.868498
1 0.803754 0.873381
0.150912 1 0.890929
0.326497 1 0.893355
0.591959 0.99881 0.883513
0.848127 0.992264 0.877882
1 0.996597 0.881605
