Camo Studio.app/Contents/Resources/CamoContent_CamoContent.bundle/Contents/Resources/SUNKISSED.cube
TITLE "Generated by Resolve"
LUT_3D_SIZE 33
0.0712139 0 0.00967422
0.08925 0 0.0101167
0.108553 0 0.010544
0.128252 0 0.0109712
0.14844 0 0.0113069
0.169345 0 0.0114748
0.191196 0 0.0113527
0.21413 0 0.0109255
0.237964 0 0.0101472
0.263218 0 0.00903334
0.291875 0 0.00764477
0.321675 0 0.00611887
0.35288 0 0.00451667
0.385657 0 0.00296025
0.42092 0 0.00143435
0.455817 0 0
0.490501 0 0
0.524041 0 0
0.55642 0 0
0.588525 0 0
0.620996 0 0
0.652781 0 0
0.683467 0 0
0.713176 0 0
0.741939 0 0
0.770001 0 0
0.79762 0 0
0.824994 0 0
0.852369 0 0
0.879957 0 0
0.908034 0 0
0.935836 0 0
0.963699 0 0
0.0728771 0.00332647 0.0117189
0.090898 0.00370794 0.0121614
0.110216 0.00407416 0.0125887
0.1299 0.00442512 0.0130312
0.150103 0.00471504 0.0133669
0.170993 0.00485237 0.0135195
0.192844 0.00474556 0.0134127
0.215793 0.00437934 0.0129702
0.239567 0.0037232 0.012192
0.265019 0.0027924 0.0110781
0.29337 0.00131228 0.009308
0.323323 0.000122072 0.00790417
0.354681 0 0.00639353
0.38764 0 0.00489815
0.423026 0 0.00341802
0.458213 0 0.00184634
0.492775 0 0.000259403
0.526177 0 0
0.558495 0 0
0.590646 0 0
0.623194 0 0
0.654963 0 0
0.68571 0 0
0.715465 0 0
0.744305 0 0
0.772488 0 0
0.800229 0 0
0.827756 0 0
0.855283 0 0
0.88307 0 0
0.911345 0 0
0.939361 0 0
0.967483 0 0
0.0746929 0.0346227 0.013962
0.0927138 0.0349889 0.0144045
0.112032 0.0353552 0.0148318
0.131716 0.0357214 0.0152743
0.151919 0.035996 0.01561
0.172808 0.0361334 0.0157626
0.19443 0.0357977 0.0153658
0.217441 0.0355077 0.0150149
0.241215 0.0349126 0.014313
0.266957 0.0340124 0.0132448
0.295689 0.0328832 0.011902
0.325628 0.0316014 0.0103761
0.357015 0.0302739 0.0087892
0.390127 0.0289769 0.00724804
0.425483 0.0276951 0.00573739
0.460624 0.0263676 0.00415045
0.49514 0.0250401 0.00256352
0.528466 0.0237583 0.00105287
0.560845 0.0225834 0
0.593133 0.0215915 0
0.625864 0.0208438 0
0.65774 0.0203403 0
0.688624 0.0200961 0
0.718563 0.0201267 0
0.747585 0.0204166 0
0.775982 0.0209049 0
0.803952 0.021561 0
0.831739 0.0223392 0
0.859556 0.0231785 0.000366217
0.887648 0.0240635 0.00140383
0.916274 0.024918 0.00242618
0.944656 0.0259098 0.00361639
0.973159 0.0269932 0.00489815
0.0766461 0.0756695 0.0163729
0.0951095 0.0760967 0.0168917
0.114473 0.0765087 0.01738
0.134188 0.0769055 0.0178531
0.154406 0.0772106 0.018204
0.175311 0.077348 0.0183871
0.197162 0.0772717 0.0182803
0.220111 0.0769055 0.0178531
0.243763 0.0762646 0.0170748
0.26981 0.0753338 0.0162509
0.298573 0.0741894 0.0150912
0.328618 0.0729381 0.0135958
0.360204 0.0716564 0.0120699
0.39379 0.0704204 0.010605
0.429145 0.0692302 0.00918593
0.464363 0.0680095 0.00773632
0.49897 0.0668193 0.00631724
0.532357 0.0661021 0.00500496
0.56495 0.0651255 0.00384527
0.597665 0.064332 0.00291447
0.630777 0.0638132 0.00228885
0.662974 0.0635691 0.00199893
0.694224 0.0636301 0.00205997
0.724529 0.0639811 0.00247196
0.753994 0.0646067 0.00323491
0.782849 0.0654765 0.00425727
0.811307 0.0665141 0.00550851
0.839597 0.0673075 0.00689708
0.867933 0.068574 0.00840772
0.896559 0.0698711 0.00996414
0.925719 0.0711681 0.01149
0.95465 0.0726024 0.0131991
0.983688 0.0741131 0.0149996
0.0787518 0.110872 0.018967
0.0971542 0.111254 0.0194247
0.116472 0.111635 0.0198672
0.136172 0.112001 0.0203098
0.15639 0.112291 0.0206607
0.17731 0.112459 0.0208438
0.199191 0.112398 0.0207828
0.222187 0.112078 0.0204166
0.245838 0.111513 0.0197299
0.272251 0.110674 0.0187228
0.301167 0.109651 0.0175174
0.331441 0.108522 0.0162509
0.363348 0.107378 0.0152743
0.397498 0.10631 0.014023
0.433021 0.105318 0.0128328
0.468421 0.104311 0.0116426
0.503182 0.103349 0.0104982
0.536751 0.102495 0.00947585
0.569711 0.101793 0.00863661
0.602975 0.10132 0.00807202
0.636576 0.101122 0.00784314
0.669184 0.101213 0.00796521
0.700862 0.101625 0.00843824
0.731624 0.102327 0.00927749
0.761517 0.103319 0.0104524
0.790814 0.10454 0.0119173
0.81973 0.105943 0.0135805
0.848463 0.1075 0.0154269
0.877272 0.109133 0.016907
0.906355 0.110811 0.0188907
0.935958 0.112459 0.0208591
0.965347 0.114275 0.0230106
0.994842 0.116152 0.0252384
0.0803082 0.140993 0.0209049
0.0987564 0.141405 0.0213779
0.118105 0.141817 0.0218814
0.137865 0.142245 0.022385
0.158145 0.142626 0.0228275
0.179156 0.14287 0.0231327
0.201144 0.142916 0.0231937
0.224262 0.142733 0.0229648
0.248005 0.142306 0.0224613
0.274861 0.141634 0.0216526
0.304006 0.14078 0.0206455
0.3346 0.139849 0.0195315
0.366903 0.138918 0.0184329
0.401663 0.138094 0.0174411
0.437446 0.137346 0.016556
0.473106 0.136614 0.0161593
0.50808 0.135943 0.0153506
0.541878 0.135378 0.0146944
0.575235 0.134981 0.0142214
0.609125 0.134813 0.0140078
0.643137 0.13492 0.0141451
0.676127 0.135332 0.0146334
0.708202 0.136049 0.0154879
0.739345 0.137057 0.0162509
0.769635 0.138369 0.0177768
0.799313 0.139895 0.0196078
0.828611 0.141619 0.0216526
0.857755 0.143496 0.0238651
0.886931 0.145434 0.0261845
0.916396 0.147402 0.0285191
0.946349 0.149355 0.0308385
0.976059 0.151415 0.0332952
1 0.153536 0.0358129
0.0813306 0.169497 0.0221561
0.0998398 0.169986 0.0227359
0.11931 0.17052 0.0233616
0.139178 0.171054 0.0240024
0.159594 0.171572 0.0246128
0.180743 0.171969 0.0250858
0.202899 0.172198 0.0253605
0.226184 0.172183 0.0253452
0.250111 0.171954 0.0250706
0.277424 0.171496 0.0245365
0.306874 0.170886 0.0238041
0.337865 0.170214 0.0230106
0.370672 0.169558 0.0222171
0.406073 0.169009 0.021561
0.442161 0.168551 0.0210117
0.47805 0.168093 0.0204776
0.513207 0.167697 0.0200198
0.547234 0.167422 0.0196841
0.581033 0.167315 0.0195621
0.615549 0.167437 0.0196994
0.649897 0.167834 0.0201572
0.683253 0.168536 0.0209964
0.715679 0.169543 0.0222019
0.747189 0.17084 0.0237583
0.777829 0.172442 0.0256504
0.807858 0.174258 0.0278019
0.837476 0.176242 0.0301671
0.866911 0.178332 0.0326543
0.896361 0.180499 0.0352331
0.926055 0.182666 0.0378119
0.956252 0.184787 0.0403296
0.98616 0.187015 0.0429847
1 0.189273 0.0456703
0.0816815 0.197543 0.0225834
0.100328 0.198169 0.023331
0.119936 0.19884 0.0241398
0.139971 0.199557 0.0249943
0.160571 0.200259 0.0258335
0.181918 0.20087 0.0265507
0.204303 0.201328 0.0270848
0.227832 0.201556 0.0273747
0.251987 0.201587 0.0274052
0.279774 0.201389 0.0271611
0.30956 0.201053 0.0267643
0.340948 0.200641 0.026276
0.374258 0.200244 0.025803
0.410254 0.199954 0.0254673
0.446616 0.199771 0.0252384
0.482734 0.199588 0.0250248
0.518059 0.199466 0.0248875
0.552331 0.199466 0.0248875
0.586587 0.199634 0.0250858
0.621668 0.200031 0.0255589
0.656336 0.200702 0.0263523
0.690013 0.201663 0.0274968
0.722744 0.202914 0.0289769
0.754528 0.20444 0.030808
0.785428 0.206241 0.0329442
0.815686 0.20824 0.0353246
0.845518 0.210391 0.0378729
0.875135 0.21265 0.0405585
0.904753 0.214939 0.0432898
0.9346 0.217227 0.0460059
0.96492 0.219455 0.0486458
0.994919 0.221759 0.0513924
1 0.224094 0.0541543
0.0814221 0.225711 0.0222782
0.100252 0.22652 0.0232548
0.120073 0.227405 0.0243076
0.140322 0.228336 0.0254368
0.161151 0.229267 0.0265507
0.182757 0.230121 0.0275731
0.205356 0.230808 0.028397
0.229129 0.231296 0.0289769
0.253544 0.231571 0.0293126
0.281743 0.231617 0.0293889
0.311864 0.23154 0.0292821
0.343633 0.231388 0.029099
0.377401 0.23125 0.0289464
0.413931 0.231235 0.0289158
0.450584 0.231312 0.0290074
0.486931 0.231388 0.0291142
0.522408 0.23154 0.0292821
0.556939 0.231785 0.029572
0.591608 0.232181 0.0300603
0.627146 0.232792 0.0307774
0.662043 0.233631 0.0318151
0.695949 0.234775 0.0331731
0.728878 0.236164 0.0348669
0.760845 0.237827 0.0368658
0.791913 0.239719 0.0391546
0.822309 0.24181 0.0416724
0.852262 0.244038 0.0443427
0.881987 0.246357 0.0471199
0.911681 0.248707 0.0499275
0.941573 0.251041 0.0527047
0.971939 0.25333 0.055375
1 0.25568 0.0581521
1 0.258061 0.0608988
0.080827 0.25417 0.0215305
0.0998703 0.255222 0.0227665
0.119905 0.256367 0.024094
0.140383 0.257588 0.0255131
0.16144 0.258793 0.0269017
0.183276 0.259937 0.0282139
0.206119 0.260914 0.0293278
0.230106 0.261677 0.0302129
0.254795 0.262226 0.0308385
0.283375 0.262562 0.0312047
0.313802 0.26273 0.0314031
0.345937 0.262837 0.0315251
0.380163 0.262974 0.0316777
0.417151 0.263203 0.0319371
0.454047 0.263523 0.0323033
0.490578 0.263828 0.0326543
0.526146 0.264179 0.0330663
0.560876 0.264637 0.0335851
0.59588 0.265232 0.0342565
0.631724 0.266026 0.0351568
0.666758 0.267063 0.036347
0.700801 0.268376 0.0378424
0.733867 0.269947 0.0396582
0.765927 0.271794 0.0417487
0.797086 0.273854 0.0441291
0.827543 0.276097 0.0466926
0.857542 0.278462 0.0494087
0.887282 0.280903 0.0522164
0.916991 0.283345 0.055024
0.946868 0.28574 0.0577707
0.977172 0.288014 0.0604105
1 0.290364 0.0631113
1 0.292699 0.0657969
0.0800488 0.284489 0.0205844
0.0993057 0.285786 0.0220645
0.11957 0.287175 0.023682
0.140276 0.28864 0.0253605
0.161563 0.290105 0.0270542
0.183612 0.291493 0.0286412
0.206699 0.292714 0.030045
0.230915 0.293736 0.03122
0.255863 0.29453 0.0321355
0.284794 0.295094 0.0327916
0.315496 0.295506 0.0332647
0.347951 0.295827 0.0336309
0.382544 0.296162 0.0340124
0.419867 0.296574 0.0345006
0.456916 0.297063 0.03505
0.493568 0.29752 0.035584
0.529198 0.298009 0.0361486
0.56405 0.298589 0.0368048
0.599313 0.29929 0.0376135
0.635325 0.30016 0.0386053
0.670436 0.301259 0.0398871
0.704555 0.302632 0.0414435
0.737667 0.30425 0.0433051
0.769772 0.306096 0.0454261
0.800916 0.308171 0.0478065
0.831373 0.31043 0.05037
0.861341 0.312779 0.0530556
0.891035 0.31519 0.0558175
0.920653 0.317601 0.0585489
0.950454 0.319951 0.0612192
0.980667 0.32221 0.0637675
1 0.324575 0.0664225
1 0.326955 0.0691081
0.0794842 0.315358 0.0198672
0.0989395 0.316899 0.021622
0.119417 0.318547 0.0234989
0.140352 0.320287 0.025452
0.161852 0.322026 0.0274205
0.184146 0.323674 0.0292973
0.207431 0.32517 0.0309606
0.23183 0.326436 0.0323796
0.257038 0.327443 0.0335241
0.286244 0.328222 0.0344091
0.317159 0.328817 0.0350652
0.349859 0.32932 0.0356298
0.384726 0.329793 0.0361639
0.422309 0.330358 0.0367895
0.459449 0.330968 0.0374762
0.496147 0.331548 0.038117
0.531777 0.332128 0.0387732
0.566705 0.332784 0.0394903
0.602136 0.333547 0.0403449
0.638224 0.334493 0.0413825
0.673365 0.335653 0.0426795
0.707469 0.337057 0.0442359
0.740551 0.33872 0.0460822
0.772625 0.340612 0.0481575
0.803723 0.342733 0.0504921
0.834089 0.345006 0.0529793
0.863951 0.347387 0.0555734
0.893568 0.349859 0.0582437
0.923186 0.352377 0.0609751
0.953002 0.354894 0.0636759
0.983307 0.357336 0.0662852
1 0.359899 0.0690166
1 0.362509 0.0717784
0.079408 0.34757 0.019791
0.0990768 0.349416 0.0217899
0.119768 0.351385 0.0239261
0.140887 0.353429 0.0261234
0.162585 0.355474 0.0283207
0.185046 0.357427 0.0304112
0.208499 0.359182 0.0322728
0.233021 0.360693 0.033875
0.258427 0.361929 0.0351873
0.287846 0.36289 0.0362097
0.318929 0.363653 0.0370031
0.351827 0.364294 0.0376745
0.386923 0.364889 0.0383001
0.424674 0.36556 0.0390173
0.46183 0.366278 0.0397498
0.498527 0.366934 0.0404364
0.534096 0.36759 0.0411231
0.569039 0.368292 0.0418555
0.604562 0.3691 0.04271
0.640635 0.370077 0.0437171
0.675731 0.371267 0.0449531
0.709773 0.372717 0.0464637
0.742779 0.374426 0.0482032
0.774746 0.376379 0.0502022
0.805798 0.378607 0.0524758
0.836164 0.381079 0.0549783
0.866102 0.383795 0.0576333
0.895796 0.386694 0.0603799
0.925475 0.389593 0.0631723
0.955352 0.392477 0.065919
0.985702 0.395254 0.0685893
1 0.398138 0.0713664
1 0.401022 0.0741283
0.0800793 0.382101 0.0206149
0.0999161 0.384375 0.0228275
0.12076 0.386816 0.0251469
0.142031 0.389319 0.0275273
0.163851 0.391775 0.0298772
0.186435 0.394095 0.0321202
0.209995 0.396185 0.0341192
0.234562 0.397986 0.0358434
0.260182 0.399451 0.0372625
0.289784 0.40061 0.0383612
0.320974 0.401511 0.0392309
0.354025 0.402258 0.0399481
0.389334 0.40296 0.0406195
0.427146 0.403708 0.0413367
0.464256 0.404486 0.0420844
0.500877 0.405188 0.0427558
0.536324 0.405859 0.0433967
0.571252 0.406561 0.0440833
0.606806 0.407385 0.0448615
0.642802 0.408347 0.0457771
0.677806 0.409552 0.046952
0.711818 0.411093 0.0484169
0.744854 0.41294 0.0502022
0.776898 0.415106 0.0522621
0.808011 0.417563 0.054612
0.838453 0.420233 0.0571756
0.868437 0.423056 0.0598764
0.898177 0.425986 0.0626688
0.927886 0.428931 0.0654765
0.957794 0.431846 0.0682536
0.988128 0.434653 0.0709239
1 0.437552 0.0736858
1 0.440467 0.0764477
0.0814832 0.419883 0.0223545
0.101427 0.422339 0.0247044
0.122377 0.424903 0.0271611
0.143755 0.427527 0.0296635
0.165667 0.430121 0.0321355
0.188312 0.432547 0.0344549
0.211948 0.434745 0.0365301
0.2365 0.436606 0.0383154
0.262364 0.438148 0.039765
0.292058 0.439338 0.0408942
0.323323 0.440253 0.0417792
0.356497 0.441016 0.0424964
0.392065 0.441703 0.0431373
0.42977 0.442405 0.0438239
0.466773 0.443137 0.0445106
0.503243 0.443763 0.0451057
0.538537 0.444343 0.045655
0.573434 0.444999 0.0462806
0.609064 0.445808 0.0470436
0.645121 0.44683 0.0480201
0.680217 0.448142 0.0492561
0.71429 0.44976 0.0507973
0.747372 0.451698 0.0526284
0.779461 0.453941 0.0547494
0.810636 0.456443 0.0571298
0.841093 0.459174 0.0597086
0.871092 0.462043 0.0624247
0.900832 0.465003 0.0652171
0.930526 0.467964 0.0680247
0.960418 0.470878 0.0707866
0.990738 0.473686 0.0734264
1 0.476555 0.0761425
1 0.479423 0.0788586
0.0830854 0.458015 0.0243381
0.103105 0.460578 0.0267643
0.124117 0.463264 0.0292973
0.145541 0.46598 0.0318761
0.167498 0.468635 0.0343938
0.190173 0.471138 0.0367437
0.213825 0.47335 0.0388495
0.238331 0.475242 0.0406348
0.264393 0.476768 0.0420844
0.294118 0.477928 0.043183
0.325399 0.478813 0.044007
0.358602 0.4795 0.0446632
0.394354 0.480095 0.0452277
0.431891 0.48072 0.0458228
0.468818 0.481407 0.046479
0.505226 0.482048 0.0470741
0.540536 0.482704 0.0476997
0.575525 0.483421 0.0483864
0.611337 0.484306 0.0492103
0.64744 0.48539 0.0502327
0.682567 0.486732 0.0515145
0.716686 0.488396 0.0530861
0.749783 0.490349 0.0549325
0.781888 0.492607 0.0570687
0.813046 0.495125 0.0594492
0.843503 0.497856 0.0620279
0.873487 0.50071 0.0647135
0.903181 0.503639 0.0674754
0.932845 0.506554 0.0702373
0.962676 0.509438 0.0729534
0.99292 0.512169 0.0755322
1 0.514992 0.0781872
1 0.517769 0.0807965
0.0847944 0.496162 0.0264439
0.104845 0.498772 0.0289006
0.125872 0.501488 0.0314641
0.147311 0.504234 0.0340581
0.169268 0.506905 0.0365759
0.191928 0.509377 0.0389105
0.215549 0.511574 0.0409705
0.239948 0.513405 0.04271
0.266178 0.51487 0.0440833
0.295842 0.515953 0.0451057
0.327108 0.516762 0.0458686
0.360372 0.517418 0.046479
0.396368 0.518044 0.0470741
0.433936 0.518746 0.0477455
0.470878 0.519509 0.0484627
0.507286 0.520211 0.0491188
0.542596 0.520912 0.0497902
0.577646 0.521691 0.0505074
0.613581 0.522606 0.0513771
0.649699 0.523705 0.0524147
0.68484 0.525078 0.0536965
0.718959 0.526741 0.0552682
0.752056 0.528695 0.0571145
0.784131 0.530922 0.0592203
0.815259 0.53341 0.0615702
0.84567 0.536095 0.0640879
0.875578 0.538903 0.0667277
0.905226 0.541772 0.0694285
0.934798 0.54461 0.0721294
0.964553 0.547387 0.0747387
0.99469 0.550027 0.0772259
1 0.552712 0.0797742
1 0.555367 0.0822766
0.0866102 0.534051 0.0286717
0.106645 0.53666 0.0311437
0.127657 0.539345 0.0336767
0.149065 0.542046 0.0362249
0.170977 0.544656 0.0386816
0.193591 0.547051 0.0409552
0.217136 0.549157 0.0429389
0.241428 0.550927 0.0446021
0.267857 0.552377 0.0459754
0.297581 0.553491 0.0470283
0.328969 0.55436 0.0478523
0.362402 0.555108 0.0485389
0.398642 0.555779 0.0491951
0.43621 0.556527 0.049897
0.473152 0.557321 0.0506447
0.509514 0.558053 0.0513313
0.544778 0.55877 0.052018
0.579889 0.559548 0.0527657
0.615915 0.560449 0.0536049
0.652018 0.561532 0.0546273
0.687129 0.562875 0.0558938
0.721218 0.564492 0.057435
0.754269 0.566384 0.0592355
0.786282 0.568551 0.0612802
0.817334 0.570947 0.0635691
0.847669 0.573526 0.0660105
0.877501 0.576226 0.068574
0.907042 0.578958 0.0711681
0.936507 0.581659 0.0737621
0.966125 0.584283 0.0762646
0.996628 0.586755 0.0786297
1 0.589273 0.0810254
1 0.591745 0.0833906
0.0885328 0.571206 0.0310521
0.108522 0.573739 0.033463
0.129488 0.576333 0.035935
0.15082 0.578912 0.0383917
0.172702 0.581445 0.0408026
0.195315 0.583841 0.0430762
0.218906 0.585977 0.0451209
0.243198 0.587793 0.0468605
0.269917 0.589273 0.0482795
0.299718 0.590448 0.0493935
0.331212 0.591348 0.0502632
0.364797 0.592096 0.0509804
0.401282 0.592798 0.0516518
0.438834 0.593561 0.0523842
0.475715 0.594339 0.0531319
0.511986 0.595041 0.0538033
0.547189 0.595743 0.0544747
0.582315 0.596475 0.0551919
0.618418 0.59733 0.0560006
0.654459 0.598352 0.0569772
0.689525 0.599603 0.0581979
0.723522 0.601114 0.0596628
0.756497 0.602884 0.0613718
0.788434 0.604883 0.0633402
0.819379 0.607111 0.0655222
0.849607 0.609491 0.0678721
0.879316 0.611948 0.0703136
0.908721 0.61445 0.0727855
0.938048 0.616907 0.0752422
0.967514 0.619257 0.0775921
0.997848 0.621469 0.0797894
1 0.623713 0.0820325
1 0.625895 0.0842145
0.0906081 0.607004 0.0336004
0.110582 0.609415 0.035996
0.131548 0.611933 0.0384833
0.152941 0.614481 0.0410163
0.174868 0.616953 0.0434882
0.197528 0.619303 0.0458228
0.221149 0.621378 0.0478981
0.245426 0.623163 0.0496834
0.27245 0.624628 0.051133
0.302312 0.625757 0.0522621
0.333913 0.626642 0.0531472
0.367636 0.627359 0.0538643
0.404364 0.628031 0.0545205
0.44184 0.628748 0.0552377
0.47863 0.62948 0.0559548
0.514778 0.630121 0.0565957
0.549889 0.630747 0.0572213
0.585016 0.631403 0.0578775
0.621164 0.632166 0.0586252
0.657115 0.633082 0.0595254
0.692088 0.634211 0.0606546
0.725994 0.635599 0.0620279
0.758862 0.637232 0.0636454
0.790661 0.639109 0.0654917
0.821485 0.641184 0.0675517
0.85156 0.643427 0.069749
0.881117 0.645747 0.0720531
0.910369 0.648081 0.0743725
0.939513 0.650401 0.0766461
0.968795 0.652598 0.0788281
0.998932 0.654627 0.080827
1 0.656672 0.0828565
1 0.658671 0.0848249
0.0932021 0.641138 0.03682
0.113222 0.64361 0.0392615
0.134234 0.646174 0.0417945
0.155657 0.648783 0.0443732
0.177615 0.651316 0.046891
0.200305 0.653696 0.0492409
0.223941 0.655833 0.0513466
0.248157 0.657633 0.0531319
0.275532 0.659113 0.0545968
0.305425 0.660243 0.0557107
0.337133 0.661112 0.0565652
0.371008 0.661814 0.0572671
0.40795 0.662455 0.0578927
0.44535 0.663111 0.0585489
0.481987 0.663783 0.0592203
0.517937 0.664363 0.0597848
0.552941 0.664912 0.0603342
0.588067 0.665492 0.0608988
0.624247 0.666148 0.0615549
0.66006 0.666957 0.0623484
0.694911 0.667979 0.0633555
0.728679 0.669245 0.0646067
0.761395 0.670726 0.0660868
0.793057 0.672465 0.0677806
0.823728 0.674388 0.069688
0.85362 0.676448 0.0717327
0.882994 0.678584 0.0738537
0.912032 0.680735 0.0759747
0.940978 0.682841 0.0780499
0.970047 0.68484 0.0800183
0.999969 0.686656 0.0818341
1 0.688518 0.08365
1 0.690288 0.08542
0.0965286 0.674983 0.0409247
0.116564 0.67747 0.0433967
0.137606 0.680064 0.0459602
0.159045 0.682673 0.0485389
0.181003 0.685222 0.0510567
0.203677 0.687602 0.0534066
0.227314 0.689723 0.0555123
0.251484 0.691508 0.0572671
0.279194 0.692958 0.0587015
0.309133 0.694041 0.0597848
0.340932 0.694865 0.0605936
0.374975 0.695521 0.0612345
0.412116 0.696086 0.061799
0.449378 0.696666 0.0623789
0.485832 0.697261 0.0629587
0.521553 0.697749 0.0634318
0.55642 0.698192 0.0638743
0.591531 0.69865 0.0643168
0.627695 0.699184 0.0648508
0.663355 0.699855 0.0655222
0.698054 0.700725 0.0663767
0.73167 0.701823 0.0674754
0.764218 0.703151 0.0687877
0.795682 0.704692 0.0702983
0.826154 0.706432 0.0720226
0.855848 0.708293 0.0738689
0.885008 0.710231 0.0757763
0.913832 0.712169 0.0776989
0.942565 0.714076 0.0795758
0.97142 0.715862 0.0813458
1 0.717479 0.082948
1 0.719142 0.0845808
1 0.720714 0.0861524
0.100496 0.708293 0.0458381
0.120546 0.710781 0.0483101
0.141573 0.713375 0.0508583
0.163012 0.715969 0.0534371
0.184955 0.718502 0.0559396
0.207599 0.720851 0.0582589
0.231159 0.722927 0.0603189
0.255375 0.724666 0.0620279
0.283391 0.726055 0.0634012
0.313344 0.727077 0.0644236
0.345266 0.727825 0.065156
0.379477 0.728374 0.0657054
0.416785 0.728847 0.0661631
0.453864 0.729335 0.0666514
0.490105 0.729809 0.0671092
0.525551 0.730159 0.0674754
0.56025 0.73048 0.0677806
0.595346 0.730785 0.0680858
0.631464 0.731167 0.068452
0.666941 0.73167 0.0689555
0.701457 0.732372 0.0696422
0.734874 0.733288 0.0705425
0.767208 0.734401 0.0716564
0.798489 0.735744 0.0729839
0.828733 0.737285 0.0744945
0.858228 0.738949 0.0761425
0.887175 0.740673 0.0778668
0.915801 0.742428 0.0795911
0.944335 0.744121 0.0812695
0.972976 0.745708 0.0828412
1 0.747143 0.0842451
1 0.748577 0.0856794
1 0.749966 0.0870527
0.105028 0.741009 0.0514382
0.125063 0.743481 0.0538949
0.146075 0.746044 0.0564126
0.167468 0.748608 0.0589456
0.189364 0.75108 0.0614023
0.211978 0.753368 0.0636606
0.235386 0.755383 0.0656596
0.2598 0.757046 0.0672923
0.288029 0.758343 0.068574
0.318013 0.759274 0.0695048
0.350027 0.759915 0.0701305
0.384421 0.760357 0.070573
0.421836 0.760708 0.0709087
0.458686 0.761044 0.0712596
0.494682 0.761379 0.0715801
0.529793 0.761593 0.0717784
0.56434 0.76173 0.071931
0.599435 0.761868 0.0720684
0.635416 0.762051 0.0722515
0.670695 0.762371 0.0725567
0.704997 0.76286 0.0730449
0.738216 0.763577 0.0737469
0.770352 0.764508 0.0746777
0.801419 0.765652 0.0758068
0.831464 0.766979 0.0771191
0.860746 0.768444 0.0785687
0.889494 0.769985 0.0800946
0.917922 0.771527 0.0816205
0.946242 0.773037 0.0831006
0.974701 0.774426 0.0844892
1 0.775662 0.0856947
1 0.776913 0.0869306
1 0.778103 0.0881208
0.110048 0.773068 0.0576181
0.130037 0.775509 0.060029
0.150988 0.778012 0.062501
0.172335 0.780499 0.0649577
0.194186 0.78291 0.0673381
0.216724 0.785107 0.0695201
0.239902 0.78703 0.0714122
0.264729 0.788586 0.0729534
0.293004 0.789776 0.0741283
0.323003 0.790585 0.0749371
0.355123 0.791089 0.0754253
0.389761 0.791379 0.0757305
0.427146 0.791577 0.0759136
0.463752 0.79176 0.0760967
0.499443 0.791928 0.0762493
0.534218 0.791943 0.0762798
0.568582 0.791897 0.0762188
0.603662 0.791836 0.076173
0.63949 0.791821 0.0761578
0.674556 0.791943 0.0762798
0.708675 0.792248 0.0765698
0.74168 0.792752 0.0770886
0.773617 0.793484 0.0778058
0.804471 0.794446 0.0787518
0.834333 0.795575 0.0798657
0.863416 0.796857 0.0811322
0.891966 0.798184 0.0824598
0.920195 0.799542 0.0838026
0.948318 0.800855 0.0850996
0.976562 0.80206 0.0862745
1 0.803098 0.0872969
1 0.80415 0.0883497
1 0.805158 0.0893416
0.115419 0.80444 0.0642557
0.135348 0.806806 0.0665904
0.156237 0.809216 0.068986
0.177508 0.811627 0.0713664
0.199268 0.813931 0.0736248
0.221729 0.816022 0.0757
0.244648 0.817823 0.0774853
0.270008 0.819242 0.0788891
0.298207 0.820294 0.0799268
0.328237 0.820951 0.0805676
0.360464 0.821302 0.0809186
0.395575 0.821439 0.0810559
0.432593 0.821439 0.0810559
0.468879 0.821439 0.0810559
0.50425 0.821393 0.0810101
0.538705 0.821225 0.0808423
0.572931 0.820981 0.0805982
0.607996 0.820722 0.080354
0.643641 0.820523 0.0801556
0.678523 0.820447 0.0800793
0.712428 0.820554 0.0801709
0.745251 0.820874 0.0805066
0.776974 0.821424 0.0810407
0.807645 0.822171 0.0817884
0.837293 0.823117 0.0827192
0.866194 0.824201 0.0837873
0.894545 0.82536 0.0849317
0.92256 0.82652 0.0860761
0.9505 0.827634 0.0871901
0.978546 0.828656 0.0881971
1 0.829496 0.0890364
1 0.830396 0.0899062
1 0.831235 0.0907454
0.120958 0.835126 0.071107
0.140826 0.837385 0.0733501
0.161624 0.839689 0.0756237
0.182803 0.841978 0.0778973
0.204456 0.844144 0.0800336
0.226795 0.846113 0.0819715
0.249516 0.847761 0.0836042
0.275334 0.849027 0.0848554
0.303456 0.849912 0.0857252
0.333501 0.850385 0.0861982
0.365805 0.850538 0.0863508
0.401221 0.850477 0.0862898
0.437949 0.850294 0.0861067
0.47393 0.850111 0.0859236
0.508949 0.849867 0.0856947
0.543114 0.8495 0.0853285
0.577203 0.849073 0.0849012
0.612284 0.84863 0.0844739
0.64773 0.848234 0.0840772
0.682414 0.847974 0.0838178
0.716136 0.847883 0.0837262
0.748745 0.84802 0.0838636
0.780285 0.848386 0.0842145
0.810758 0.848951 0.0847791
0.840223 0.849699 0.0855268
0.868925 0.850599 0.0864118
0.897078 0.85156 0.0873579
0.92491 0.852552 0.0883345
0.952667 0.853498 0.0892653
0.98056 0.854353 0.0901198
1 0.855055 0.0908217
1 0.855802 0.0915541
1 0.856519 0.0922713
0.126513 0.865095 0.0779583
0.146273 0.867231 0.0800793
0.166979 0.869413 0.0822309
0.188037 0.87155 0.0843519
0.209567 0.873579 0.0863508
