Camo Studio.app/Contents/Resources/CamoContent_CamoContent.bundle/Contents/Resources/SUNKISSED.cube
TITLE "Generated by Resolve"
LUT_3D_SIZE 9
0.0712139 0 0.00967422
0.14844 0 0.0113069
0.237964 0 0.0101472
0.35288 0 0.00451667
0.490501 0 0
0.620996 0 0
0.741939 0 0
0.852369 0 0
0.963699 0 0
0.0787518 0.110872 0.018967
0.15639 0.112291 0.0206607
0.245838 0.111513 0.0197299
0.363348 0.107378 0.0152743
0.503182 0.103349 0.0104982
0.636576 0.101122 0.00784314
0.761517 0.103319 0.0104524
0.877272 0.109133 0.016907
0.994842 0.116152 0.0252384
0.0814221 0.225711 0.0222782
0.161151 0.229267 0.0265507
0.253544 0.231571 0.0293126
0.377401 0.23125 0.0289464
0.522408 0.23154 0.0292821
0.662043 0.233631 0.0318151
0.791913 0.239719 0.0391546
0.911681 0.248707 0.0499275
1 0.258061 0.0608988
0.079408 0.34757 0.019791
0.162585 0.355474 0.0283207
0.258427 0.361929 0.0351873
0.386923 0.364889 0.0383001
0.534096 0.36759 0.0411231
0.675731 0.371267 0.0449531
0.805798 0.378607 0.0524758
0.925475 0.389593 0.0631723
1 0.401022 0.0741283
0.0847944 0.496162 0.0264439
0.169268 0.506905 0.0365759
0.266178 0.51487 0.0440833
0.396368 0.518044 0.0470741
0.542596 0.520912 0.0497902
0.68484 0.525078 0.0536965
0.815259 0.53341 0.0615702
0.934798 0.54461 0.0721294
1 0.555367 0.0822766
0.0932021 0.641138 0.03682
0.177615 0.651316 0.046891
0.275532 0.659113 0.0545968
0.40795 0.662455 0.0578927
0.552941 0.664912 0.0603342
0.694911 0.667979 0.0633555
0.823728 0.674388 0.069688
0.940978 0.682841 0.0780499
1 0.690288 0.08542
0.110048 0.773068 0.0576181
0.194186 0.78291 0.0673381
0.293004 0.789776 0.0741283
0.427146 0.791577 0.0759136
0.568582 0.791897 0.0762188
0.708675 0.792248 0.0765698
0.834333 0.795575 0.0798657
0.948318 0.800855 0.0850996
1 0.805158 0.0893416
0.131884 0.894331 0.0846113
0.21442 0.902159 0.0923323
0.313329 0.906462 0.0965896
0.447852 0.905364 0.095491
0.585122 0.902647 0.0928206
0.72285 0.899977 0.0901808
0.845502 0.900404 0.0905928
0.956817 0.90309 0.0932479
1 0.905287 0.0954299
0.148852 1 0.105562
0.229175 1 0.110567
0.32755 1 0.112016
0.461128 1 0.108171
0.595438 1 0.102998
0.731319 0.997513 0.0983139
0.852399 0.996414 0.0972152
0.962676 0.998077 0.0988785
1 0.999802 0.100572
0.0717632 0 0.095613
0.148989 0 0.0972457
0.238483 0 0.0960861
0.353521 0 0.0904555
0.491279 0 0.084062
0.621714 0 0.0788891
0.742657 0 0.0776226
0.853208 0 0.0795453
0.964736 0 0.0820783
0.0793011 0.111452 0.105379
0.156954 0.112886 0.107103
0.246494 0.1122 0.106279
0.36434 0.108232 0.101564
0.504494 0.104433 0.0970474
0.6383 0.10251 0.0947585
0.763653 0.105028 0.0977646
0.879789 0.111162 0.105058
0.998245 0.118502 0.113771
0.082536 0.226856 0.109377
0.162539 0.230686 0.114
0.255253 0.23328 0.117113
0.379873 0.233295 0.117128
0.525185 0.23386 0.117815
0.665232 0.236179 0.120607
0.795285 0.242405 0.12813
0.915114 0.251499 0.138964
1 0.260914 0.149905
0.0816052 0.350057 0.108232
0.164996 0.358267 0.117037
0.261143 0.36495 0.124102
0.390387 0.368032 0.127321
0.537331 0.370748 0.130159
0.679088 0.374395 0.133913
0.80914 0.381796 0.141421
0.928893 0.393027 0.152178
1 0.404471 0.163165
0.0874647 0.499657 0.11548
0.171923 0.510384 0.125582
0.269001 0.518242 0.132998
0.399847 0.521477 0.136049
0.54583 0.524422 0.138811
0.688273 0.528572 0.142733
0.818631 0.536858 0.150546
0.938064 0.547921 0.160983
1 0.558495 0.170962
0.0958419 0.644434 0.125826
0.180301 0.654658 0.135912
0.278462 0.66244 0.143618
0.411399 0.665721 0.146853
0.555978 0.668055 0.149172
0.697948 0.670939 0.152026
0.82652 0.677104 0.158114
0.943465 0.685267 0.166171
1 0.692409 0.173251
0.112642 0.776318 0.146563
0.196689 0.786023 0.156161
0.295628 0.792721 0.162768
0.429984 0.794293 0.164324
0.570947 0.794308 0.16434
0.710857 0.794354 0.164401
0.83621 0.797406 0.167407
0.949889 0.80238 0.172335
1 0.806394 0.176303
0.134035 0.897017 0.172992
0.216342 0.90457 0.180453
0.315251 0.908583 0.184405
0.44976 0.907195 0.183047
0.586664 0.904189 0.180072
0.724147 0.901244 0.177157
0.846586 0.901442 0.177371
0.957717 0.90396 0.179858
1 0.90605 0.181918
0.150317 1 0.193103
0.230396 1 0.197848
0.328725 1 0.199023
0.462242 1 0.194949
0.596338 1 0.189609
0.732113 0.998291 0.184802
0.853132 0.997116 0.183658
0.963378 0.998779 0.18529
1 1 0.18703
0.0717784 0 0.190524
0.149004 0 0.192157
0.238499 0 0.190997
0.353185 0 0.184985
0.491356 0 0.179019
0.621759 0 0.1738
0.742748 0 0.17258
0.853422 0 0.174624
0.965179 0 0.177386
0.0793317 0.111482 0.200305
0.157031 0.112963 0.202075
0.246677 0.112383 0.201373
0.364767 0.108598 0.196872
0.505257 0.105074 0.192691
0.639475 0.103456 0.190768
0.765209 0.106294 0.194141
0.881758 0.112749 0.201816
1 0.120378 0.210788
0.0832074 0.227543 0.205081
0.163485 0.231662 0.209964
0.256519 0.234562 0.213367
0.381811 0.234867 0.213733
0.527398 0.235721 0.21474
0.667826 0.238239 0.2177
0.798001 0.244587 0.225162
0.917891 0.253758 0.235981
1 0.263188 0.247288
0.0833448 0.352056 0.205249
0.166949 0.360525 0.21413
0.263386 0.367407 0.22118
0.393271 0.370581 0.224414
0.539925 0.373312 0.227176
0.681727 0.376867 0.230777
0.811841 0.384482 0.238407
0.931655 0.395789 0.249805
1 0.407233 0.261753
0.0896162 0.50248 0.212863
0.174044 0.513146 0.22266
0.271244 0.520912 0.229862
0.402655 0.524254 0.233005
0.548424 0.52723 0.235828
0.691035 0.53138 0.239811
0.821317 0.53959 0.247944
0.940612 0.550515 0.259129
1 0.560861 0.269886
0.0979782 0.647105 0.222919
0.182452 0.657343 0.232914
0.280812 0.66511 0.240711
0.41413 0.668299 0.243992
0.558358 0.670512 0.246311
0.700267 0.673198 0.249165
0.828565 0.679088 0.255482
0.945205 0.686946 0.263966
1 0.693797 0.271427
0.114702 0.778881 0.243671
0.198627 0.788449 0.253834
0.297612 0.794949 0.260838
0.432059 0.796262 0.262257
0.572595 0.795987 0.261952
0.712276 0.795743 0.261677
0.837324 0.798489 0.264668
0.950698 0.803174 0.26978
1 0.806928 0.273869
0.135592 0.89897 0.271748
0.217685 0.906233 0.279713
0.316503 0.909957 0.283818
0.450904 0.908293 0.281971
0.587472 0.904997 0.27837
0.724712 0.901778 0.27483
0.846937 0.901793 0.274846
0.957916 0.904158 0.277424
1 0.906142 0.279606
0.151186 1 0.293217
0.231052 1 0.298253
0.329244 1 0.299275
0.462608 1 0.294484
0.596551 1 0.288334
0.732219 0.998383 0.282841
0.853178 0.997162 0.281498
0.963424 0.99881 0.283314
1 1 0.285313
0.0708171 0 0.307286
0.148043 0 0.309148
0.237568 0 0.30782
0.352163 0 0.301198
0.490166 0 0.294362
0.620508 0 0.288502
0.741588 0 0.287205
0.85243 0 0.289677
0.964431 0 0.293034
0.0783703 0.110491 0.318395
0.156146 0.112032 0.320485
0.245914 0.111589 0.319875
0.36408 0.108003 0.315038
0.504875 0.104753 0.310674
0.639475 0.103456 0.308919
0.765606 0.106615 0.313176
0.882551 0.113405 0.322316
1 0.121294 0.332998
0.0829633 0.227298 0.324834
0.163531 0.231708 0.330861
0.25687 0.234897 0.335241
0.38262 0.235538 0.33611
0.528481 0.236637 0.337621
0.669184 0.239322 0.341314
0.799481 0.245777 0.350149
0.919387 0.254978 0.36257
1 0.264378 0.374853
0.0841688 0.353002 0.326513
0.167941 0.3617 0.337072
0.264607 0.368734 0.34548
0.394858 0.371969 0.34931
0.541299 0.37467 0.352483
0.68307 0.378134 0.356512
0.813291 0.385946 0.36524
0.93315 0.397284 0.377584
1 0.408713 0.390005
0.0907759 0.50399 0.335805
0.175128 0.514595 0.347189
0.272419 0.522332 0.355489
0.404166 0.525765 0.359182
0.549844 0.528771 0.362402
0.6925 0.532876 0.366812
0.822675 0.540978 0.375494
0.941817 0.551751 0.387015
1 0.561883 0.397833
0.0991226 0.648539 0.347555
0.183612 0.658808 0.359106
0.282048 0.666514 0.367788
0.415503 0.669612 0.371267
0.559487 0.671672 0.373571
0.701244 0.674128 0.376349
0.829252 0.679759 0.38265
0.945571 0.687312 0.391089
1 0.693858 0.398398
0.115724 0.780179 0.370901
0.199527 0.789593 0.38146
0.298436 0.795865 0.388479
0.432731 0.796902 0.389639
0.572946 0.796338 0.388998
0.712322 0.795789 0.388388
0.837079 0.798245 0.391135
0.950164 0.802655 0.396048
1 0.806149 0.399954
0.136095 0.899596 0.399359
0.21796 0.906584 0.407111
0.316564 0.910018 0.410864
0.450675 0.908064 0.408728
0.586969 0.904494 0.404807
0.723918 0.90103 0.400961
0.84596 0.900847 0.400763
0.956802 0.903075 0.403235
1 0.904967 0.405341
0.151003 1 0.41976
0.230671 1 0.424353
0.328573 1 0.425086
0.461646 1 0.420249
0.595468 1 0.414084
0.731014 0.997223 0.408576
0.851942 0.995956 0.407187
0.962203 0.99762 0.409003
1 0.999496 0.411048
0.0695201 0 0.437995
0.146746 0 0.43975
0.236316 0 0.438499
0.350698 0 0.432303
0.488533 0 0.425666
0.61886 0 0.419989
0.740032 0 0.41883
0.851057 0 0.421424
0.963348 0 0.424979
0.0771038 0.109163 0.448463
0.15494 0.110796 0.450523
0.244892 0.110506 0.450141
0.363073 0.107134 0.445914
0.504204 0.104189 0.442191
0.63917 0.103212 0.44094
0.765698 0.106691 0.445335
0.88304 0.113787 0.454276
1 0.12192 0.464424
0.0824903 0.22681 0.455497
0.163333 0.23151 0.461433
0.256977 0.235004 0.465827
0.383124 0.235935 0.466987
0.529229 0.237263 0.46865
0.670161 0.240101 0.47216
0.800549 0.246632 0.48014
0.920424 0.255848 0.490974
1 0.265156 0.501289
0.0847334 0.353643 0.458396
0.168658 0.362539 0.468269
0.265492 0.369696 0.475959
0.395972 0.372976 0.479393
0.542245 0.375616 0.482139
0.684031 0.379034 0.485634
0.814328 0.386999 0.493263
0.934218 0.398352 0.5037
1 0.409766 0.513726
0.0915999 0.505058 0.467247
0.175875 0.515557 0.477394
0.273274 0.523339 0.484779
0.405249 0.526848 0.48806
0.550851 0.529854 0.490852
0.693523 0.533913 0.494591
0.82359 0.541909 0.501808
0.94255 0.552499 0.51107
1 0.562402 0.519402
0.0999619 0.649592 0.477836
0.184436 0.659831 0.487999
0.282918 0.667491 0.495399
0.416419 0.670466 0.498238
0.560159 0.672358 0.500023
0.701717 0.674586 0.502113
0.829419 0.679911 0.507042
0.945434 0.68716 0.513558
1 0.693431 0.519036
0.116396 0.781018 0.497902
0.200061 0.790265 0.506539
0.298817 0.796307 0.512001
0.432883 0.797055 0.512673
0.572793 0.796185 0.511894
0.711879 0.795346 0.511147
0.836316 0.797513 0.513085
0.949111 0.801633 0.516701
1 0.804913 0.519554
0.136187 0.899718 0.520272
0.217838 0.906432 0.525994
0.316167 0.90959 0.528649
0.449912 0.907347 0.526772
0.585962 0.903487 0.523507
0.722667 0.899794 0.520348
0.844511 0.899443 0.520043
0.95523 0.901549 0.521843
1 0.903365 0.5234
0.150423 1 0.535195
0.229892 1 0.538476
0.327459 1 0.538842
0.460227 1 0.535027
0.593942 1 0.530205
0.729381 0.995636 0.525917
0.850278 0.994354 0.524819
0.960571 0.996033 0.526253
1 0.997986 0.527886
0.0682078 0 0.548318
0.145434 0 0.549645
0.23505 0 0.548699
0.349218 0 0.544076
0.486885 0 0.53901
0.617212 0 0.534707
0.738506 0 0.533928
0.84976 0 0.53608
0.962356 0 0.53901
0.0762188 0.107866 0.556298
0.15378 0.10959 0.557961
0.243931 0.109468 0.557839
0.362158 0.106355 0.554849
0.503624 0.103716 0.552331
0.638956 0.103044 0.55169
0.765896 0.106844 0.555337
0.883619 0.11426 0.562417
1 0.122606 0.570443
0.0820935 0.226398 0.562509
0.163226 0.231403 0.567361
0.257176 0.235203 0.571084
0.383703 0.236408 0.572274
0.530037 0.237949 0.573785
0.671168 0.240909 0.576715
0.801617 0.247486 0.583291
0.921447 0.256687 0.592523
1 0.265934 0.601709
0.0853285 0.354345 0.565744
0.169406 0.363409 0.573571
0.266392 0.370672 0.579828
0.397055 0.373953 0.58265
0.543145 0.376501 0.584863
0.685008 0.379965 0.587839
0.815381 0.388067 0.594568
0.935286 0.39942 0.604059
1 0.410773 0.613581
0.0923934 0.506111 0.572824
0.176593 0.516487 0.580896
0.274144 0.524376 0.587137
0.406348 0.527932 0.590005
0.551843 0.530922 0.592432
0.694499 0.53492 0.595682
0.82446 0.542779 0.602136
0.943236 0.553185 0.610727
1 0.562829 0.618708
0.100786 0.650629 0.581384
0.185245 0.660853 0.589929
0.283757 0.668437 0.596414
0.417273 0.67129 0.598856
0.560769 0.672984 0.60032
0.702098 0.674968 0.602029
0.829496 0.679988 0.606363
0.945205 0.686946 0.612375
1 0.692897 0.617533
0.117021 0.781796 0.59852
0.200549 0.79086 0.606348
0.299138 0.796674 0.611368
0.432959 0.797116 0.611749
0.572564 0.795956 0.610742
0.71133 0.794827 0.609781
0.835477 0.796704 0.611399
0.947997 0.800549 0.614725
1 0.803616 0.617365
0.136217 0.899748 0.619242
0.217639 0.906188 0.624796
0.315694 0.909072 0.627268
0.449088 0.906538 0.625086
0.584894 0.902419 0.62153
0.72134 0.898512 0.618173
0.84303 0.897993 0.617731
0.953628 0.899992 0.619455
1 0.901762 0.620981
0.149783 1 0.633844
0.229038 1 0.637064
0.326299 1 0.637293
0.458747 1 0.633127
0.592386 0.999222 0.628
0.727733 0.994034 0.623529
0.848615 0.992737 0.6224
0.958953 0.994461 0.623896
1 0.996902 0.626001
0.0673533 0 0.64094
0.144564 0 0.642374
0.233967 0 0.641093
0.348241 0 0.636408
0.485801 0 0.630976
0.616159 0 0.62649
0.737621 0 0.625788
0.849088 0 0.628244
0.962036 0 0.631647
0.0754253 0.107027 0.649638
0.153094 0.108888 0.65156
0.243442 0.108949 0.651621
0.361868 0.106111 0.648676
0.5037 0.103792 0.646265
0.639429 0.103426 0.645899
0.766766 0.107561 0.650187
0.88484 0.115251 0.658137
1 0.123781 0.666987
0.0822309 0.226535 0.657359
0.163638 0.231815 0.662898
0.257908 0.235935 0.667216
0.384909 0.2374 0.668757
0.531426 0.239109 0.670558
0.67277 0.242176 0.673777
0.80325 0.248798 0.68069
0.923018 0.257984 0.690074
1 0.267216 0.699275
0.0864271 0.355612 0.661875
0.170626 0.364828 0.670405
0.267781 0.372183 0.677073
0.398703 0.375448 0.680018
0.544533 0.377905 0.682185
0.68658 0.381476 0.685344
0.817014 0.389685 0.69221
0.936904 0.401038 0.701701
1 0.412329 0.711131
0.0935988 0.507698 0.669596
0.177752 0.518029 0.678096
0.275502 0.525994 0.684642
0.408011 0.52958 0.687587
0.553353 0.53257 0.690028
0.696025 0.536477 0.693248
0.825833 0.544182 0.69958
0.944396 0.554376 0.707973
1 0.563729 0.715694
0.102052 0.652201 0.678706
0.186481 0.662394 0.687495
0.285039 0.669886 0.69395
0.418647 0.672587 0.696269
0.561837 0.674083 0.697551
0.702968 0.675807 0.699046
0.830045 0.680522 0.703105
0.945449 0.687175 0.708843
1 0.692836 0.71371
0.118044 0.783062 0.695918
0.201404 0.791943 0.703548
0.299855 0.797482 0.708324
0.433494 0.797635 0.708461
0.572793 0.796185 0.70721
0.711269 0.794766 0.705989
0.835126 0.796353 0.707347
0.947356 0.799939 0.710445
1 0.802808 0.712917
0.136614 0.900236 0.715908
0.217823 0.906416 0.721218
0.315648 0.90901 0.723461
0.448722 0.906203 0.721035
0.584298 0.901808 0.71725
0.720516 0.897719 0.713726
0.842054 0.897063 0.713161
0.95256 0.898955 0.714794
1 0.900694 0.716289
0.149508 1 0.729778
0.22858 1 0.732815
0.325582 1 0.73286
0.457786 1 0.728557
0.591363 0.998215 0.723369
0.726635 0.992966 0.718837
0.847517 0.991669 0.717723
0.9579 0.993454 0.719265
1 0.995895 0.72137
0.0672923 0 0.724819
0.144518 0 0.726253
0.233997 0 0.725078
0.34818 0 0.720317
0.48574 0 0.71487
0.61619 0 0.71046
0.737804 0 0.709911
0.849561 0 0.712581
0.962875 0 0.716289
0.0754711 0.107073 0.733623
0.153277 0.109071 0.735698
0.243809 0.109331 0.735973
0.362661 0.106783 0.733333
0.504891 0.104768 0.731258
0.641062 0.104738 0.731212
0.768795 0.109194 0.735821
0.887175 0.117128 0.744045
1 0.125841 0.753079
0.0832532 0.227588 0.742412
0.16495 0.233158 0.748257
0.259586 0.237568 0.75288
0.387228 0.239277 0.754681
0.533837 0.241154 0.756649
0.675425 0.244297 0.75996
0.80589 0.25095 0.766857
0.925566 0.260105 0.776165
1 0.269383 0.785397
0.088365 0.357855 0.747921
0.172671 0.367239 0.756558
0.270054 0.374655 0.763256
0.401404 0.377905 0.766155
0.546914 0.380301 0.768261
0.689219 0.384085 0.771496
0.819669 0.392355 0.778393
0.939544 0.403693 0.787869
1 0.414893 0.797223
0.0955825 0.510292 0.755688
0.179751 0.520638 0.764202
0.277775 0.528695 0.770809
0.410742 0.532296 0.77377
0.555825 0.535241 0.776181
0.698558 0.53904 0.779309
0.828199 0.546593 0.785519
0.946548 0.556542 0.793713
1 0.565606 0.80119
0.104128 0.65478 0.764874
0.18851 0.664927 0.773617
0.287175 0.672312 0.77998
0.421027 0.674861 0.782177
0.563836 0.676127 0.783276
0.704768 0.677562 0.784512
0.83154 0.681987 0.788312
0.946639 0.688334 0.79379
1 0.693706 0.798413
0.119829 0.785306 0.781781
0.203021 0.793957 0.789242
0.301411 0.799207 0.793774
0.435004 0.799084 0.793667
0.573922 0.79733 0.792157
0.712154 0.795621 0.790677
0.835706 0.796918 0.791806
0.947707 0.800259 0.79469
1 0.80296 0.797009
0.137743 0.901656 0.801068
0.218738 0.907561 0.806165
0.316426 0.90988 0.808148
0.449332 0.906783 0.805493
0.584649 0.902159 0.801511
0.720684 0.897887 0.797818
0.8421 0.897093 0.797147
0.952514 0.898909 0.798718
1 0.900618 0.800183
0.149966 1 0.814237
0.22887 1 0.81706
0.32575 1 0.816968
0.457847 1 0.812558
0.591333 0.998169 0.807279
0.726558 0.992889 0.802731
0.847471 0.991623 0.801633
0.957931 0.993484 0.803235
1 0.995911 0.805325
0.0677653 0 0.801038
0.144991 0 0.802472
0.234531 0 0.801343
0.34876 0 0.796536
0.486381 0 0.791104
0.616938 0 0.786786
0.738766 0 0.786389
0.850797 0 0.789319
0.964508 0 0.793347
0.0760815 0.107713 0.809979
0.15404 0.109865 0.812207
0.24477 0.110369 0.812726
0.364218 0.108125 0.810407
0.506859 0.106416 0.808637
0.643488 0.106706 0.808942
0.771618 0.111467 0.81387
0.890272 0.119631 0.822339
1 0.128496 0.83151
0.0849012 0.229282 0.819883
0.166873 0.235142 0.826032
0.261936 0.239826 0.830961
0.390387 0.241764 0.83299
0.536934 0.243778 0.835096
0.678782 0.246998 0.838453
0.809232 0.253666 0.845335
0.928771 0.262806 0.854536
1 0.27216 0.863844
0.090898 0.360784 0.826337
0.175265 0.370321 0.83505
0.272923 0.377813 0.841764
0.404761 0.381003 0.844572
0.549981 0.38349 0.846693
0.692546 0.387457 0.849973
0.823041 0.395712 0.856886
0.94287 0.407004 0.866331
1 0.418128 0.875608
0.098085 0.513558 0.834073
0.182315 0.52401 0.842649
0.280644 0.532113 0.849302
0.414191 0.535714 0.852262
0.558938 0.538598 0.854627
0.701732 0.542275 0.857649
0.831189 0.549645 0.863706
0.94931 0.55935 0.871717
1 0.568093 0.878935
0.106722 0.65803 0.843366
0.191058 0.668116 0.852049
0.289891 0.67538 0.85832
0.424048 0.677729 0.860349
0.566415 0.678767 0.861234
0.707179 0.679896 0.862211
0.833646 0.684031 0.865766
0.94844 0.690089 0.870985
1 0.695155 0.875364
0.122103 0.788144 0.859922
0.205112 0.796567 0.867185
0.303487 0.801541 0.871473
0.437125 0.801114 0.871107
0.575631 0.799069 0.869337
0.713649 0.79707 0.867628
0.836912 0.798093 0.868498
0.948684 0.801221 0.871199
1 0.803754 0.873381
0.139345 0.90367 0.878492
0.220127 0.9093 0.883345
0.317754 0.91133 0.8851
0.450553 0.907958 0.8822
0.585611 0.903136 0.878035
0.721523 0.898695 0.874205
0.842802 0.89778 0.873426
0.95317 0.899535 0.874937
1 0.901228 0.876402
0.150912 1 0.890929
0.229633 1 0.893599
0.326497 1 0.893355
0.458564 1 0.888853
0.591959 0.99881 0.883513
0.727184 0.9935 0.87895
0.848127 0.992264 0.877882
0.958679 0.994202 0.879561
1 0.996597 0.881605
