Camo Studio.app/Contents/Resources/CamoContent_CamoContent.bundle/Contents/Resources/TRITANOMOLY.cube
TITLE "Generated by Resolve"
LUT_3D_SIZE 5
0 0 0
0.250004 0.0156863 0
0.496086 0.0294194 0
0.746075 0.0441138 0
0.996078 0.0588235 0
0.0656901 0.238239 0.160784
0.261036 0.238239 0.157839
0.503914 0.238239 0.157839
0.753918 0.238239 0.15613
1 0.242161 0.153918
0.133333 0.476478 0.3196
0.292165 0.476478 0.3196
0.520592 0.476478 0.3196
0.763241 0.476478 0.317647
1 0.484321 0.321569
0.200977 0.714702 0.478431
0.339208 0.714702 0.478431
0.548043 0.714702 0.478431
0.781369 0.714702 0.477455
1 0.726467 0.481376
0.282353 0.952941 0.635294
0.404898 0.952941 0.635294
0.592157 0.952941 0.635294
0.80882 0.952941 0.635294
1 0.972549 0.623529
0 0.0539254 0.146075
0.239216 0.0617685 0.157839
0.496086 0.0617685 0.153918
0.746075 0.0649577 0.146075
0.997055 0.0656901 0.133333
0.024506 0.249271 0.261769
0.250736 0.249271 0.261769
0.500008 0.249271 0.259678
0.749996 0.249271 0.257847
1 0.250004 0.253925
0.122057 0.481865 0.415686
0.285054 0.481865 0.415686
0.516915 0.481865 0.415686
0.761761 0.481865 0.412863
1 0.488228 0.415686
0.193378 0.718624 0.573526
0.33431 0.718624 0.573526
0.544488 0.718624 0.573526
0.778439 0.718624 0.573526
1 0.729412 0.57377
0.286275 0.952941 0.727459
0.411765 0.952941 0.727459
0.59559 0.956374 0.727459
0.80882 0.956863 0.727459
1 0.972549 0.715694
0 0.107836 0.292165
0.198535 0.123537 0.315694
0.480385 0.123537 0.315694
0.738231 0.12549 0.311757
0.992157 0.127459 0.307836
0 0.270588 0.373526
0.214343 0.277943 0.383825
0.485786 0.278431 0.383825
0.741787 0.278431 0.381857
0.992157 0.2804 0.379904
0.0568704 0.497063 0.523522
0.257847 0.497063 0.522545
0.502937 0.497063 0.521569
0.751965 0.497063 0.519615
1 0.497063 0.519615
0.164706 0.727947 0.673533
0.312871 0.727947 0.673533
0.532113 0.727947 0.673533
0.770459 0.727947 0.673533
1 0.73431 0.673533
0.307836 0.956863 0.819608
0.428428 0.956863 0.819608
0.603922 0.956863 0.819608
0.811765 0.960784 0.819608
1 0.976471 0.811765
0 0.161761 0.441184
0.0921645 0.180392 0.463722
0.450004 0.18529 0.473533
0.719356 0.186282 0.473533
0.979416 0.189212 0.469612
0 0.30367 0.498772
0.0921645 0.317891 0.516854
0.455879 0.322545 0.522545
0.723095 0.322545 0.521263
0.980392 0.322545 0.518624
0 0.516182 0.631373
0.180514 0.522057 0.639704
0.475731 0.522057 0.639704
0.734676 0.522057 0.639704
0.988235 0.522545 0.637751
0.0855421 0.745342 0.782361
0.267216 0.745342 0.782361
0.507836 0.745342 0.782361
0.75465 0.745342 0.781369
1 0.746075 0.781369
0.342153 0.960784 0.907835
0.45687 0.960784 0.907835
0.624018 0.964706 0.907835
0.816663 0.968627 0.907835
1 0.98529 0.907835
0 0.215686 0.588235
0.0921645 0.227451 0.602945
0.396078 0.247059 0.631373
0.692164 0.248035 0.631373
0.960784 0.25098 0.631373
0 0.346075 0.630396
0.0921645 0.356863 0.644358
0.403433 0.373526 0.66862
0.696071 0.373526 0.66569
0.960784 0.373526 0.66569
0 0.541176 0.747051
0.0921645 0.54902 0.757839
0.429404 0.556863 0.768627
0.709316 0.556863 0.766659
0.972549 0.556863 0.766659
0 0.764706 0.893141
0.126711 0.768627 0.899992
0.467155 0.768627 0.899992
0.730388 0.768627 0.899992
0.98529 0.768627 0.897063
0.388235 0.968627 1
0.500008 0.968627 1
0.654902 0.972549 1
0.835294 0.980392 1
1 1 1
