Camo Studio.app/Contents/Resources/CamoContent_CamoContent.bundle/Contents/Resources/TRITANOMOLY.cube
TITLE "Generated by Resolve"
LUT_3D_SIZE 9
0 0 0
0.123522 0.00784314 0
0.250004 0.0156863 0
0.374502 0.0220645 0
0.496086 0.0294194 0
0.621576 0.036759 0
0.746075 0.0441138 0
0.872541 0.0509804 0
0.996078 0.0588235 0
0.0343175 0.119615 0.0774548
0.127886 0.119615 0.0774548
0.253437 0.119615 0.0774548
0.374502 0.119615 0.0769665
0.500008 0.119615 0.0752422
0.625498 0.119615 0.0730449
0.749996 0.119615 0.0691234
0.876478 0.119615 0.0651408
1 0.120104 0.0607767
0.0656901 0.238239 0.160784
0.146075 0.238239 0.160784
0.261036 0.238239 0.157839
0.381735 0.238239 0.157839
0.503914 0.238239 0.157839
0.629404 0.238239 0.157839
0.753918 0.238239 0.15613
0.880385 0.238239 0.153918
1 0.242161 0.153918
0.100496 0.358831 0.238727
0.169604 0.358831 0.238727
0.274144 0.358831 0.238727
0.390188 0.358831 0.238727
0.511772 0.358831 0.238727
0.633326 0.358831 0.238727
0.757839 0.358831 0.236271
0.882841 0.358831 0.234806
1 0.362737 0.238727
0.133333 0.476478 0.3196
0.196567 0.476478 0.3196
0.292165 0.476478 0.3196
0.402701 0.476478 0.3196
0.520592 0.476478 0.3196
0.641169 0.476478 0.3196
0.763241 0.476478 0.317647
0.888243 0.476478 0.315694
1 0.484321 0.321569
0.166171 0.598047 0.400488
0.226169 0.598047 0.400488
0.31519 0.598047 0.400488
0.420035 0.598047 0.399573
0.534066 0.598047 0.399023
0.652018 0.598047 0.399023
0.771084 0.598047 0.399023
0.895766 0.598047 0.396567
1 0.605875 0.402945
0.200977 0.714702 0.478431
0.255756 0.714702 0.478431
0.339208 0.714702 0.478431
0.438239 0.714702 0.478431
0.548043 0.714702 0.478431
0.6636 0.714702 0.477455
0.781369 0.714702 0.477455
0.903929 0.714702 0.477455
1 0.726467 0.481376
0.235782 0.837247 0.561761
0.289708 0.837247 0.561761
0.366171 0.837247 0.561761
0.458824 0.837247 0.561761
0.565194 0.837247 0.558328
0.676966 0.837247 0.558328
0.7935 0.837247 0.558328
0.912261 0.837247 0.558328
1 0.849027 0.557839
0.282353 0.952941 0.635294
0.336278 0.952941 0.635294
0.404898 0.952941 0.635294
0.493629 0.952941 0.635294
0.592157 0.952941 0.635294
0.698528 0.952941 0.635294
0.80882 0.952941 0.635294
0.923537 0.956863 0.635294
1 0.972549 0.623529
0 0.0269627 0.0730449
0.119173 0.0308843 0.0774548
0.246571 0.0308843 0.0769665
0.374502 0.0308843 0.0730449
0.500008 0.0311284 0.0649577
0.625498 0.0352941 0.0460822
0.746075 0.0431373 0.0460822
0.872541 0.0509804 0.0460822
0.996078 0.0588235 0.0460822
0.0143435 0.123095 0.127886
0.123949 0.12311 0.127871
0.250004 0.123415 0.127459
0.374502 0.123522 0.127459
0.500008 0.123522 0.126955
0.625498 0.123522 0.123079
0.749996 0.123964 0.119478
0.876478 0.123949 0.11519
1 0.124025 0.111269
0.060914 0.241794 0.207843
0.142214 0.241794 0.207843
0.257939 0.241794 0.207843
0.379767 0.241794 0.206989
0.503914 0.242161 0.20441
0.629404 0.242161 0.20415
0.753704 0.242161 0.203708
0.879408 0.242161 0.200366
1 0.245716 0.203067
0.0965744 0.358831 0.284993
0.165682 0.358831 0.285008
0.272419 0.358831 0.284993
0.389395 0.358831 0.285008
0.511116 0.358831 0.284993
0.633326 0.358831 0.28481
0.757839 0.358831 0.282658
0.880385 0.358831 0.28249
1 0.362737 0.284993
0.131365 0.478431 0.365682
0.193133 0.478431 0.365682
0.291722 0.478431 0.365682
0.402701 0.478431 0.365682
0.519738 0.478431 0.365682
0.641169 0.478431 0.363973
0.761761 0.478431 0.363973
0.888243 0.478431 0.362249
1 0.484321 0.366171
0.166171 0.598047 0.445289
0.224018 0.598047 0.445274
0.313771 0.598047 0.445289
0.418204 0.598047 0.445274
0.532113 0.598047 0.445289
0.65069 0.598047 0.445274
0.770718 0.598047 0.443137
0.893629 0.598047 0.442969
1 0.605875 0.44921
0.198032 0.717647 0.524025
0.254902 0.717647 0.524025
0.338231 0.717647 0.524025
0.437629 0.717647 0.524025
0.547555 0.717647 0.524025
0.6636 0.717647 0.524025
0.781369 0.717647 0.523659
0.903548 0.717647 0.523659
1 0.726467 0.527443
0.231861 0.837247 0.604837
0.285786 0.837247 0.604852
0.365301 0.837247 0.604837
0.458824 0.837247 0.604852
0.564981 0.837247 0.604837
0.676799 0.837247 0.604852
0.793133 0.837247 0.604837
0.9122 0.837247 0.60441
1 0.849027 0.603983
0.282353 0.952941 0.681376
0.336278 0.952941 0.681376
0.40882 0.952941 0.681376
0.493629 0.952941 0.681376
0.592157 0.952941 0.681376
0.698528 0.952941 0.681376
0.80882 0.956863 0.681376
0.923537 0.956863 0.681376
1 0.972549 0.666178
0 0.0539254 0.146075
0.0962081 0.0617685 0.157839
0.239216 0.0617685 0.157839
0.367651 0.0617685 0.156863
0.496086 0.0617685 0.153918
0.621576 0.0647135 0.149996
0.746075 0.0649577 0.146075
0.872541 0.0656901 0.141176
0.997055 0.0656901 0.133333
0 0.134432 0.18529
0.104479 0.13872 0.192157
0.242802 0.13872 0.192157
0.370596 0.13872 0.189578
0.496086 0.13872 0.188235
0.621576 0.13872 0.188235
0.74696 0.13872 0.184314
0.876097 0.13872 0.18114
1 0.13959 0.177325
0.024506 0.249271 0.261769
0.127459 0.249271 0.261769
0.250736 0.249271 0.261769
0.37525 0.249271 0.260792
0.500008 0.249271 0.259678
0.625498 0.249271 0.257847
0.749996 0.249271 0.257847
0.876478 0.249271 0.256855
1 0.250004 0.253925
0.0818647 0.362737 0.336278
0.15491 0.362737 0.336278
0.2663 0.362737 0.336278
0.385168 0.362737 0.336278
0.507836 0.362737 0.336095
0.631174 0.363165 0.334798
0.753918 0.363851 0.334798
0.880385 0.363851 0.332357
1 0.366674 0.334798
0.122057 0.481865 0.415686
0.185534 0.481865 0.415686
0.285054 0.481865 0.415686
0.39823 0.481865 0.415686
0.516915 0.481865 0.415686
0.638666 0.481865 0.413718
0.761761 0.481865 0.412863
0.884749 0.481865 0.411765
1 0.488228 0.415686
0.158328 0.601587 0.495094
0.217029 0.601587 0.495094
0.307973 0.601587 0.495094
0.414511 0.601587 0.495094
0.530144 0.601587 0.492653
0.649027 0.601587 0.492653
0.769604 0.601587 0.492653
0.892149 0.601587 0.492653
1 0.60943 0.496574
0.193378 0.718624 0.573526
0.250706 0.718624 0.573526
0.33431 0.718624 0.573526
0.434592 0.718624 0.573526
0.544488 0.718624 0.573526
0.661402 0.718624 0.573526
0.778439 0.718624 0.573526
0.900862 0.718624 0.571237
1 0.729412 0.57377
0.227939 0.839826 0.653925
0.281971 0.839826 0.653925
0.361517 0.839826 0.653925
0.455436 0.839826 0.653925
0.562997 0.839826 0.653925
0.675502 0.839826 0.653925
0.792279 0.839826 0.653925
0.911772 0.839826 0.651347
1 0.852934 0.650492
0.286275 0.952941 0.727459
0.3402 0.952941 0.727459
0.411765 0.952941 0.727459
0.497551 0.952941 0.727459
0.59559 0.956374 0.727459
0.700008 0.956863 0.727459
0.80882 0.956863 0.727459
0.923033 0.956863 0.727459
1 0.972549 0.715694
0 0.0808881 0.220584
0.0460822 0.0887312 0.231861
0.225498 0.0926528 0.236271
0.358831 0.0926528 0.236271
0.488975 0.0926528 0.234806
0.617655 0.0926528 0.232349
0.742153 0.0965744 0.230884
0.872541 0.0965744 0.226963
0.996078 0.0965744 0.223041
0 0.151476 0.247364
0.0460822 0.157565 0.258335
0.227497 0.159625 0.259312
0.361639 0.159609 0.259113
0.490776 0.161761 0.259129
0.617655 0.161761 0.257557
0.743633 0.161761 0.255207
0.872541 0.161761 0.253635
0.996078 0.161761 0.25098
0 0.258457 0.315694
0.087068 0.260655 0.3196
0.237629 0.261128 0.3196
0.366674 0.26128 0.3196
0.49546 0.26128 0.3196
0.621576 0.26128 0.318914
0.746075 0.26128 0.316426
0.872541 0.262379 0.315694
0.996078 0.262379 0.315694
0.0422217 0.371511 0.391119
0.131685 0.371496 0.390188
0.254154 0.371511 0.390188
0.377523 0.371496 0.390188
0.500923 0.371511 0.390188
0.626398 0.371496 0.390188
0.749996 0.371511 0.389273
0.876478 0.371496 0.388525
1 0.373587 0.387198
0.102693 0.488228 0.466423
0.16994 0.488228 0.466423
0.275853 0.488228 0.466423
0.390936 0.488228 0.46569
0.511772 0.488228 0.46569
0.634073 0.488228 0.46569
0.757839 0.488228 0.46569
0.882994 0.488228 0.46569
1 0.492164 0.466423
0.144121 0.605875 0.545098
0.205692 0.605875 0.545098
0.299504 0.605875 0.545098
0.407706 0.605875 0.545098
0.524544 0.605875 0.543572
0.645106 0.605875 0.543587
0.765682 0.605875 0.543572
0.888777 0.605875 0.542641
1 0.611337 0.545647
0.182345 0.722545 0.623529
0.239582 0.722545 0.623529
0.326467 0.722545 0.623529
0.427939 0.722545 0.623529
0.539895 0.722545 0.621698
0.657099 0.722545 0.621698
0.775341 0.722545 0.621073
0.898024 0.722545 0.621073
1 0.730388 0.623529
0.220096 0.841184 0.701778
0.274022 0.841184 0.701793
0.35433 0.841184 0.701778
0.450858 0.841184 0.701793
0.557992 0.841184 0.701778
0.671748 0.841184 0.701793
0.788678 0.841184 0.701778
0.908003 0.841184 0.700496
1 0.852934 0.700008
0.296574 0.956863 0.773526
0.348043 0.956863 0.773526
0.416663 0.956863 0.773526
0.501472 0.956863 0.773526
0.598535 0.956863 0.773526
0.702449 0.956863 0.773526
0.80882 0.956863 0.773526
0.9196 0.960784 0.773526
1 0.975006 0.761761
0 0.107836 0.292165
0.0460822 0.11519 0.301717
0.198535 0.123537 0.315694
0.345098 0.123537 0.315694
0.480385 0.123537 0.315694
0.609812 0.12549 0.313726
0.738231 0.12549 0.311757
0.864958 0.127459 0.311513
0.992157 0.127459 0.307836
0 0.173037 0.31519
0.0460822 0.177172 0.322545
0.201404 0.185046 0.334798
0.348043 0.18529 0.33431
0.481254 0.18529 0.330877
0.610544 0.18529 0.330877
0.738231 0.18529 0.330877
0.866667 0.187015 0.328466
0.992157 0.188724 0.326955
0 0.270588 0.373526
0.0460822 0.274449 0.377874
0.214343 0.277943 0.383825
0.353857 0.278431 0.383825
0.485786 0.278431 0.383825
0.613718 0.278431 0.381857
0.741787 0.278431 0.381857
0.868635 0.2804 0.380392
0.992157 0.2804 0.379904
0 0.381125 0.44535
0.0600137 0.383093 0.449119
0.234012 0.383093 0.449271
0.364431 0.383093 0.449271
0.492775 0.384314 0.448646
0.620829 0.384314 0.448035
0.746075 0.385046 0.448035
0.872541 0.385046 0.447303
0.996078 0.385046 0.446082
0.0568704 0.497063 0.523522
0.139467 0.497063 0.523522
0.257847 0.497063 0.522545
0.379416 0.497063 0.521569
0.502937 0.497063 0.521569
0.628428 0.497063 0.521202
0.751965 0.497063 0.519615
0.877455 0.497063 0.519615
1 0.497063 0.519615
0.11986 0.612985 0.597787
0.184131 0.612985 0.597787
0.285298 0.612985 0.597787
0.397086 0.612985 0.597787
0.516426 0.612985 0.596567
0.637995 0.612985 0.596567
0.76054 0.612985 0.596567
0.884321 0.612985 0.595834
1 0.616907 0.597787
0.164706 0.727947 0.673533
0.223835 0.727947 0.673533
0.312871 0.727947 0.673533
0.418326 0.727947 0.673533
0.532113 0.727947 0.673533
0.650919 0.727947 0.673533
0.770459 0.727947 0.673533
0.893141 0.727947 0.673533
1 0.73431 0.673533
0.206378 0.846815 0.753918
0.262043 0.846815 0.753918
0.344121 0.846815 0.753918
0.442161 0.846815 0.753918
0.550362 0.846815 0.753918
0.66511 0.846815 0.753918
0.783154 0.846815 0.751781
0.904143 0.846815 0.750484
1 0.85687 0.749996
0.307836 0.956863 0.819608
0.358083 0.956863 0.819608
0.428428 0.956863 0.819608
0.509316 0.956863 0.819608
0.603922 0.956863 0.819608
0.706371 0.960784 0.819608
0.811765 0.960784 0.819608
0.919112 0.964706 0.819608
1 0.976471 0.811765
0 0.134798 0.367651
0.0460822 0.13872 0.372854
0.132967 0.154406 0.39411
0.325063 0.154406 0.395102
0.467155 0.154406 0.395102
0.601038 0.154406 0.394186
0.730388 0.158328 0.392645
0.860792 0.158328 0.39118
0.984314 0.158328 0.388724
0 0.194797 0.382849
0.0460822 0.199832 0.390387
0.138842 0.212207 0.407706
0.328237 0.212253 0.408164
0.467887 0.212253 0.407843
0.601953 0.212253 0.407843
0.730388 0.214405 0.406561
0.860792 0.215686 0.406378
0.98677 0.215686 0.403922
0 0.286275 0.435294
0.0460822 0.290196 0.439216
0.166659 0.298405 0.451957
0.334279 0.299504 0.451957
0.472358 0.299504 0.451957
0.604822 0.299504 0.451957
0.734035 0.299504 0.449516
0.862699 0.299504 0.448035
0.988235 0.299504 0.448035
0 0.392584 0.501961
0.0460822 0.394659 0.505699
0.197894 0.398596 0.509804
0.346166 0.398581 0.509804
0.48011 0.398596 0.509804
0.609812 0.398932 0.509804
0.738231 0.399512 0.509804
0.866224 0.399512 0.509804
0.992157 0.400427 0.509804
0 0.505882 0.577447
0.0514382 0.507836 0.579751
0.230213 0.508583 0.581369
0.362768 0.508583 0.580636
0.491417 0.508583 0.580636
0.618875 0.508583 0.578683
0.745342 0.508583 0.577447
0.872541 0.508583 0.577447
0.996078 0.508583 0.577447
0.0711376 0.621576 0.652949
0.147555 0.621576 0.652949
0.261769 0.621576 0.652949
0.382345 0.621576 0.652949
0.504845 0.621576 0.652949
0.629404 0.621576 0.652949
0.753918 0.621576 0.652705
0.879484 0.621576 0.652033
1 0.622492 0.652018
0.137743 0.735424 0.727459
0.199023 0.735424 0.727459
0.293996 0.735424 0.727459
0.403861 0.735424 0.727459
0.521508 0.735424 0.727459
0.642161 0.735424 0.727459
0.764126 0.735424 0.727459
0.888243 0.735424 0.727459
1 0.741176 0.727459
0.185107 0.852934 0.80441
0.241642 0.852934 0.80441
0.328435 0.852934 0.80441
0.428977 0.852934 0.80441
0.54078 0.852934 0.80441
0.657282 0.852934 0.804211
0.777127 0.852934 0.804227
0.89984 0.852934 0.804211
1 0.860792 0.802457
0.323033 0.960784 0.86421
0.373037 0.960784 0.86421
0.440192 0.960784 0.86421
0.52108 0.960784 0.86421
0.611765 0.960784 0.86421
0.710292 0.961334 0.86421
0.811765 0.964706 0.86421
0.91519 0.968627 0.86421
1 0.980392 0.860288
0 0.161761 0.441184
0.0460822 0.165316 0.445594
0.0921645 0.180392 0.463722
0.297185 0.18529 0.473533
0.450004 0.18529 0.473533
0.587381 0.186282 0.473533
0.719356 0.186282 0.473533
0.852079 0.189212 0.470588
0.979416 0.189212 0.469612
0 0.21912 0.453437
0.0460822 0.222614 0.457679
0.0921645 0.234958 0.475975
0.299107 0.24181 0.48481
0.450431 0.242954 0.48481
0.589212 0.243137 0.48481
0.721569 0.243137 0.48481
0.852827 0.243137 0.482231
0.979416 0.243137 0.48101
0 0.30367 0.498772
0.0460822 0.306859 0.501961
0.0921645 0.317891 0.516854
0.307591 0.322545 0.522545
0.455879 0.322545 0.522545
0.592676 0.322545 0.522271
0.723095 0.322545 0.521263
0.855146 0.322545 0.518624
0.980392 0.322545 0.518624
0 0.406256 0.559808
0.0460822 0.407965 0.563592
0.108705 0.41593 0.574762
0.320714 0.416175 0.57586
0.464027 0.416175 0.57586
0.597803 0.416175 0.575494
0.728588 0.416175 0.575494
0.858701 0.416175 0.57351
0.984314 0.416175 0.572549
0 0.516182 0.631373
0.0460822 0.518135 0.634928
0.180514 0.522057 0.639704
0.339284 0.522057 0.639704
0.475731 0.522057 0.639704
0.607355 0.522057 0.639704
0.734676 0.522057 0.639704
0.864271 0.522545 0.639216
0.988235 0.522545 0.637751
0 0.63003 0.707225
0.0460822 0.632227 0.710552
0.227543 0.632227 0.710781
0.360845 0.632227 0.710781
0.491356 0.632227 0.710781
0.618753 0.632227 0.710781
0.743725 0.632227 0.708949
0.871931 0.632227 0.708949
0.996078 0.632227 0.708949
0.0855421 0.745342 0.782361
0.158572 0.745342 0.782361
0.267216 0.745342 0.782361
0.386282 0.745342 0.782361
0.507836 0.745342 0.782361
0.632593 0.745342 0.782101
0.75465 0.745342 0.781369
0.880385 0.745342 0.781369
1 0.746075 0.781369
0.15552 0.860792 0.858335
0.214435 0.860792 0.858335
0.305394 0.860792 0.858335
0.41323 0.860792 0.858335
0.527825 0.860792 0.858335
0.648157 0.860792 0.858335
0.76875 0.860792 0.857969
0.892042 0.860792 0.857969
1 0.865568 0.854047
0.342153 0.960784 0.907835
0.392157 0.960784 0.907835
0.45687 0.960784 0.907835
0.53492 0.964706 0.907835
0.624018 0.964706 0.907835
0.718502 0.965072 0.907835
0.816663 0.968627 0.907835
0.91519 0.973892 0.907835
1 0.98529 0.907835
0 0.188724 0.514702
0.0460822 0.19173 0.518624
0.0921645 0.203433 0.533333
0.246082 0.216175 0.553918
0.426963 0.216175 0.553918
0.571878 0.217456 0.553918
0.706859 0.220096 0.553918
0.841184 0.220096 0.550484
0.968627 0.220096 0.550484
0 0.242649 0.52604
0.0460822 0.246571 0.529946
0.0921645 0.258106 0.544625
0.251118 0.2701 0.562203
0.426963 0.2701 0.562188
0.571878 0.2701 0.562203
0.707713 0.273533 0.562188
0.841184 0.274022 0.561318
0.972061 0.274022 0.561334
0 0.325612 0.563729
0.0460822 0.326833 0.567651
0.0921645 0.336706 0.580148
0.262333 0.346517 0.595102
0.433951 0.346563 0.595102
0.575799 0.346563 0.595102
0.710781 0.346563 0.595102
0.844984 0.346563 0.592523
0.972549 0.346563 0.592523
0 0.421759 0.621561
0.0460822 0.423362 0.624994
0.0921645 0.431113 0.634302
0.28072 0.435294 0.642969
0.442649 0.435294 0.642954
0.583047 0.43743 0.642969
0.715557 0.438727 0.642649
0.848859 0.438727 0.641352
0.976471 0.438727 0.641169
0 0.527703 0.689219
0.0460822 0.529656 0.690715
0.0921645 0.536828 0.700435
0.303914 0.537743 0.703182
0.455512 0.537743 0.702937
0.592554 0.537743 0.702937
0.722972 0.537743 0.702937
0.854658 0.537743 0.702937
0.980392 0.537743 0.701228
0 0.641169 0.762066
0.0460822 0.641443 0.764675
0.153475 0.645411 0.770092
0.330877 0.645396 0.770092
0.471077 0.645411 0.770092
0.603235 0.645396 0.770016
0.732265 0.645411 0.768627
0.860945 0.645396 0.768627
0.98793 0.645411 0.768627
0 0.753918 0.839216
0.0460822 0.754284 0.839216
0.226474 0.756863 0.841794
0.359319 0.756863 0.841794
0.489158 0.756863 0.839216
0.618143 0.756863 0.839216
0.743008 0.756985 0.839216
0.872175 0.756985 0.839216
0.995712 0.756985 0.839216
0.101534 0.869062 0.915679
0.168032 0.869047 0.915679
0.274403 0.869062 0.915679
0.390188 0.869047 0.915679
0.511772 0.869062 0.915679
0.633753 0.869047 0.915679
0.757412 0.872053 0.915251
0.880888 0.872053 0.915267
1 0.872541 0.911772
0.365194 0.964706 0.953918
0.414771 0.964706 0.953918
0.476844 0.964706 0.953918
0.552636 0.965011 0.953918
0.637507 0.968627 0.953918
0.7299 0.968811 0.953918
0.823896 0.972671 0.953918
0.919112 0.980392 0.953918
0.996078 0.992157 0.953918
0 0.215686 0.588235
0.0460822 0.215686 0.591669
0.0921645 0.227451 0.602945
0.13579 0.245594 0.625986
0.396078 0.247059 0.631373
0.552453 0.247059 0.631373
0.692164 0.248035 0.631373
0.829419 0.25098 0.631373
0.960784 0.25098 0.631373
0 0.269612 0.596078
0.0460822 0.269612 0.599939
0.0921645 0.281376 0.611643
0.13579 0.297368 0.637263
0.398047 0.300984 0.639216
0.552453 0.300984 0.639216
0.692164 0.300984 0.639216
0.829419 0.300984 0.638727
0.960784 0.300984 0.638727
0 0.346075 0.630396
0.0460822 0.348653 0.633326
0.0921645 0.356863 0.644358
0.160906 0.37145 0.667155
0.403433 0.373526 0.66862
0.556374 0.373526 0.66862
0.696071 0.373526 0.66569
0.833341 0.373526 0.66569
0.960784 0.373526 0.66569
0 0.438727 0.68333
0.0460822 0.438727 0.684627
0.0921645 0.446571 0.695094
0.200732 0.458335 0.710781
0.414954 0.458335 0.710781
0.564218 0.458335 0.710781
0.701839 0.458335 0.710781
0.837247 0.458335 0.710781
0.964706 0.458335 0.710781
0 0.541176 0.747051
0.0460822 0.54313 0.748775
0.0921645 0.54902 0.757839
0.24976 0.556863 0.768627
0.429404 0.556863 0.768627
0.573281 0.556863 0.768627
0.709316 0.556863 0.766659
0.843137 0.556863 0.766659
0.972549 0.556863 0.766659
0 0.651469 0.818631
0.0460822 0.652949 0.818631
0.0921645 0.656855 0.826474
0.289158 0.660777 0.830396
0.447059 0.660777 0.830396
0.586267 0.660777 0.830396
0.718624 0.660777 0.830396
0.850492 0.660777 0.830396
0.976471 0.660777 0.830396
0 0.764706 0.893141
0.0460822 0.764706 0.893141
0.126711 0.768627 0.899992
0.325124 0.768627 0.899992
0.467155 0.768627 0.899992
0.600122 0.768627 0.899992
0.730388 0.768627 0.899992
0.860792 0.768627 0.897063
0.98529 0.768627 0.897063
0 0.880385 0.969604
0.0477913 0.880385 0.970092
0.226474 0.880385 0.973526
0.359625 0.880385 0.970092
0.49044 0.880385 0.970092
0.618143 0.880385 0.970092
0.742641 0.880385 0.970092
0.872541 0.880385 0.970092
0.996078 0.880385 0.970092
0.388235 0.968627 1
0.438239 0.968627 1
0.500008 0.968627 1
0.572061 0.968627 1
0.654902 0.972549 1
0.741665 0.974014 1
0.835294 0.980392 1
0.926467 0.984802 1
1 1 1
