Camo Studio.app/Contents/Resources/CamoContent_CamoContent.bundle/Contents/Resources/TRITANOMOLY.cube
TITLE "Generated by Resolve"
LUT_3D_SIZE 33
0 0 0
0.0308843 0 0
0.0617685 0.00392157 0
0.0926528 0.00392157 0
0.123522 0.00784314 0
0.154406 0.00784314 0
0.18529 0.0117647 0
0.216175 0.0117647 0
0.250004 0.0156863 0
0.281865 0.0156863 0
0.312749 0.0196078 0
0.343633 0.0196078 0
0.374502 0.0220645 0
0.403067 0.0235294 0
0.432349 0.025742 0
0.463233 0.027451 0
0.496086 0.0294194 0
0.528923 0.0313726 0
0.559808 0.0330816 0
0.590692 0.0352941 0
0.621576 0.036759 0
0.652445 0.0392157 0
0.68333 0.0404364 0
0.714214 0.0431373 0
0.746075 0.0441138 0
0.779904 0.0470588 0
0.810788 0.0470588 0
0.841672 0.0509804 0
0.872541 0.0509804 0
0.903426 0.054902 0
0.93431 0.054902 0
0.965194 0.0588235 0
0.996078 0.0588235 0
0.00772107 0.0308843 0.0193637
0.0310063 0.0308843 0.0193637
0.0617685 0.0308232 0.0191958
0.0926528 0.0308843 0.0192416
0.123522 0.0308843 0.0192416
0.154406 0.0308843 0.0191348
0.18529 0.0308232 0.0158694
0.216175 0.0309758 0.015198
0.250004 0.0310063 0.015198
0.281865 0.0310979 0.0124666
0.312749 0.0310979 0.0113527
0.343633 0.0312047 0.00509651
0.374502 0.0312505 0
0.405386 0.0351263 0
0.436271 0.0351568 0
0.467033 0.0390326 0
0.49987 0.0390936 0
0.532723 0.0429541 0
0.563592 0.0429999 0
0.592935 0.0468605 0
0.621576 0.0469368 0
0.652445 0.0507362 0
0.68333 0.0508431 0
0.714214 0.0546578 0
0.746075 0.0547799 0
0.779904 0.0585794 0
0.810788 0.0586862 0
0.841672 0.0592966 0
0.872541 0.062623 0
0.903426 0.062974 0
0.93431 0.0665293 0
0.965194 0.0666667 0
0.996078 0.0703441 0
0.0154421 0.057847 0.0387274
0.0349126 0.0577859 0.0386969
0.0654612 0.057847 0.0387274
0.0929885 0.0577859 0.0386969
0.123522 0.057847 0.0387274
0.154406 0.0577859 0.0384375
0.18529 0.0580453 0.0384833
0.216175 0.0580453 0.0384375
0.250004 0.0580911 0.0384833
0.281865 0.0580453 0.0384375
0.312749 0.0580911 0.034638
0.343633 0.0580453 0.0345159
0.374502 0.0580911 0.0345617
0.405386 0.0580453 0.0343633
0.436271 0.0617685 0.0322423
0.467155 0.0617075 0.0303349
0.500008 0.0617685 0.0302739
0.532845 0.0617075 0.0259098
0.563729 0.0618753 0.025742
0.594614 0.0619669 0.021973
0.625498 0.0621042 0.020676
0.656367 0.0622263 0.0170443
0.687251 0.0623331 0.01355
0.718135 0.0624857 0.00263981
0.749935 0.0634775 0
0.783566 0.0664073 0
0.814466 0.0701457 0
0.845335 0.0703288 0
0.876219 0.074052 0
0.907088 0.0742504 0
0.93431 0.0744945 0
0.965194 0.078172 0
0.996078 0.0781872 0
0.0231632 0.0887312 0.0580911
0.0424048 0.0887312 0.0580911
0.0692302 0.0886702 0.0580606
0.0965744 0.0887312 0.0580911
0.127123 0.0887312 0.0580911
0.157961 0.0887312 0.0580911
0.185946 0.0886702 0.0580606
0.216175 0.0887312 0.0580911
0.250004 0.0887312 0.0577249
0.281865 0.0887312 0.0577249
0.312749 0.0886702 0.0576791
0.343633 0.0887312 0.0577249
0.374502 0.0887312 0.0577249
0.405386 0.0887312 0.0556039
0.436271 0.0886702 0.0539254
0.467155 0.0887312 0.0538033
0.500008 0.0887312 0.0538033
0.532845 0.0887312 0.0538033
0.563729 0.0886702 0.0518196
0.594614 0.0887312 0.0498817
0.625498 0.0888685 0.0498817
0.656367 0.0890974 0.0495155
0.687251 0.0890516 0.0459144
0.718135 0.0890974 0.045594
0.749996 0.0890974 0.0446021
0.783825 0.0890974 0.0416724
0.81471 0.0925917 0.0412146
0.845594 0.0926528 0.0373236
0.876478 0.0926528 0.0361486
0.907347 0.0926528 0.0319829
0.938231 0.0929732 0.0283055
0.969116 0.093019 0.0248722
1 0.0933852 0.0248722
0.0343175 0.119615 0.0774548
0.0501259 0.119615 0.0774548
0.0730755 0.119615 0.0774548
0.100053 0.119615 0.0774548
0.127886 0.119615 0.0774548
0.158328 0.119615 0.0774548
0.189212 0.119615 0.0774548
0.220096 0.119615 0.0774548
0.253437 0.119615 0.0774548
0.285298 0.119615 0.0774548
0.312749 0.119615 0.0771191
0.343633 0.119615 0.0769665
0.374502 0.119615 0.0769665
0.405386 0.119615 0.0769665
0.436271 0.119615 0.0769665
0.467155 0.119615 0.0769665
0.500008 0.119615 0.0752422
0.532845 0.119615 0.0735332
0.563729 0.119615 0.0730449
0.594614 0.119615 0.0730449
0.625498 0.119615 0.0730449
0.656367 0.119615 0.0730449
0.687251 0.119615 0.0694591
0.718135 0.119615 0.0691234
0.749996 0.119615 0.0691234
0.783825 0.119615 0.0691234
0.81471 0.119615 0.0679789
0.845594 0.119615 0.0652018
0.876478 0.119615 0.0651408
0.907347 0.119615 0.0643778
0.938231 0.119615 0.0612497
0.969116 0.119615 0.0607767
1 0.120104 0.0607767
0.0425269 0.146563 0.10013
0.0546426 0.146563 0.10013
0.0770733 0.146502 0.100084
0.103853 0.146563 0.10013
0.131365 0.146563 0.10013
0.16173 0.146563 0.10013
0.189822 0.146502 0.096788
0.220096 0.146563 0.0968185
0.253925 0.146563 0.0968185
0.285786 0.146563 0.0968185
0.31667 0.146502 0.096788
0.347555 0.146563 0.0968185
0.378042 0.146563 0.0968185
0.408698 0.146563 0.0962081
0.439567 0.146502 0.0961624
0.467155 0.146563 0.0962081
0.500008 0.146563 0.0962081
0.532845 0.146853 0.0962081
0.563729 0.147143 0.0961624
0.594614 0.147189 0.0948501
0.625498 0.147189 0.0928969
0.656367 0.147189 0.0922866
0.687251 0.147143 0.0922408
0.718135 0.147189 0.0922866
0.749996 0.147189 0.0922866
0.783825 0.147189 0.0915541
0.81471 0.147753 0.0888228
0.845594 0.150484 0.088365
0.876478 0.150484 0.088365
0.907347 0.150484 0.088365
0.938231 0.150423 0.08748
0.969116 0.150484 0.0844434
1 0.150484 0.0844434
0.050248 0.177447 0.119356
0.0617533 0.177386 0.11931
0.0848096 0.177447 0.119356
0.107958 0.177386 0.11931
0.135698 0.177447 0.119356
0.162753 0.177386 0.11931
0.193133 0.177447 0.119356
0.223438 0.177386 0.11931
0.254719 0.177447 0.119356
0.285786 0.177386 0.117037
0.31667 0.177447 0.116182
0.347555 0.177386 0.116152
0.378439 0.177447 0.116182
0.409308 0.177386 0.116152
0.440192 0.177447 0.116182
0.471077 0.177386 0.116152
0.503914 0.177447 0.115434
0.536416 0.177386 0.115389
0.566918 0.177447 0.115434
0.597772 0.177386 0.115389
0.625498 0.177447 0.115434
0.656367 0.177386 0.115389
0.687251 0.177447 0.112261
0.718135 0.177386 0.11223
0.749996 0.177447 0.112078
0.783825 0.177386 0.111467
0.81471 0.177447 0.111513
0.845594 0.177386 0.111467
0.876478 0.177447 0.111513
0.907347 0.177386 0.108309
0.938231 0.177447 0.107591
0.969116 0.177386 0.107546
1 0.181369 0.108339
0.057969 0.205264 0.138598
0.0695811 0.205264 0.138598
0.0896468 0.205219 0.138552
0.112627 0.205264 0.138598
0.139605 0.205264 0.138598
0.166644 0.205264 0.138598
0.196353 0.205219 0.138552
0.224689 0.205264 0.138598
0.257847 0.205264 0.138598
0.289097 0.205264 0.138598
0.319722 0.205219 0.138552
0.347555 0.205264 0.138598
0.378439 0.205264 0.138598
0.409308 0.205264 0.135546
0.440192 0.20827 0.135515
0.471077 0.208331 0.135546
0.503914 0.208331 0.135546
0.536767 0.208331 0.135546
0.567651 0.20827 0.135119
0.598535 0.208331 0.134676
0.629404 0.208331 0.134676
0.660288 0.208331 0.134676
0.691173 0.20827 0.13463
0.721202 0.208331 0.134676
0.753063 0.208331 0.134676
0.786892 0.208331 0.131624
0.81471 0.20827 0.131594
0.845594 0.208331 0.131487
0.876478 0.208331 0.130755
0.907347 0.208331 0.130755
0.938231 0.20827 0.130709
0.969116 0.208331 0.130755
1 0.209186 0.130755
0.0656901 0.238239 0.160784
0.0811322 0.238239 0.160784
0.0965744 0.238239 0.160784
0.119478 0.238239 0.160784
0.146075 0.238239 0.160784
0.173037 0.238239 0.160784
0.200183 0.238239 0.160784
0.227939 0.238239 0.157839
0.261036 0.238239 0.157839
0.290532 0.238239 0.157839
0.320592 0.238239 0.157839
0.351476 0.238239 0.157839
0.381735 0.238239 0.157839
0.412253 0.238239 0.157839
0.441489 0.238239 0.157839
0.471077 0.238239 0.157839
0.503914 0.238239 0.157839
0.536767 0.238239 0.157839
0.567651 0.238239 0.157839
0.598535 0.238239 0.157839
0.629404 0.238239 0.157839
0.660288 0.238239 0.157504
0.691173 0.238239 0.156863
0.722057 0.238239 0.156863
0.753918 0.238239 0.15613
0.787747 0.238239 0.153918
0.818631 0.238239 0.153918
0.849515 0.238239 0.153918
0.880385 0.238239 0.153918
0.911177 0.239216 0.153918
0.941176 0.239216 0.153857
0.972061 0.239216 0.152941
1 0.242161 0.153918
0.0734112 0.2701 0.181003
0.0888533 0.2701 0.181003
0.10428 0.270039 0.180957
0.127199 0.2701 0.181003
0.150362 0.2701 0.181003
0.177005 0.2701 0.181003
0.203998 0.270039 0.180957
0.231861 0.2701 0.181003
0.26247 0.2701 0.181003
0.293629 0.2701 0.181003
0.323751 0.270039 0.180957
0.352438 0.2701 0.179156
0.382345 0.2701 0.17818
0.41323 0.2701 0.17818
0.444114 0.270039 0.178149
0.474998 0.2701 0.17818
0.506737 0.2701 0.17818
0.538262 0.2701 0.17818
0.567651 0.270039 0.178149
0.598535 0.2701 0.17818
0.629404 0.2701 0.177081
0.660288 0.2701 0.177081
0.691173 0.270039 0.177035
0.722057 0.2701 0.177081
0.753918 0.2701 0.177081
0.787747 0.2701 0.177081
0.818631 0.270039 0.177035
0.849515 0.2701 0.176638
0.880385 0.2701 0.174258
0.911269 0.2701 0.174258
0.942153 0.270039 0.174228
0.973037 0.2701 0.173159
1 0.274022 0.177081
0.0850538 0.298283 0.200244
0.0965591 0.298238 0.200198
0.112016 0.298283 0.200244
0.132479 0.298238 0.200198
0.155398 0.298283 0.200244
0.181231 0.298238 0.200198
0.207828 0.298283 0.200244
0.235782 0.298238 0.200198
0.266361 0.298283 0.200244
0.296666 0.298238 0.200198
0.325353 0.298283 0.200244
0.355398 0.298238 0.200198
0.386282 0.298283 0.200244
0.415915 0.298238 0.200198
0.444114 0.298283 0.200244
0.474998 0.298238 0.197513
0.507836 0.298283 0.197543
0.540688 0.298238 0.197513
0.571572 0.298283 0.197543
0.601938 0.298238 0.197513
0.632105 0.298283 0.197543
0.662058 0.298238 0.197513
0.691173 0.298283 0.197162
0.722057 0.298238 0.196277
0.753918 0.298283 0.196323
0.787747 0.298238 0.196277
0.818631 0.298283 0.196323
0.849515 0.298238 0.196277
0.880385 0.298283 0.196323
0.911269 0.298238 0.196277
0.942153 0.298283 0.193622
0.973037 0.298314 0.193591
1 0.304906 0.197543
0.0927749 0.327947 0.219486
0.104295 0.327947 0.219486
0.119722 0.327886 0.21944
0.139086 0.327947 0.219486
0.161883 0.327947 0.219486
0.186175 0.327947 0.219486
0.212116 0.327886 0.21944
0.240269 0.327947 0.219486
0.270253 0.327947 0.219486
0.30013 0.327947 0.219486
0.328435 0.327886 0.21944
0.358419 0.327947 0.219486
0.387243 0.327947 0.219486
0.417151 0.327947 0.219486
0.448035 0.327886 0.21944
0.477577 0.327947 0.219486
0.509133 0.327947 0.219486
0.540688 0.327947 0.219486
0.571572 0.327886 0.218326
0.602457 0.327947 0.216907
0.633326 0.327947 0.216907
0.66421 0.327947 0.216907
0.695094 0.327886 0.216876
0.724636 0.327947 0.216907
0.756497 0.327947 0.216907
0.787747 0.327947 0.216617
0.818631 0.327886 0.215518
0.849515 0.327947 0.215564
0.880385 0.327947 0.215564
0.911269 0.327947 0.215564
0.942153 0.327886 0.215518
0.973037 0.327947 0.215564
1 0.331868 0.219486
0.100496 0.358831 0.238727
0.112016 0.358831 0.238727
0.127459 0.358831 0.238727
0.146807 0.358831 0.238727
0.169604 0.358831 0.238727
0.192767 0.358831 0.238727
0.217121 0.358831 0.238727
0.24416 0.358831 0.238727
0.274144 0.358831 0.238727
0.303914 0.358831 0.238727
0.332357 0.358831 0.238727
0.360159 0.358831 0.238727
0.390188 0.358831 0.238727
0.420203 0.358831 0.238727
0.449119 0.358831 0.238727
0.47892 0.358831 0.238727
0.511772 0.358831 0.238727
0.54461 0.358831 0.238727
0.574014 0.358831 0.238727
0.602457 0.358831 0.238727
0.633326 0.358831 0.238727
0.66421 0.358831 0.237888
0.695094 0.358831 0.236271
0.725978 0.358831 0.236271
0.757839 0.358831 0.236271
0.791669 0.358831 0.236271
0.822553 0.358831 0.236271
0.851957 0.358831 0.236271
0.882841 0.358831 0.234806
0.913497 0.358831 0.234806
0.942153 0.358831 0.234806
0.973037 0.358831 0.234806
1 0.362737 0.238727
0.108217 0.385779 0.259556
0.119814 0.385779 0.259556
0.135149 0.385718 0.259525
0.154162 0.385779 0.259556
0.173892 0.385779 0.259556
0.19791 0.385779 0.259556
0.223209 0.385718 0.259525
0.248051 0.385779 0.259556
0.278035 0.385779 0.259556
0.30605 0.385779 0.258412
0.335164 0.385718 0.257923
0.364034 0.385779 0.257969
0.393118 0.385779 0.257969
0.422034 0.385779 0.257969
0.451957 0.385718 0.257923
0.482002 0.385779 0.257969
0.512932 0.385779 0.257969
0.54461 0.385779 0.257969
0.575494 0.385718 0.257923
0.606378 0.385779 0.257969
0.636652 0.385779 0.257969
0.666545 0.385779 0.257969
0.695094 0.385718 0.257923
0.725978 0.385779 0.257969
0.757839 0.385779 0.257389
0.791669 0.385779 0.255634
0.822553 0.387335 0.255604
0.853437 0.387381 0.255634
0.884321 0.387381 0.255634
0.91519 0.387381 0.255634
0.946075 0.387335 0.255604
0.976913 0.387381 0.254047
1 0.393622 0.259556
0.115938 0.416663 0.27892
0.127565 0.416602 0.278889
0.142885 0.416663 0.27892
0.161868 0.416602 0.278889
0.181125 0.416663 0.27892
0.204273 0.416602 0.278889
0.227451 0.416663 0.27892
0.254047 0.416602 0.278889
0.281926 0.416663 0.27892
0.311498 0.416602 0.278889
0.33901 0.416663 0.27892
0.367163 0.416602 0.278889
0.396323 0.416663 0.27892
0.424994 0.416602 0.278889
0.454917 0.416663 0.277958
0.483864 0.416602 0.277165
0.515679 0.416663 0.277211
0.548531 0.416602 0.277165
0.577691 0.416663 0.277211
0.606378 0.416602 0.277165
0.637263 0.416663 0.277211
0.668132 0.416602 0.277165
0.699016 0.416663 0.277211
0.7299 0.416602 0.277165
0.760052 0.416663 0.277211
0.793378 0.416602 0.277165
0.822553 0.416663 0.277211
0.853437 0.416602 0.276829
0.884321 0.416663 0.274998
0.91519 0.416602 0.274968
0.946075 0.416663 0.274998
0.976959 0.416602 0.274968
1 0.424506 0.281132
0.123659 0.447547 0.298283
0.135286 0.447547 0.298283
0.150591 0.447486 0.298253
0.169604 0.447547 0.298283
0.188846 0.447547 0.298283
0.210254 0.447547 0.298283
0.234775 0.447486 0.298253
0.258335 0.447547 0.298283
0.287831 0.447547 0.298283
0.315847 0.447547 0.298283
0.34284 0.447486 0.298253
0.371084 0.447547 0.298283
0.398825 0.447547 0.298283
0.428916 0.447547 0.298283
0.456779 0.447486 0.298253
0.486763 0.447547 0.298283
0.518685 0.447547 0.298283
0.54963 0.447547 0.298283
0.579416 0.447486 0.297444
0.6103 0.447547 0.296452
0.640482 0.447547 0.296452
0.669505 0.447547 0.296452
0.699016 0.447486 0.296407
0.7299 0.447547 0.296452
0.761761 0.447547 0.296452
0.79559 0.447547 0.296452
0.826474 0.447486 0.296407
0.855512 0.447547 0.296452
0.886137 0.447547 0.296452
0.91519 0.447547 0.296452
0.946075 0.447486 0.296284
0.976959 0.447547 0.294362
1 0.451469 0.300374
0.133333 0.476478 0.3196
0.146807 0.476478 0.3196
0.160296 0.476478 0.3196
0.177508 0.476478 0.3196
0.196567 0.476478 0.3196
0.216114 0.476478 0.3196
0.238972 0.476478 0.3196
0.265202 0.476478 0.3196
0.292165 0.476478 0.3196
0.319677 0.476478 0.3196
0.346685 0.476478 0.3196
0.375677 0.476478 0.3196
0.402701 0.476478 0.3196
0.431678 0.476478 0.3196
0.460655 0.476478 0.3196
0.489647 0.476478 0.3196
0.520592 0.476478 0.3196
0.552453 0.476478 0.3196
0.582483 0.476478 0.3196
0.612253 0.476478 0.3196
0.641169 0.476478 0.3196
0.672053 0.476478 0.3196
0.702937 0.476478 0.31899
0.731868 0.476478 0.317647
0.763241 0.476478 0.317647
0.79559 0.476478 0.317647
0.826474 0.476478 0.317647
0.857359 0.476478 0.315694
0.888243 0.476478 0.315694
0.919112 0.476478 0.315694
0.949874 0.476478 0.315694
0.978927 0.476478 0.315694
1 0.484321 0.321569
0.143008 0.509316 0.340932
0.154528 0.509316 0.340932
0.169955 0.509255 0.340902
0.185412 0.509316 0.340932
0.204288 0.509316 0.340932
0.223529 0.509316 0.340932
0.246677 0.509255 0.340902
0.269856 0.509316 0.340932
0.298039 0.509316 0.340932
0.325521 0.509316 0.340932
0.352529 0.509255 0.340902
0.379553 0.509316 0.340932
0.406577 0.509316 0.340932
0.435523 0.509316 0.340932
0.463722 0.509255 0.340902
0.493507 0.509316 0.339834
0.523522 0.509316 0.338842
0.555398 0.509316 0.338842
0.58436 0.509255 0.338796
0.614221 0.509316 0.338842
0.645106 0.509316 0.338842
0.673899 0.509316 0.338842
0.702937 0.509255 0.338796
0.733822 0.509316 0.338842
0.765682 0.509316 0.338842
0.799512 0.509316 0.338842
0.82829 0.509255 0.338796
0.8589 0.509316 0.338842
0.888243 0.509316 0.338842
0.919112 0.509316 0.338842
0.949996 0.509255 0.338689
0.98088 0.509316 0.337072
1 0.517159 0.342763
0.150729 0.538476 0.360296
0.162234 0.53843 0.360265
0.177691 0.538476 0.360296
0.193118 0.53843 0.360265
0.212009 0.538476 0.360296
0.231235 0.53843 0.360265
0.254414 0.538476 0.360296
0.277562 0.53843 0.360265
0.30367 0.538476 0.360296
0.329397 0.53843 0.360265
0.35642 0.538476 0.360296
0.383429 0.53843 0.360265
0.410452 0.538476 0.360296
0.439368 0.53843 0.360265
0.467643 0.538476 0.360296
0.495399 0.53843 0.360265
0.527459 0.538476 0.360296
0.558068 0.53843 0.360265
0.587259 0.538476 0.360296
0.617227 0.53843 0.360265
0.646174 0.538476 0.358083
0.675975 0.53843 0.358038
0.706859 0.538476 0.358083
0.737118 0.53843 0.358038
0.766979 0.538476 0.358083
0.799512 0.53843 0.358038
0.830396 0.538476 0.358083
0.86128 0.53843 0.358038
0.892149 0.538476 0.358083
0.920821 0.53843 0.358038
0.951614 0.538476 0.358083
0.98088 0.538476 0.358038
1 0.546319 0.362005
0.15845 0.567163 0.37966
0.170092 0.567163 0.37966
0.185397 0.567102 0.379629
0.200855 0.567163 0.37966
0.21973 0.567163 0.37966
0.238972 0.567163 0.37966
0.25864 0.567102 0.379629
0.281376 0.567163 0.37966
0.307469 0.567163 0.37966
0.335088 0.567163 0.37966
0.360296 0.567102 0.379629
0.38732 0.567163 0.37966
0.414328 0.567163 0.37966
0.443229 0.567163 0.37966
0.471565 0.567102 0.379629
0.499275 0.567163 0.37966
0.530205 0.567163 0.37966
0.561135 0.567163 0.37966
0.590143 0.567102 0.379629
0.619089 0.567163 0.37966
0.649027 0.567163 0.37966
0.679103 0.567163 0.37966
0.708446 0.567102 0.379629
0.737743 0.567163 0.37966
0.769604 0.567163 0.377325
0.80293 0.567163 0.377325
0.831968 0.567102 0.377279
0.86128 0.567163 0.377325
0.892149 0.567163 0.377325
0.923033 0.567163 0.377325
0.953918 0.567102 0.377279
0.98468 0.567285 0.377401
1 0.575006 0.383581
0.166171 0.598047 0.400488
0.177813 0.598047 0.400488
0.193133 0.598047 0.400488
0.208576 0.598047 0.400488
0.226169 0.598047 0.400488
0.246693 0.598047 0.400488
0.265934 0.598047 0.400488
0.289097 0.598047 0.400488
0.31519 0.598047 0.400488
0.339345 0.598047 0.400488
0.365957 0.598047 0.400488
0.392996 0.598047 0.400488
0.420035 0.598047 0.399573
0.447074 0.598047 0.399023
0.474113 0.598047 0.399023
0.503136 0.598047 0.399023
0.534066 0.598047 0.399023
0.564218 0.598047 0.399023
0.592645 0.598047 0.399023
0.622065 0.598047 0.399023
0.652018 0.598047 0.399023
0.680873 0.598047 0.399023
0.710781 0.598047 0.399023
0.741665 0.598047 0.399023
0.771084 0.598047 0.399023
0.803433 0.598047 0.399023
0.834318 0.598047 0.399023
0.865202 0.598047 0.398642
0.895766 0.598047 0.396567
0.924376 0.598047 0.396567
0.953918 0.598047 0.396567
0.98468 0.598169 0.396643
1 0.605875 0.402945
0.173892 0.627573 0.41973
0.185534 0.627573 0.41973
0.200839 0.627527 0.419684
0.216297 0.627573 0.41973
0.231739 0.627573 0.41973
0.251102 0.627573 0.41973
0.27364 0.627527 0.419684
0.29575 0.627573 0.41973
0.319646 0.627573 0.41973
0.34667 0.627573 0.41973
0.370199 0.627527 0.419684
0.396841 0.627573 0.41973
0.42388 0.627573 0.41973
0.450919 0.627573 0.41973
0.477958 0.627527 0.419684
0.506996 0.627573 0.41973
0.536645 0.627573 0.41973
0.566934 0.627573 0.41973
0.59585 0.627527 0.419104
0.625986 0.627573 0.418387
0.654292 0.627573 0.418387
0.683818 0.627573 0.418387
0.713893 0.627527 0.418357
0.742626 0.627573 0.418387
0.773526 0.627573 0.418387
0.807355 0.627573 0.418387
0.835645 0.627527 0.418357
0.865202 0.627573 0.418387
0.896086 0.627573 0.418387
0.926955 0.627573 0.418387
0.957839 0.627527 0.418357
0.985977 0.627695 0.41593
1 0.636759 0.422309
0.182849 0.655879 0.438972
0.19704 0.655818 0.438926
0.208576 0.655879 0.438972
0.224002 0.655818 0.438926
0.23946 0.655879 0.438972
0.258808 0.655818 0.438926
0.280369 0.655879 0.438972
0.300603 0.655818 0.438926
0.326711 0.655879 0.438972
0.350835 0.655818 0.438926
0.375875 0.655879 0.438972
0.401083 0.655818 0.438926
0.428183 0.655879 0.438972
0.454765 0.655818 0.438926
0.48333 0.655879 0.438972
0.510857 0.655818 0.438926
0.539834 0.655879 0.438972
0.570794 0.655818 0.438926
0.59971 0.655879 0.438972
0.628794 0.655818 0.438926
0.656855 0.655879 0.438972
0.686809 0.655818 0.438926
0.715541 0.655879 0.438972
0.745586 0.655818 0.43772
0.776776 0.655879 0.437751
0.808301 0.655818 0.43772
0.838239 0.655879 0.437751
0.869123 0.655818 0.43772
0.899657 0.655879 0.437751
0.928069 0.655818 0.43772
0.957839 0.655879 0.437751
0.988479 0.65594 0.437751
1 0.667643 0.442893
0.193256 0.686763 0.458213
0.204776 0.686763 0.458213
0.216281 0.686702 0.458167
0.231739 0.686763 0.458213
0.247181 0.686763 0.458213
0.266545 0.686763 0.458213
0.285893 0.686702 0.458167
0.308339 0.686763 0.458213
0.333608 0.686763 0.458213
0.358267 0.686763 0.458213
0.38172 0.686702 0.458167
0.40676 0.686763 0.458213
0.433753 0.686763 0.458213
0.460731 0.686763 0.458213
0.487724 0.686702 0.458167
0.514733 0.686763 0.458213
0.543694 0.686763 0.458213
0.57467 0.686763 0.458213
0.602945 0.686702 0.458167
0.631006 0.686763 0.458213
0.660777 0.686763 0.458213
0.688853 0.686763 0.458213
0.718624 0.686702 0.458167
0.748714 0.686763 0.458213
0.778271 0.686763 0.458213
0.811276 0.686763 0.458213
0.841627 0.686702 0.458167
0.870222 0.686763 0.458045
0.899992 0.686763 0.457115
0.930877 0.686763 0.457115
0.961761 0.686702 0.457084
0.988479 0.686885 0.457145
1 0.694606 0.462135
0.200977 0.714702 0.478431
0.212528 0.714702 0.478431
0.224994 0.714702 0.478431
0.23946 0.714702 0.478431
0.255756 0.714702 0.478431
0.274266 0.714702 0.478431
0.293629 0.714702 0.478431
0.31606 0.714702 0.478431
0.339208 0.714702 0.478431
0.362371 0.714702 0.478431
0.388235 0.714702 0.478431
0.412619 0.714702 0.478431
0.438239 0.714702 0.478431
0.464607 0.714702 0.478431
0.4916 0.714702 0.478431
0.518593 0.714702 0.478431
0.548043 0.714702 0.478431
0.578531 0.714702 0.478431
0.606867 0.714702 0.478431
0.634806 0.714702 0.477455
0.6636 0.714702 0.477455
0.692317 0.714702 0.477455
0.722545 0.714702 0.477455
0.750484 0.714702 0.477455
0.781369 0.714702 0.477455
0.814557 0.714702 0.477455
0.843137 0.714702 0.477455
0.873045 0.714702 0.477455
0.903929 0.714702 0.477455
0.931868 0.714702 0.477455
0.962676 0.714702 0.477455
0.988479 0.718746 0.477577
1 0.726467 0.481376
0.208698 0.748531 0.500618
0.22034 0.748531 0.500618
0.235645 0.74847 0.500572
0.247181 0.748531 0.500618
0.266056 0.748531 0.500618
0.281987 0.748531 0.500618
0.301335 0.74847 0.500572
0.323781 0.748531 0.500618
0.345953 0.748531 0.500618
0.370092 0.748531 0.500618
0.39324 0.74847 0.500572
0.418433 0.748531 0.500618
0.443503 0.748531 0.500618
0.470237 0.748531 0.500618
0.497292 0.74847 0.500572
0.524361 0.748531 0.500618
0.553368 0.748531 0.500618
0.582391 0.748531 0.500618
0.610788 0.74847 0.500572
0.638254 0.748531 0.500618
0.667475 0.748531 0.500618
0.696162 0.748531 0.500618
0.725505 0.74847 0.500572
0.75404 0.748531 0.500618
0.78529 0.748531 0.500404
0.816052 0.748531 0.499748
0.846082 0.74847 0.499718
0.876967 0.748531 0.499748
0.904784 0.748531 0.499748
0.934798 0.748531 0.499748
0.965682 0.74847 0.499718
0.988479 0.752575 0.499779
1 0.760296 0.50367
0.216419 0.779416 0.51986
0.228046 0.779355 0.519814
0.243381 0.779416 0.51986
0.255909 0.779355 0.519814
0.274266 0.779416 0.51986
0.289693 0.779355 0.519814
0.309071 0.779416 0.51986
0.32842 0.779355 0.519814
0.353674 0.779416 0.51986
0.377081 0.779355 0.519814
0.400748 0.779416 0.51986
0.424125 0.779355 0.519814
0.449302 0.779416 0.51986
0.474372 0.779355 0.519814
0.501152 0.779416 0.51986
0.528206 0.779355 0.519814
0.557229 0.779416 0.51986
0.586236 0.779355 0.519814
0.61471 0.779416 0.51986
0.6421 0.779355 0.519814
0.671351 0.779416 0.51986
0.699504 0.779355 0.519814
0.727199 0.779416 0.51986
0.757351 0.779355 0.519814
0.788418 0.779416 0.51986
0.81912 0.779355 0.519814
0.850004 0.779416 0.51986
0.877577 0.779355 0.519814
0.907835 0.779416 0.519768
0.93872 0.779355 0.519081
0.966415 0.779416 0.519112
0.988479 0.783398 0.519814
1 0.79118 0.523033
0.22414 0.806378 0.539086
0.236378 0.806378 0.539086
0.251087 0.806317 0.53904
0.266545 0.806378 0.539086
0.281987 0.806378 0.539086
0.297429 0.806378 0.539086
0.316777 0.806317 0.53904
0.336019 0.806378 0.539086
0.35845 0.806378 0.539086
