Camo Studio.app/Contents/Resources/CamoContent_CamoContent.bundle/Contents/Resources/WARM.cube
TITLE "Generated by Resolve"
LUT_3D_SIZE 9
0 0 0
0.0842756 0.0124819 0.0124819
0.206271 0.0251469 0.0251469
0.332525 0.0371557 0.0371557
0.456687 0.0486305 0.0486305
0.570428 0.0598611 0.0598611
0.678462 0.0710765 0.0710765
0.772717 0.0823529 0.0823529
0.84979 0.0933852 0.0933852
0.0378271 0.0827802 0.0243839
0.119478 0.0924086 0.0374456
0.247242 0.103044 0.0578775
0.388891 0.108202 0.0837262
0.52224 0.112703 0.108339
0.634958 0.122545 0.122545
0.736126 0.134112 0.134112
0.820325 0.145525 0.145525
0.88806 0.156466 0.156466
0.0876631 0.195727 0.0377508
0.158556 0.209033 0.0523537
0.272206 0.222431 0.0696727
0.401968 0.233738 0.0890211
0.529183 0.241764 0.110719
0.653437 0.245594 0.138048
0.771801 0.243824 0.175814
0.873732 0.23389 0.227588
0.932525 0.242939 0.242939
0.146532 0.306386 0.045594
0.207034 0.32607 0.0653697
0.309545 0.34258 0.0838941
0.428748 0.3561 0.101244
0.546578 0.367819 0.119661
0.660868 0.377859 0.139666
0.765408 0.385458 0.162554
0.853101 0.390509 0.189212
0.924117 0.391104 0.221576
0.205844 0.416587 0.0529946
0.26041 0.439384 0.0760052
0.35494 0.459724 0.0983291
0.462074 0.472404 0.114565
0.571435 0.485267 0.132189
0.679652 0.496895 0.15053
0.777157 0.507378 0.170214
0.858183 0.515862 0.191348
0.923049 0.52195 0.214328
0.265629 0.519905 0.0601358
0.316823 0.54258 0.0850385
0.403677 0.565118 0.110842
0.501945 0.57998 0.129412
0.600717 0.59089 0.145144
0.702922 0.603601 0.163394
0.793484 0.614633 0.181933
0.869139 0.624475 0.201099
0.929366 0.63212 0.220951
0.326879 0.61735 0.0671397
0.375433 0.640696 0.093492
0.454505 0.664851 0.122118
0.54316 0.681132 0.143282
0.635828 0.692805 0.160235
0.728283 0.702876 0.17644
0.812222 0.713924 0.194965
0.882292 0.723247 0.213321
0.938109 0.731136 0.231846
0.38822 0.708812 0.0741436
0.433906 0.730617 0.101686
0.505684 0.753231 0.132525
0.585992 0.769024 0.156176
0.672526 0.780362 0.175021
0.75639 0.789029 0.19115
0.831876 0.797604 0.208118
0.896574 0.806226 0.226368
0.947784 0.813336 0.244221
0.447837 0.788052 0.0812543
0.490349 0.806531 0.109346
0.555474 0.826658 0.142077
0.629999 0.841093 0.16791
0.709667 0.851682 0.188739
0.785397 0.859617 0.206241
0.852598 0.865888 0.221958
0.911391 0.873182 0.239582
0.957824 0.879698 0.257237
0.0220645 0.00503548 0.0398871
0.102586 0.017319 0.0514076
0.221622 0.0316777 0.0647135
0.34725 0.0443885 0.0756542
0.470436 0.0565194 0.0851911
0.5832 0.0682383 0.0932326
0.689952 0.0802014 0.0999924
0.7823 0.092195 0.105989
0.857435 0.103944 0.111803
0.0611734 0.0869001 0.0609445
0.140703 0.0989548 0.0760357
0.266285 0.110933 0.0969406
0.406104 0.11632 0.121126
0.536248 0.120943 0.14255
0.646967 0.131289 0.152544
0.746563 0.143908 0.160494
0.828855 0.155993 0.166491
0.894896 0.167452 0.173709
0.109773 0.201663 0.063447
0.177295 0.216968 0.0794842
0.290044 0.231708 0.0974594
0.418936 0.24416 0.115663
0.544045 0.252079 0.135332
0.666575 0.256336 0.159319
0.782513 0.254643 0.195178
0.881376 0.245228 0.243854
0.93817 0.254795 0.255558
0.165057 0.315251 0.0581064
0.224537 0.335805 0.0785382
0.325963 0.353246 0.0974441
0.4439 0.367102 0.114717
0.560342 0.37966 0.132555
0.67332 0.389441 0.151476
0.775525 0.397467 0.174517
0.861158 0.402441 0.201312
0.93019 0.402747 0.233845
0.222721 0.426368 0.0629587
0.277333 0.449409 0.086305
0.370809 0.469993 0.109102
0.476478 0.482856 0.125628
0.584543 0.495872 0.143557
0.691814 0.507774 0.162234
0.786862 0.518029 0.18201
0.865934 0.526452 0.203281
0.928969 0.532494 0.226322
0.282002 0.529229 0.0704967
0.333043 0.552193 0.0955825
0.418952 0.574929 0.121675
0.515602 0.589944 0.14049
0.613581 0.60119 0.156542
0.714229 0.613809 0.17496
0.802884 0.625147 0.193774
0.876585 0.634638 0.213031
0.935042 0.642191 0.232944
0.342718 0.62678 0.0777752
0.390982 0.650095 0.104311
0.469139 0.674205 0.133059
0.556344 0.69041 0.154467
0.648203 0.702083 0.171649
0.73901 0.71191 0.188083
0.821042 0.723033 0.206775
0.889357 0.732128 0.225238
0.943542 0.739879 0.243824
0.403372 0.71754 0.085069
0.448753 0.73901 0.112688
0.519463 0.761227 0.143648
0.599023 0.776867 0.167468
0.684428 0.787991 0.18645
0.766552 0.796674 0.202808
0.84033 0.805188 0.220005
0.903349 0.813626 0.238376
0.952865 0.820584 0.256199
0.462501 0.795392 0.0922255
0.50428 0.81355 0.120409
0.568475 0.833341 0.153307
0.642161 0.847456 0.179232
0.720592 0.857893 0.200229
0.794751 0.865705 0.217914
0.860517 0.872023 0.233783
0.917647 0.879133 0.251606
0.962524 0.885481 0.269306
0.0623789 0.0052491 0.101946
0.135561 0.0168307 0.127565
0.24686 0.0345769 0.144884
0.369619 0.0487068 0.15816
0.490364 0.0614328 0.169741
0.600992 0.0733654 0.180072
0.705364 0.0853285 0.189532
0.795056 0.097322 0.198169
0.868223 0.108995 0.205768
0.108553 0.0822003 0.139635
0.177554 0.098085 0.15874
0.296422 0.112383 0.183398
0.431952 0.118547 0.209323
0.556054 0.12488 0.230671
0.663706 0.136309 0.242359
0.760296 0.148913 0.252827
0.840116 0.160815 0.261494
0.904509 0.172534 0.268894
0.149386 0.201038 0.148318
0.211841 0.219684 0.167941
0.322255 0.238422 0.190555
0.44802 0.251957 0.211521
0.569863 0.26041 0.233417
0.689204 0.264836 0.260426
0.799771 0.260853 0.297002
0.892027 0.250202 0.341741
0.946517 0.260273 0.351339
0.199359 0.318349 0.147936
0.25658 0.340475 0.16994
0.355886 0.360037 0.190753
0.471763 0.376455 0.209812
0.585046 0.389136 0.228458
0.694896 0.399451 0.247517
0.792935 0.407858 0.268391
0.875364 0.412695 0.292546
0.942016 0.413962 0.320928
0.253452 0.433097 0.135042
0.307225 0.456764 0.159167
0.398733 0.478477 0.182696
0.501793 0.492622 0.199313
0.607401 0.506523 0.216419
0.711467 0.519188 0.233188
0.802655 0.529366 0.249516
0.878691 0.538018 0.266133
0.939101 0.544228 0.282856
0.309834 0.538781 0.105135
0.360082 0.561868 0.130541
0.444007 0.585504 0.156542
0.537301 0.601114 0.174716
0.633509 0.61297 0.189425
0.731319 0.626337 0.205722
0.816587 0.637705 0.220783
0.887297 0.64741 0.235477
0.942962 0.654887 0.249577
0.367895 0.637812 0.0907454
0.415381 0.661097 0.117464
0.491356 0.685191 0.146731
0.576181 0.701793 0.16878
0.666224 0.713405 0.186389
0.754421 0.723537 0.203479
0.833494 0.734447 0.222492
0.899321 0.743633 0.241306
0.950988 0.750988 0.259983
0.426856 0.727825 0.0985885
0.471382 0.748913 0.126314
0.539956 0.770947 0.157641
0.617868 0.786496 0.181918
0.701442 0.797543 0.201328
0.780819 0.806165 0.218051
0.852064 0.814679 0.235737
0.912657 0.823026 0.254383
0.959747 0.82977 0.272328
0.48423 0.804227 0.106157
0.524849 0.821866 0.134371
0.587762 0.841443 0.167575
0.660365 0.855451 0.193896
0.736339 0.86566 0.215198
0.807935 0.873472 0.23328
0.871397 0.879667 0.24947
0.926329 0.886717 0.267628
0.968597 0.892775 0.285389
0.100893 0.00733959 0.144976
0.177462 0.0136873 0.203113
0.278599 0.0345464 0.22443
0.396323 0.0509041 0.240986
0.51281 0.064744 0.254902
0.620386 0.0773785 0.267247
0.721553 0.0897078 0.278996
0.808057 0.101823 0.290105
0.878996 0.113573 0.300389
0.166064 0.0712902 0.218906
0.226062 0.0907607 0.242359
0.336095 0.108064 0.271611
0.461814 0.118105 0.298283
0.577996 0.127398 0.319463
0.681819 0.140368 0.332296
0.774609 0.153216 0.344778
0.851759 0.16527 0.355871
0.914122 0.176883 0.365835
0.198322 0.195239 0.229953
0.255894 0.217273 0.253712
0.359854 0.239567 0.28098
0.478843 0.25417 0.304952
0.595499 0.262913 0.329519
0.710353 0.266285 0.358526
0.816281 0.261479 0.397421
0.902983 0.253193 0.439689
0.954925 0.264408 0.449607
0.242542 0.316228 0.237675
0.297093 0.340414 0.262272
0.392721 0.364141 0.288197
0.503655 0.382513 0.311147
0.612314 0.39617 0.332403
0.717876 0.406973 0.354192
0.811536 0.415213 0.378119
0.890608 0.420493 0.404791
0.954543 0.420066 0.435554
0.292851 0.433768 0.238804
0.345144 0.458412 0.264714
0.432609 0.48191 0.291325
0.53228 0.498619 0.312245
0.634073 0.513573 0.33254
0.733745 0.526284 0.352728
0.820844 0.536751 0.372625
0.894026 0.545357 0.393301
0.952667 0.551324 0.414557
0.347021 0.540642 0.232334
0.396307 0.564095 0.259159
0.47686 0.588617 0.288136
0.566232 0.605188 0.309178
0.660258 0.61886 0.328023
0.753231 0.632242 0.347158
0.834867 0.64387 0.366033
0.902998 0.653483 0.384085
0.957183 0.660853 0.401602
0.402899 0.640818 0.215503
0.449058 0.664225 0.243275
0.522271 0.688731 0.273991
0.603754 0.705821 0.297215
0.690257 0.718059 0.314961
0.77496 0.729549 0.332448
0.850477 0.740505 0.350149
0.913832 0.750057 0.366796
0.963653 0.757488 0.382116
0.457832 0.733242 0.180499
0.500893 0.754147 0.208606
0.566888 0.776196 0.240726
0.642237 0.792081 0.264652
0.722316 0.803494 0.28333
0.798032 0.812284 0.2981
0.866712 0.821637 0.313237
0.924636 0.83006 0.327123
0.969146 0.836973 0.338933
0.509575 0.811276 0.128374
0.549371 0.828901 0.157488
0.610239 0.848035 0.19057
0.680858 0.861906 0.21735
0.753765 0.872312 0.238514
0.822309 0.880064 0.256443
0.883146 0.886458 0.272251
0.935607 0.893507 0.289769
0.974304 0.899443 0.305928
0.138521 0.00953689 0.191562
0.218311 0.0131228 0.268345
0.316701 0.0321202 0.303258
0.427085 0.0511177 0.323308
0.537484 0.0665751 0.339666
0.641413 0.0803082 0.353994
0.738598 0.0932937 0.367239
0.821607 0.105852 0.379873
0.890059 0.117876 0.391424
0.229526 0.0569162 0.302937
0.285389 0.0794842 0.33019
0.382834 0.100145 0.359884
0.496269 0.114992 0.386145
0.601328 0.129229 0.404242
0.701015 0.143175 0.418585
0.78967 0.156664 0.432074
0.863874 0.169375 0.444358
0.923949 0.181155 0.455085
0.253605 0.186465 0.311788
0.30721 0.210361 0.338064
0.401938 0.234775 0.367803
0.512612 0.25127 0.394354
0.623178 0.260945 0.420844
0.734127 0.264103 0.452171
0.835187 0.259648 0.491203
0.913741 0.256672 0.524773
0.963134 0.268574 0.53434
0.291386 0.310323 0.321935
0.344167 0.33695 0.349371
0.434577 0.364813 0.379797
0.538094 0.385168 0.404898
0.640345 0.399649 0.427192
0.740414 0.410803 0.449607
0.828809 0.418662 0.473182
0.903914 0.422797 0.499016
0.964904 0.421286 0.528603
0.338247 0.431785 0.329763
0.388251 0.457267 0.357015
0.47042 0.48304 0.386023
0.565087 0.502922 0.410407
0.66212 0.519097 0.43238
0.756161 0.532372 0.453193
0.838895 0.543374 0.473869
0.908843 0.552331 0.494804
0.965148 0.558206 0.516167
0.388708 0.540703 0.331563
0.435828 0.564569 0.359701
0.511772 0.590356 0.390265
0.59559 0.608011 0.412787
0.686732 0.624231 0.434272
0.774594 0.638025 0.454353
0.85211 0.649927 0.473945
0.917372 0.65977 0.492531
0.969451 0.66717 0.510689
0.441108 0.641718 0.328023
0.485664 0.665385 0.356924
0.554681 0.69041 0.389059
0.632166 0.708522 0.413504
0.714382 0.721523 0.432517
0.795453 0.734356 0.452399
0.867308 0.745418 0.471305
0.9281 0.754772 0.489128
0.975631 0.762188 0.505425
0.493935 0.734066 0.318135
0.535256 0.75494 0.347753
0.597925 0.7776 0.381369
0.669886 0.79379 0.407401
0.745617 0.805844 0.428016
0.817273 0.815091 0.444938
0.883589 0.825162 0.463584
0.939559 0.833646 0.480797
0.980224 0.840238 0.496162
0.544732 0.811994 0.298695
0.582742 0.829709 0.32903
0.641047 0.84918 0.364126
0.707835 0.863478 0.391821
0.776379 0.874174 0.413764
0.841611 0.882338 0.431754
0.900145 0.889326 0.447547
0.951171 0.896819 0.464286
0.979812 0.902281 0.47834
0.176425 0.0116884 0.238697
0.25597 0.0152743 0.323323
0.35996 0.0286717 0.381491
0.461234 0.0495308 0.402975
0.564294 0.0669261 0.421302
0.663905 0.0820325 0.436912
0.756405 0.0959335 0.45124
0.835584 0.109087 0.464332
0.901213 0.121523 0.476402
0.294316 0.042298 0.386191
0.345815 0.0675975 0.413642
0.432135 0.0917525 0.443015
0.530068 0.112169 0.46566
0.626734 0.129519 0.483085
0.721675 0.145037 0.498711
0.805371 0.159106 0.5122
0.876265 0.172488 0.524804
0.933852 0.184771 0.535927
0.313268 0.175494 0.39382
0.363851 0.200732 0.420966
0.449546 0.226673 0.451331
0.551034 0.244755 0.479606
0.655512 0.255955 0.507515
0.761059 0.259281 0.53962
0.856931 0.254185 0.578332
0.9243 0.259678 0.6
0.97113 0.27219 0.610132
0.346654 0.303456 0.405005
0.395666 0.330602 0.432059
0.476967 0.359289 0.462013
0.571649 0.381552 0.488182
0.667979 0.397803 0.511025
0.762264 0.41001 0.533562
0.845945 0.418387 0.556588
0.917754 0.422843 0.581903
0.974975 0.42034 0.610834
0.386694 0.425971 0.413657
0.434974 0.453452 0.441947
0.512337 0.482856 0.473091
0.599817 0.505013 0.498787
0.691142 0.522454 0.520989
0.77908 0.536446 0.541512
0.856931 0.547921 0.561379
0.923003 0.556115 0.580941
0.975799 0.561929 0.600763
0.433738 0.538872 0.421256
0.47863 0.563348 0.449012
0.549035 0.590036 0.479423
0.627817 0.610208 0.503258
0.714031 0.627894 0.525338
0.796384 0.642802 0.54548
0.869596 0.654917 0.564355
0.93164 0.665064 0.582361
0.980667 0.672435 0.599603
0.481941 0.640955 0.423774
0.524056 0.66479 0.451957
0.588342 0.690761 0.483528
0.661677 0.710018 0.507866
0.739467 0.724514 0.527581
0.815793 0.738293 0.547555
0.883787 0.74966 0.565805
0.941878 0.759411 0.583093
0.983413 0.766522 0.598505
0.530907 0.734218 0.422507
0.56997 0.755337 0.451255
0.629145 0.778302 0.484031
0.697261 0.795224 0.509316
0.768292 0.808011 0.529473
0.836484 0.818524 0.547005
0.899458 0.828931 0.565286
0.952865 0.837263 0.581674
0.983337 0.843824 0.596002
0.578408 0.812772 0.415976
0.614603 0.83064 0.445594
0.670359 0.850278 0.479408
0.733074 0.865049 0.506188
0.797314 0.87602 0.527245
0.859144 0.884749 0.544732
0.915496 0.892531 0.561013
0.96434 0.90013 0.577386
0.983185 0.905241 0.590219
0.214588 0.0137636 0.287129
0.294362 0.0173495 0.375326
0.405875 0.0243992 0.455177
0.497627 0.0464027 0.477607
0.593027 0.0658427 0.497093
0.687755 0.0825208 0.513466
0.774975 0.0975357 0.528115
0.85005 0.111437 0.541558
0.912627 0.124422 0.553674
0.353704 0.0311589 0.459525
0.402792 0.0574655 0.488243
0.478172 0.0865187 0.515435
0.563775 0.108949 0.536309
0.654108 0.128435 0.554864
0.743358 0.145632 0.571374
0.822141 0.160891 0.585748
0.88925 0.174853 0.598489
0.944076 0.187564 0.609628
0.377462 0.161776 0.474174
0.425147 0.188098 0.500923
0.503075 0.216037 0.531594
0.593606 0.234592 0.559564
0.692836 0.246311 0.589624
0.791531 0.25005 0.623499
0.878492 0.247944 0.659449
0.935805 0.262074 0.671504
0.973404 0.274449 0.680934
0.403494 0.293767 0.48275
0.449607 0.321996 0.509041
0.523049 0.351858 0.538247
0.607813 0.375677 0.563851
0.698299 0.393561 0.587579
0.786053 0.40708 0.61059
0.86482 0.416052 0.634409
0.932891 0.420508 0.660227
0.977966 0.416083 0.689082
0.44007 0.420462 0.493477
0.48426 0.447852 0.519631
0.553765 0.477882 0.548959
0.633356 0.501656 0.574365
0.718944 0.520607 0.59704
0.800687 0.535637 0.617761
0.873793 0.547311 0.637781
0.93637 0.556085 0.657374
0.982269 0.561364 0.676814
0.47982 0.533623 0.500832
0.522683 0.559564 0.527932
0.587625 0.587884 0.557824
0.662608 0.611322 0.583383
0.74258 0.630213 0.605722
0.819257 0.646021 0.626169
0.887816 0.658732 0.645167
0.946471 0.668986 0.662928
0.985779 0.676097 0.679271
0.524483 0.638346 0.507958
0.563851 0.662608 0.534325
0.623423 0.689525 0.564248
0.69218 0.709895 0.588083
0.765774 0.726696 0.609689
0.837018 0.741329 0.629923
0.901122 0.753323 0.64828
0.956039 0.76318 0.665339
0.986023 0.770047 0.679896
0.568994 0.732937 0.511208
0.605585 0.754299 0.537957
0.661479 0.777859 0.56846
0.725216 0.795605 0.592905
0.791348 0.809125 0.61294
0.856321 0.821271 0.63209
0.915724 0.832029 0.650278
0.966461 0.840757 0.666712
0.986023 0.846937 0.68014
0.612619 0.812604 0.510994
0.647318 0.830518 0.53814
0.699947 0.850584 0.569375
0.758373 0.865782 0.594522
0.81854 0.877455 0.615076
0.876738 0.886564 0.632532
0.930938 0.895567 0.650126
0.977371 0.903304 0.666316
0.985977 0.908034 0.678508
0.253285 0.0157778 0.335912
0.333333 0.0193179 0.425101
0.446983 0.0229191 0.516411
0.536141 0.0424353 0.546975
0.623606 0.0634775 0.566903
0.712795 0.0818036 0.584405
0.794385 0.098085 0.599847
0.865278 0.112917 0.613916
0.924514 0.126558 0.626245
0.400519 0.0279698 0.514336
0.454078 0.0495613 0.553811
0.522957 0.0809339 0.582513
0.59939 0.105013 0.604288
0.683543 0.126299 0.623987
0.766094 0.145022 0.64126
0.83975 0.161379 0.655955
0.90309 0.17644 0.669078
0.95494 0.189914 0.680293
0.444938 0.144884 0.551843
0.489738 0.172244 0.578683
0.56051 0.201205 0.611063
0.642161 0.22005 0.64033
0.734874 0.231739 0.672206
0.825757 0.235645 0.706523
0.894133 0.248219 0.725246
0.94789 0.263569 0.736568
0.973693 0.275868 0.7449
0.461555 0.282017 0.555459
0.504433 0.311116 0.581262
0.571115 0.343191 0.611551
0.647074 0.367422 0.637034
0.730907 0.387152 0.661616
0.811994 0.401511 0.685115
0.885542 0.411322 0.708675
0.949523 0.415549 0.733776
0.977737 0.407736 0.761257
0.492683 0.412024 0.565484
0.533989 0.440406 0.59118
0.596658 0.471687 0.620874
0.669108 0.496086 0.646067
0.748089 0.516854 0.669245
0.823713 0.532845 0.690013
0.891936 0.545647 0.709514
0.950744 0.554589 0.728283
0.982223 0.559335 0.745678
0.528588 0.529046 0.57467
0.567971 0.555001 0.600504
0.627085 0.583993 0.630396
0.696742 0.60856 0.656352
0.77026 0.62858 0.678813
0.841123 0.645426 0.698878
0.904967 0.658442 0.716762
0.959976 0.668925 0.733318
0.985885 0.67541 0.747662
0.566781 0.633524 0.581704
0.603861 0.65861 0.607767
0.660319 0.687099 0.638437
0.724956 0.709468 0.663478
0.793484 0.728176 0.686107
0.859434 0.743633 0.705745
0.919356 0.756115 0.723354
0.970993 0.766552 0.739239
0.988602 0.772885 0.752071
0.60737 0.730388 0.58822
0.642054 0.75198 0.613916
0.695216 0.776425 0.644312
0.75465 0.795422 0.669154
0.816037 0.809964 0.68954
0.877241 0.823545 0.709178
0.932937 0.834775 0.726467
0.980697 0.843778 0.741726
0.988663 0.849531 0.753552
0.647623 0.811399 0.591409
0.680812 0.829541 0.617151
0.730495 0.850019 0.647807
0.784924 0.866026 0.672877
0.841184 0.878523 0.693492
0.895644 0.888334 0.710872
0.947112 0.898161 0.728176
0.986618 0.905989 0.742947
0.988708 0.910643 0.75436
0.292546 0.0177005 0.384543
0.372427 0.0211795 0.472663
0.482658 0.0249027 0.566445
0.576028 0.0382239 0.615366
0.655985 0.0599985 0.634821
0.738781 0.0800336 0.653071
0.81474 0.0976577 0.669017
0.881132 0.113512 0.682994
0.936858 0.127886 0.695232
0.445594 0.024918 0.566659
0.503777 0.0419318 0.617044
0.567498 0.0745403 0.647761
0.637354 0.100832 0.670466
0.714031 0.122988 0.689372
0.78967 0.143099 0.706386
0.858091 0.160983 0.720958
0.917372 0.176898 0.733516
0.965606 0.191104 0.744244
0.517113 0.123354 0.633021
0.558236 0.15108 0.659571
0.621759 0.181186 0.691875
0.697414 0.201144 0.720882
0.78056 0.212482 0.750729
0.85127 0.229557 0.770336
0.910185 0.247837 0.782895
0.960357 0.264103 0.793667
0.973709 0.27628 0.801099
0.519997 0.26894 0.62707
0.559808 0.298238 0.652781
0.620157 0.332418 0.683024
0.689708 0.3579 0.707851
0.765301 0.378393 0.730907
0.839536 0.393881 0.753429
0.908034 0.403891 0.776135
0.967636 0.406821 0.800122
0.977295 0.393179 0.827268
0.545632 0.402289 0.63563
0.583642 0.431479 0.660822
0.641001 0.464225 0.690105
0.707088 0.489616 0.713832
0.778561 0.511299 0.735744
0.847913 0.528786 0.755566
0.91107 0.542031 0.773724
0.965881 0.552087 0.791119
0.982116 0.555566 0.806439
0.576837 0.522606 0.644999
0.613077 0.549004 0.670024
0.668025 0.57908 0.69897
0.730846 0.603265 0.722637
0.798047 0.624689 0.743984
0.863294 0.642329 0.762921
0.922576 0.656535 0.779675
0.973861 0.667369 0.794965
0.985794 0.672923 0.807355
0.609812 0.628138 0.652338
0.644739 0.653605 0.677531
0.698146 0.68333 0.707118
0.758251 0.707637 0.731884
0.820798 0.727337 0.752987
0.881392 0.743389 0.771145
0.937102 0.756527 0.787366
0.984619 0.766918 0.801709
0.989425 0.772686 0.812528
0.645945 0.726223 0.659617
0.679805 0.74876 0.684749
0.729717 0.77409 0.713893
0.784527 0.794034 0.737469
0.842313 0.81088 0.758175
0.898863 0.825162 0.776349
0.950744 0.836866 0.792264
0.989654 0.846052 0.806027
0.99118 0.851591 0.816434
0.68397 0.809308 0.665431
0.71548 0.827787 0.689952
0.761776 0.84889 0.718868
0.8121 0.865507 0.742382
0.864149 0.878706 0.761639
0.915892 0.890349 0.77908
0.963851 0.900343 0.794812
0.990829 0.907912 0.807691
0.991302 0.913298 0.819226
