Camo Studio.app/Contents/Resources/CamoContent_CamoContent.bundle/Contents/Resources/WARM.cube
TITLE "Generated by Resolve"
LUT_3D_SIZE 5
0 0 0
0.206271 0.0251469 0.0251469
0.456687 0.0486305 0.0486305
0.678462 0.0710765 0.0710765
0.84979 0.0933852 0.0933852
0.0876631 0.195727 0.0377508
0.272206 0.222431 0.0696727
0.529183 0.241764 0.110719
0.771801 0.243824 0.175814
0.932525 0.242939 0.242939
0.205844 0.416587 0.0529946
0.35494 0.459724 0.0983291
0.571435 0.485267 0.132189
0.777157 0.507378 0.170214
0.923049 0.52195 0.214328
0.326879 0.61735 0.0671397
0.454505 0.664851 0.122118
0.635828 0.692805 0.160235
0.812222 0.713924 0.194965
0.938109 0.731136 0.231846
0.447837 0.788052 0.0812543
0.555474 0.826658 0.142077
0.709667 0.851682 0.188739
0.852598 0.865888 0.221958
0.957824 0.879698 0.257237
0.0623789 0.0052491 0.101946
0.24686 0.0345769 0.144884
0.490364 0.0614328 0.169741
0.705364 0.0853285 0.189532
0.868223 0.108995 0.205768
0.149386 0.201038 0.148318
0.322255 0.238422 0.190555
0.569863 0.26041 0.233417
0.799771 0.260853 0.297002
0.946517 0.260273 0.351339
0.253452 0.433097 0.135042
0.398733 0.478477 0.182696
0.607401 0.506523 0.216419
0.802655 0.529366 0.249516
0.939101 0.544228 0.282856
0.367895 0.637812 0.0907454
0.491356 0.685191 0.146731
0.666224 0.713405 0.186389
0.833494 0.734447 0.222492
0.950988 0.750988 0.259983
0.48423 0.804227 0.106157
0.587762 0.841443 0.167575
0.736339 0.86566 0.215198
0.871397 0.879667 0.24947
0.968597 0.892775 0.285389
0.138521 0.00953689 0.191562
0.316701 0.0321202 0.303258
0.537484 0.0665751 0.339666
0.738598 0.0932937 0.367239
0.890059 0.117876 0.391424
0.253605 0.186465 0.311788
0.401938 0.234775 0.367803
0.623178 0.260945 0.420844
0.835187 0.259648 0.491203
0.963134 0.268574 0.53434
0.338247 0.431785 0.329763
0.47042 0.48304 0.386023
0.66212 0.519097 0.43238
0.838895 0.543374 0.473869
0.965148 0.558206 0.516167
0.441108 0.641718 0.328023
0.554681 0.69041 0.389059
0.714382 0.721523 0.432517
0.867308 0.745418 0.471305
0.975631 0.762188 0.505425
0.544732 0.811994 0.298695
0.641047 0.84918 0.364126
0.776379 0.874174 0.413764
0.900145 0.889326 0.447547
0.979812 0.902281 0.47834
0.214588 0.0137636 0.287129
0.405875 0.0243992 0.455177
0.593027 0.0658427 0.497093
0.774975 0.0975357 0.528115
0.912627 0.124422 0.553674
0.377462 0.161776 0.474174
0.503075 0.216037 0.531594
0.692836 0.246311 0.589624
0.878492 0.247944 0.659449
0.973404 0.274449 0.680934
0.44007 0.420462 0.493477
0.553765 0.477882 0.548959
0.718944 0.520607 0.59704
0.873793 0.547311 0.637781
0.982269 0.561364 0.676814
0.524483 0.638346 0.507958
0.623423 0.689525 0.564248
0.765774 0.726696 0.609689
0.901122 0.753323 0.64828
0.986023 0.770047 0.679896
0.612619 0.812604 0.510994
0.699947 0.850584 0.569375
0.81854 0.877455 0.615076
0.930938 0.895567 0.650126
0.985977 0.908034 0.678508
0.292546 0.0177005 0.384543
0.482658 0.0249027 0.566445
0.655985 0.0599985 0.634821
0.81474 0.0976577 0.669017
0.936858 0.127886 0.695232
0.517113 0.123354 0.633021
0.621759 0.181186 0.691875
0.78056 0.212482 0.750729
0.910185 0.247837 0.782895
0.973709 0.27628 0.801099
0.545632 0.402289 0.63563
0.641001 0.464225 0.690105
0.778561 0.511299 0.735744
0.91107 0.542031 0.773724
0.982116 0.555566 0.806439
0.609812 0.628138 0.652338
0.698146 0.68333 0.707118
0.820798 0.727337 0.752987
0.937102 0.756527 0.787366
0.989425 0.772686 0.812528
0.68397 0.809308 0.665431
0.761776 0.84889 0.718868
0.864149 0.878706 0.761639
0.963851 0.900343 0.794812
0.991302 0.913298 0.819226
