Camo Studio.app/Contents/Resources/CamoContent_CamoContent.bundle/Contents/Resources/WARM.cube
TITLE "Generated by Resolve"
LUT_3D_SIZE 33
0 0 0
0 0 0
0.0256657 0.00479133 0.00479133
0.0546883 0.00891127 0.00891127
0.0842756 0.0124819 0.0124819
0.114137 0.0157015 0.0157015
0.144945 0.0187533 0.0187533
0.175692 0.022034 0.022034
0.206271 0.0251469 0.0251469
0.237507 0.0281529 0.0281529
0.269108 0.0311437 0.0311437
0.301015 0.034165 0.034165
0.332525 0.0371557 0.0371557
0.364126 0.0401007 0.0401007
0.395865 0.0429541 0.0429541
0.426642 0.0458076 0.0458076
0.456687 0.0486305 0.0486305
0.486213 0.0514839 0.0514839
0.514656 0.0542916 0.0542916
0.54255 0.0570535 0.0570535
0.570428 0.0598611 0.0598611
0.598016 0.0626993 0.0626993
0.625437 0.0655222 0.0655222
0.652491 0.0683146 0.0683146
0.678462 0.0710765 0.0710765
0.703655 0.0739147 0.0739147
0.727962 0.0766918 0.0766918
0.751034 0.0795605 0.0795605
0.772717 0.0823529 0.0823529
0.79353 0.0851453 0.0851453
0.813413 0.0879225 0.0879225
0.832151 0.0906691 0.0906691
0.84979 0.0933852 0.0933852
0 0 0
0 0 0
0.0252842 0.00471504 0.00471504
0.0542763 0.00886549 0.00886549
0.0838636 0.0124361 0.0124361
0.114427 0.0157321 0.0157321
0.145235 0.0187839 0.0187839
0.175692 0.022034 0.022034
0.206561 0.0251774 0.0251774
0.237797 0.0281834 0.0281834
0.269398 0.0311589 0.0311589
0.301167 0.0341802 0.0341802
0.332815 0.037171 0.037171
0.364416 0.0401312 0.0401312
0.396002 0.0429694 0.0429694
0.42707 0.0458534 0.0458534
0.456962 0.048661 0.048661
0.486213 0.0514839 0.0514839
0.514916 0.0543221 0.0543221
0.542809 0.057084 0.057084
0.570428 0.0598611 0.0598611
0.598276 0.0627298 0.0627298
0.625696 0.0655528 0.0655528
0.652491 0.0683146 0.0683146
0.678584 0.0710918 0.0710918
0.70399 0.0739452 0.0739452
0.728176 0.0767224 0.0767224
0.751141 0.0795758 0.0795758
0.772915 0.0823835 0.0823835
0.793729 0.0851759 0.0851759
0.813413 0.0879225 0.0879225
0.832319 0.0906996 0.0906996
0.849943 0.0934157 0.0934157
0.0135195 0.0261387 0.00941482
0.0134585 0.0260166 0.00936904
0.038941 0.0300603 0.0141451
0.0678264 0.0341039 0.0189212
0.0982376 0.0372168 0.0234989
0.129671 0.0397498 0.0279698
0.161685 0.0425574 0.0326085
0.193851 0.0448005 0.0373693
0.226764 0.0468757 0.0423743
0.260945 0.0488289 0.0476234
0.293492 0.0514687 0.0514687
0.3252 0.0543984 0.0543984
0.357015 0.057435 0.057435
0.388525 0.0604562 0.0604562
0.419547 0.0632334 0.0632334
0.449714 0.06598 0.06598
0.479744 0.0690013 0.0690013
0.508186 0.0716869 0.0716869
0.536278 0.0744793 0.0744793
0.564218 0.0773785 0.0773785
0.591867 0.0801709 0.0801709
0.619043 0.082887 0.082887
0.646235 0.0858473 0.0858473
0.672602 0.0886854 0.0886854
0.69781 0.091371 0.091371
0.722286 0.0941939 0.0941939
0.745937 0.0971237 0.0971237
0.767895 0.099855 0.099855
0.788876 0.102647 0.102647
0.808957 0.105562 0.105562
0.827863 0.108232 0.108232
0.845762 0.110948 0.110948
0.862974 0.113787 0.113787
0.0263523 0.0539712 0.0182193
0.0264744 0.0542306 0.0182956
0.0520485 0.0572824 0.0226444
0.0802167 0.0607614 0.0273136
0.110491 0.0642557 0.0322118
0.141695 0.0669718 0.0370489
0.173266 0.0696117 0.0419776
0.206806 0.071809 0.0473945
0.239872 0.0738384 0.0528573
0.274495 0.0751965 0.058854
0.309285 0.0770581 0.0644694
0.343648 0.0787366 0.0697032
0.377966 0.080293 0.0751965
0.41265 0.0819409 0.0811017
0.443839 0.0845655 0.0844892
0.473442 0.0872969 0.0872969
0.502235 0.0900282 0.0900282
0.530831 0.0930648 0.0930648
0.558358 0.0957656 0.0957656
0.585992 0.0985428 0.0985428
0.613626 0.101472 0.101472
0.640543 0.104295 0.104295
0.666789 0.107042 0.107042
0.692576 0.109895 0.109895
0.717266 0.11284 0.11284
0.740703 0.115587 0.115587
0.763363 0.118441 0.118441
0.784802 0.121386 0.121386
0.804791 0.124071 0.124071
0.823987 0.126879 0.126879
0.842329 0.129778 0.129778
0.859464 0.132418 0.132418
0.875563 0.134997 0.134997
0.0378271 0.0827802 0.0243839
0.0378271 0.0827802 0.0243839
0.0632639 0.0860761 0.0285496
0.0907149 0.0891127 0.0329137
0.119478 0.0924086 0.0374456
0.150271 0.0957504 0.0423133
0.181827 0.0984207 0.0472877
0.214023 0.100755 0.0523537
0.247242 0.103044 0.0578775
0.281956 0.104692 0.0639353
0.316945 0.10605 0.0700542
0.353002 0.107408 0.0766766
0.388891 0.108202 0.0837262
0.424643 0.108782 0.0910048
0.458289 0.110094 0.0968185
0.490806 0.11162 0.102541
0.52224 0.112703 0.108339
0.551965 0.114412 0.113207
0.580652 0.11696 0.11696
0.607874 0.119692 0.119692
0.634958 0.122545 0.122545
0.661707 0.125521 0.125521
0.687404 0.128374 0.128374
0.7122 0.131136 0.131136
0.736126 0.134112 0.134112
0.75877 0.136995 0.136995
0.780392 0.139757 0.139757
0.801083 0.142748 0.142748
0.820325 0.145525 0.145525
0.838605 0.148211 0.148211
0.856046 0.151003 0.151003
0.872618 0.153872 0.153872
0.88806 0.156466 0.156466
0.0488441 0.111818 0.0285801
0.0488441 0.111818 0.0285801
0.0735027 0.115007 0.032517
0.100237 0.118395 0.0367285
0.127535 0.121736 0.0409857
0.156893 0.124926 0.0455634
0.188373 0.127947 0.0505379
0.219806 0.130755 0.0554055
0.252445 0.133059 0.0607004
0.286473 0.135317 0.0662394
0.320912 0.137209 0.0719615
0.355886 0.138552 0.078172
0.391531 0.13994 0.0849622
0.426673 0.14081 0.0918746
0.462394 0.140948 0.0996262
0.497063 0.140749 0.107774
0.531685 0.140841 0.116655
0.564401 0.140841 0.124529
0.595087 0.141909 0.130739
0.62501 0.143648 0.136141
0.654246 0.14493 0.141711
0.681605 0.146899 0.146304
0.707317 0.149722 0.149722
0.731167 0.152514 0.152514
0.753948 0.155383 0.155383
0.776028 0.158404 0.158404
0.796902 0.161273 0.161273
0.816403 0.16405 0.16405
0.834867 0.166857 0.166857
0.852811 0.169802 0.169802
0.869383 0.172473 0.172473
0.885039 0.175128 0.175128
0.899992 0.178058 0.178058
0.0606546 0.140215 0.0323186
0.0607767 0.140475 0.0323491
0.0856641 0.143542 0.0361334
0.110979 0.147127 0.0404517
0.137118 0.150896 0.0447395
0.164874 0.15404 0.049012
0.19501 0.15729 0.0536812
0.226658 0.160418 0.0587167
0.258518 0.163149 0.0635843
0.290944 0.165713 0.0683909
0.32491 0.168124 0.07364
0.358923 0.169909 0.0791638
0.392798 0.17171 0.0849317
0.426947 0.173327 0.0909438
0.461585 0.174411 0.097734
0.495247 0.175067 0.104875
0.528557 0.175082 0.112902
0.562554 0.175082 0.121843
0.596643 0.174304 0.131365
0.630671 0.17322 0.141344
0.665232 0.172091 0.152422
0.695766 0.171786 0.160967
0.722438 0.173404 0.166491
0.747341 0.17557 0.171221
0.770672 0.177569 0.175769
0.792569 0.179751 0.179751
0.812757 0.182773 0.182773
0.831586 0.185565 0.185565
0.849195 0.188388 0.188388
0.866087 0.191135 0.191135
0.882353 0.194171 0.194171
0.897215 0.196796 0.196796
0.911147 0.199374 0.199374
0.0738842 0.168093 0.0352026
0.0739452 0.168231 0.0352178
0.0979171 0.172122 0.0393683
0.122011 0.176272 0.0441291
0.147311 0.179767 0.0485847
0.174716 0.1832 0.0528267
0.203052 0.186374 0.057084
0.23328 0.189715 0.0618143
0.265019 0.193042 0.0666056
0.297246 0.195789 0.0713512
0.329976 0.198459 0.0762036
0.363607 0.201038 0.0813306
0.396536 0.203159 0.0865187
0.429862 0.205005 0.0919356
0.463111 0.206485 0.0978714
0.495674 0.20798 0.104005
0.527306 0.20914 0.110414
0.558862 0.209995 0.117296
0.591089 0.210727 0.124834
0.623621 0.210697 0.133135
0.656947 0.209781 0.142809
0.689479 0.209186 0.153109
0.721935 0.207065 0.165255
0.753552 0.20441 0.178408
0.782834 0.202533 0.190936
0.808347 0.201541 0.200824
0.827588 0.204395 0.203815
0.845792 0.207141 0.206943
0.863096 0.210208 0.210117
0.879194 0.212894 0.212894
0.894377 0.215595 0.215595
0.908858 0.21857 0.21857
0.922118 0.22118 0.22118
0.0876631 0.195727 0.0377508
0.0876631 0.195727 0.0377508
0.110903 0.199878 0.042237
0.134401 0.204913 0.0475624
0.158556 0.209033 0.0523537
0.184604 0.212467 0.0565652
0.212573 0.215717 0.0606241
0.241764 0.218952 0.0650492
0.272206 0.222431 0.0696727
0.304662 0.225589 0.0745708
0.337057 0.228382 0.0793469
0.369421 0.231205 0.0841077
0.401968 0.233738 0.0890211
0.434806 0.236149 0.0942245
0.46685 0.238025 0.0994583
0.498497 0.239963 0.105028
0.529183 0.241764 0.110719
0.559716 0.242985 0.116732
0.590661 0.244144 0.123247
0.622141 0.245258 0.130358
0.653437 0.245594 0.138048
0.684016 0.245823 0.146242
0.714412 0.245792 0.155322
0.743633 0.244938 0.165164
0.771801 0.243824 0.175814
0.799405 0.24242 0.187457
0.825025 0.240604 0.199145
0.850385 0.237217 0.213321
0.873732 0.23389 0.227588
0.891768 0.234653 0.234653
0.906233 0.237385 0.237385
0.919844 0.240177 0.240177
0.932525 0.242939 0.242939
0.102296 0.223148 0.0398108
0.102373 0.22327 0.039826
0.124346 0.227985 0.0449073
0.146548 0.233249 0.0506142
0.170169 0.238392 0.0559548
0.195346 0.242206 0.0604868
0.222202 0.245319 0.0644999
0.250629 0.248661 0.0685435
0.280552 0.252033 0.0729839
0.312001 0.255421 0.0777142
0.344045 0.258793 0.0824292
0.376059 0.261723 0.0870985
0.407843 0.264576 0.0918441
0.439734 0.267353 0.0966964
0.471565 0.269505 0.101701
0.502373 0.271641 0.10692
0.53254 0.27361 0.112261
0.562387 0.275593 0.117769
0.592477 0.277165 0.123568
0.622599 0.278508 0.129717
0.653056 0.279957 0.136355
0.682582 0.280751 0.143374
0.71133 0.281514 0.150881
0.739544 0.282002 0.159014
0.766339 0.282078 0.167636
0.792386 0.281682 0.177096
0.817716 0.280659 0.187564
0.842145 0.278737 0.199557
0.865217 0.276249 0.212421
0.886137 0.274372 0.223957
0.90576 0.272419 0.235889
0.924376 0.269261 0.24921
0.941054 0.266163 0.261997
0.117205 0.250401 0.0417334
0.117357 0.25066 0.0417487
0.137942 0.256168 0.0474098
0.159258 0.262165 0.0535439
0.181765 0.267353 0.0591897
0.20676 0.272099 0.0641947
0.232837 0.275578 0.0684062
0.260227 0.278569 0.0722972
0.28954 0.282002 0.0764019
0.320027 0.285466 0.0809644
0.351263 0.288746 0.0855573
0.383261 0.292302 0.0902571
0.414481 0.295247 0.0948806
0.445655 0.298116 0.0995651
0.476875 0.300862 0.104433
0.507103 0.303166 0.109346
0.536553 0.305409 0.114351
0.56582 0.307393 0.119493
0.595544 0.309758 0.124941
0.625147 0.311543 0.130632
0.654231 0.313054 0.136431
0.683299 0.314809 0.142779
0.711086 0.316014 0.149325
0.738125 0.31696 0.156344
0.764172 0.318135 0.163699
0.788983 0.318608 0.171405
0.812909 0.318929 0.17969
0.835904 0.318685 0.188846
0.857496 0.318166 0.198596
0.878614 0.316457 0.209735
0.899077 0.313985 0.222461
0.918776 0.310536 0.236805
0.936721 0.306645 0.251362
0.132052 0.278264 0.0436561
0.132052 0.278264 0.0436561
0.151308 0.284413 0.0497749
0.172381 0.291035 0.0563821
0.194141 0.296773 0.0623178
0.21799 0.301549 0.0675517
0.2439 0.305699 0.0720989
0.270863 0.309194 0.0762188
0.298787 0.311955 0.0799573
0.328786 0.315709 0.0843366
0.359503 0.319112 0.0888533
0.390433 0.322393 0.0934005
0.421561 0.325963 0.0980545
0.452399 0.328878 0.102693
0.482551 0.331579 0.107317
0.512383 0.3346 0.112093
0.541314 0.336965 0.116869
0.570153 0.339315 0.121767
0.5991 0.341421 0.126864
0.628565 0.343816 0.132326
0.657008 0.345907 0.137682
0.6851 0.34757 0.143465
0.712612 0.34963 0.149493
0.738827 0.350988 0.155779
0.763912 0.352163 0.16231
0.788281 0.353704 0.169177
0.811368 0.354528 0.176349
0.833448 0.354986 0.184131
0.854154 0.355703 0.192081
0.874052 0.355505 0.200702
0.892973 0.355016 0.21001
0.911025 0.353796 0.220188
0.92813 0.352163 0.231205
0.146532 0.306386 0.045594
0.146532 0.306386 0.045594
0.165255 0.313039 0.0522621
0.185595 0.319615 0.0590982
0.207034 0.32607 0.0653697
0.230182 0.331258 0.0708629
0.25536 0.335393 0.0756237
0.2822 0.339513 0.0800488
0.309545 0.34258 0.0838941
0.338125 0.345632 0.0878462
0.368231 0.349248 0.0921798
0.398489 0.352682 0.0966659
0.428748 0.3561 0.101244
0.459205 0.359487 0.105852
0.489006 0.362402 0.110369
0.518029 0.365255 0.114992
0.546578 0.367819 0.119661
0.575372 0.370703 0.124483
0.603891 0.373007 0.129366
0.632563 0.37525 0.134447
0.660868 0.377859 0.139666
0.688365 0.379812 0.145098
0.714977 0.381674 0.150698
0.740993 0.383871 0.156603
0.765408 0.385458 0.162554
0.788861 0.387045 0.168704
0.811704 0.38854 0.175341
0.833082 0.389578 0.182208
0.853101 0.390509 0.189212
0.872526 0.391348 0.196719
0.89073 0.39173 0.204532
0.907973 0.391623 0.212848
0.924117 0.391104 0.221576
0.161044 0.334142 0.0475471
0.16112 0.334264 0.0475624
0.179538 0.341268 0.0544594
0.199023 0.348562 0.0616922
0.219776 0.355032 0.0682231
0.242893 0.360693 0.0740215
0.267506 0.365164 0.0790417
0.293385 0.369131 0.0836042
0.320348 0.373083 0.0877699
0.34818 0.375952 0.0916457
0.376959 0.378897 0.0955978
0.406806 0.382559 0.0999313
0.436515 0.385977 0.104433
0.466102 0.389456 0.108965
0.495842 0.392798 0.11368
0.524239 0.395743 0.118105
0.552239 0.398581 0.122667
0.580392 0.401328 0.127352
0.60885 0.403998 0.132113
0.637156 0.406516 0.136965
0.664958 0.408896 0.142031
0.692027 0.411368 0.147219
0.718196 0.413504 0.152514
0.743267 0.415518 0.157977
0.767529 0.417807 0.163684
0.790722 0.419486 0.169543
0.812665 0.421103 0.175463
0.83386 0.422843 0.181888
0.85333 0.424109 0.188266
0.872129 0.425269 0.194995
0.889906 0.42594 0.201984
0.906706 0.426719 0.209247
0.922301 0.427268 0.216678
0.17615 0.36202 0.0493935
0.17615 0.36202 0.0493935
0.193759 0.36939 0.0565652
0.212711 0.376944 0.0640726
0.233112 0.383597 0.0708476
0.255528 0.389425 0.0769207
0.279484 0.394553 0.0823682
0.304829 0.398901 0.0871443
0.331304 0.402441 0.0914015
0.359136 0.406027 0.0955062
0.386999 0.408789 0.0993362
0.415579 0.411719 0.103334
0.444602 0.415427 0.107668
0.473793 0.41883 0.112245
0.502373 0.422034 0.116732
0.530587 0.425391 0.121263
0.558465 0.428367 0.125765
0.58613 0.43125 0.130312
0.614176 0.434073 0.135027
0.642329 0.436728 0.139879
0.669764 0.439231 0.144762
0.695933 0.441642 0.149615
0.72195 0.444175 0.154803
0.746746 0.446494 0.160113
0.77026 0.448539 0.165469
0.793103 0.450904 0.171054
0.814572 0.452796 0.176638
0.835111 0.454292 0.182513
0.85452 0.456184 0.188571
0.872816 0.457542 0.194766
0.890196 0.458671 0.20119
0.906569 0.459663 0.207843
0.92192 0.460609 0.214679
0.191119 0.389578 0.051194
0.191119 0.389578 0.051194
0.208087 0.39704 0.0586709
0.226902 0.404807 0.066392
0.246708 0.411719 0.0734264
0.268421 0.417853 0.0797894
0.291707 0.422797 0.0853285
0.316945 0.42768 0.0904402
0.342947 0.43151 0.0949111
0.369833 0.434897 0.0991379
0.397482 0.438102 0.103136
0.425162 0.440986 0.106966
0.452781 0.4439 0.110933
0.481544 0.447684 0.115496
0.509819 0.45095 0.119982
0.537118 0.454078 0.124437
0.564782 0.457267 0.128954
0.592462 0.460258 0.133486
0.619928 0.463066 0.138048
0.647517 0.466011 0.142779
0.674571 0.468772 0.14757
0.700633 0.471336 0.152453
0.725795 0.473671 0.157366
0.750393 0.476249 0.162509
0.77348 0.478553 0.167666
0.795621 0.480659 0.17293
0.817121 0.483085 0.178439
0.83714 0.48481 0.183978
0.855985 0.486458 0.189639
0.874144 0.488212 0.19556
0.891188 0.489693 0.201556
0.907118 0.490883 0.207645
0.92224 0.492134 0.214023
0.205844 0.416587 0.0529946
0.205982 0.416831 0.0530098
0.222721 0.424552 0.0607614
0.240772 0.432151 0.0686503
0.26041 0.439384 0.0760052
0.281773 0.445624 0.0825513
0.304692 0.450843 0.0883192
0.329046 0.455512 0.0936141
0.35494 0.459724 0.0983291
0.381323 0.463264 0.102724
0.407965 0.466514 0.106828
0.435218 0.469612 0.11078
0.462074 0.472404 0.114565
0.489235 0.475166 0.118608
0.51725 0.478904 0.123186
0.544274 0.482139 0.127703
0.571435 0.485267 0.132189
0.598871 0.488441 0.136721
0.6262 0.491432 0.141268
0.653147 0.494224 0.145846
0.679652 0.496895 0.15053
0.705623 0.49984 0.155398
0.730343 0.502266 0.16022
0.754238 0.504646 0.165148
0.777157 0.507378 0.170214
0.798917 0.50956 0.175311
0.819867 0.511727 0.180575
0.839658 0.513924 0.185916
0.858183 0.515862 0.191348
0.875837 0.517464 0.196918
0.892622 0.519249 0.202609
0.908293 0.520638 0.208377
0.923049 0.52195 0.214328
0.220569 0.443534 0.0548409
0.220493 0.443412 0.0548257
0.237324 0.451392 0.0627756
0.255024 0.459052 0.0708782
0.274144 0.466133 0.0783398
0.295125 0.472313 0.0850996
0.317922 0.478004 0.0912184
0.341787 0.482826 0.0967269
0.366781 0.48687 0.101579
0.392966 0.490929 0.106218
0.418906 0.494194 0.11046
0.445243 0.497139 0.114473
0.471839 0.50016 0.118349
0.498039 0.502693 0.122133
0.524804 0.505745 0.126375
0.551705 0.509361 0.130953
0.57847 0.512474 0.135439
0.605417 0.515587 0.13994
0.632609 0.518746 0.144518
0.659358 0.521553 0.149096
0.685344 0.524437 0.153704
0.710567 0.527077 0.158389
0.735149 0.529839 0.16321
0.758602 0.532433 0.168063
0.78085 0.534798 0.1729
0.802472 0.537423 0.177951
0.823026 0.539544 0.183017
0.842268 0.541573 0.188128
0.860685 0.543908 0.193454
0.878004 0.545663 0.198779
0.894392 0.547295 0.204196
0.90985 0.549096 0.20972
0.924315 0.550561 0.215366
0.235355 0.469734 0.0566262
0.235355 0.469734 0.0566262
0.251652 0.477241 0.064622
0.269581 0.485206 0.0730144
0.288304 0.492271 0.0806134
0.308858 0.498558 0.087602
0.330907 0.504173 0.093904
0.354604 0.509361 0.0997024
0.379034 0.513619 0.104799
0.40412 0.517372 0.109499
0.429999 0.521035 0.113985
0.455741 0.524208 0.118135
0.481422 0.52694 0.122057
0.507485 0.529824 0.125933
0.532891 0.532387 0.129763
0.558877 0.535439 0.134081
0.585672 0.538979 0.138643
0.612207 0.541955 0.143145
0.638743 0.545037 0.147662
0.665217 0.547982 0.15227
0.691035 0.551156 0.156893
0.715846 0.553964 0.161532
0.739849 0.556558 0.166247
0.763043 0.559319 0.171054
0.784909 0.561822 0.175814
0.80589 0.564126 0.180621
0.826291 0.566629 0.185641
0.845243 0.568841 0.190646
0.863127 0.570871 0.195712
0.88043 0.573144 0.200977
0.896452 0.574853 0.206165
0.911528 0.576471 0.211429
0.925795 0.578347 0.216876
0.250568 0.495064 0.0583505
0.250629 0.495171 0.0583658
0.26659 0.502739 0.0665446
0.283955 0.510491 0.0750134
0.302312 0.517632 0.0828565
0.322576 0.524269 0.090074
0.344228 0.529854 0.0965286
0.367193 0.534936 0.102495
0.391104 0.539544 0.107897
0.415717 0.543435 0.112779
0.440833 0.547112 0.117357
0.466331 0.550561 0.121721
0.491493 0.553552 0.12578
0.516609 0.556191 0.129656
0.541573 0.558862 0.133379
0.566888 0.561685 0.137438
0.592798 0.564752 0.141802
0.619425 0.568322 0.14641
0.645624 0.571405 0.150958
0.671382 0.574304 0.155489
0.696788 0.577386 0.160113
0.721233 0.580423 0.164721
0.744793 0.583062 0.169375
0.767529 0.585733 0.174105
0.789288 0.588495 0.178882
0.809903 0.591043 0.183612
0.829664 0.593301 0.188479
0.848478 0.595758 0.193362
0.866026 0.597787 0.198276
0.88275 0.599832 0.203296
0.898741 0.601892 0.208423
0.913512 0.60354 0.213489
0.927306 0.605249 0.218631
0.265629 0.519905 0.0601358
0.265629 0.519905 0.0601358
0.281926 0.527672 0.0684367
0.298863 0.535317 0.076997
0.316823 0.54258 0.0850385
0.336477 0.549233 0.0924544
0.357855 0.555169 0.0991836
0.380362 0.560433 0.105333
0.403677 0.565118 0.110842
0.427817 0.569558 0.115984
0.452232 0.573236 0.120699
0.477058 0.576547 0.125139
0.501945 0.57998 0.129412
0.526268 0.582834 0.13341
0.550439 0.585351 0.137163
0.575311 0.588129 0.140978
0.600717 0.59089 0.145144
0.626459 0.59411 0.149599
0.65243 0.597436 0.154208
0.677943 0.600549 0.158785
0.702922 0.603601 0.163394
0.726833 0.606577 0.167956
0.750103 0.609369 0.172595
0.772381 0.612085 0.177279
0.793484 0.614633 0.181933
0.813993 0.617502 0.186709
0.833371 0.619821 0.191485
0.851728 0.621973 0.196231
0.869139 0.624475 0.201099
0.885512 0.626459 0.205982
0.901061 0.628336 0.210941
0.915755 0.630518 0.215976
0.929366 0.63212 0.220951
0.281086 0.544244 0.0618143
0.281086 0.544244 0.0618143
0.296559 0.551965 0.070222
0.313619 0.560021 0.0790417
0.331563 0.567391 0.0872206
0.350744 0.574044 0.0947433
0.371557 0.580331 0.101717
0.393469 0.585824 0.108095
0.416251 0.590661 0.113741
0.439521 0.594965 0.119005
0.463828 0.599084 0.123995
0.487892 0.602609 0.128588
0.511818 0.605966 0.132937
0.536233 0.609125 0.137133
0.560021 0.611902 0.141085
0.584237 0.614313 0.144839
0.60885 0.616922 0.148638
0.633982 0.619821 0.15285
0.659541 0.62298 0.157427
0.684703 0.626307 0.162051
0.709239 0.629389 0.16669
0.73254 0.632319 0.171221
0.755398 0.635264 0.17586
0.777279 0.638041 0.180529
0.798123 0.640711 0.185183
0.818036 0.643122 0.189807
0.837324 0.645823 0.194583
0.855283 0.648081 0.199313
0.87219 0.650263 0.204013
0.888441 0.652613 0.208835
0.903716 0.65449 0.213672
0.917998 0.656291 0.218555
0.93135 0.658061 0.223438
0.296086 0.568536 0.0634928
0.296223 0.568765 0.063508
0.311711 0.57673 0.0721599
0.328328 0.584573 0.0809796
0.346151 0.592172 0.0893568
0.365087 0.599023 0.0970321
0.385306 0.605142 0.104112
0.406836 0.61091 0.110735
0.42887 0.615961 0.116594
0.45182 0.620356 0.122042
0.475105 0.62446 0.127123
0.49897 0.628367 0.131991
0.522408 0.631769 0.136477
0.545739 0.634821 0.140749
0.569589 0.637827 0.144854
0.593362 0.640345 0.148669
0.617502 0.642802 0.152438
0.642054 0.645472 0.15639
0.666758 0.648325 0.160662
0.691295 0.651408 0.165286
0.715434 0.654643 0.16994
0.738476 0.657725 0.174533
0.760678 0.660395 0.17911
0.782116 0.66305 0.183734
0.802731 0.665995 0.188418
0.822324 0.668421 0.193011
0.841062 0.670939 0.197696
0.8589 0.673396 0.202396
0.875532 0.675669 0.20708
0.89131 0.677653 0.211765
0.906416 0.679805 0.216556
0.920409 0.681727 0.221317
0.933486 0.68333 0.226108
0.311437 0.593118 0.0652934
0.311437 0.593118 0.0652934
0.326818 0.601205 0.0740215
0.343297 0.609033 0.0829328
0.360601 0.616495 0.0913405
0.379431 0.623636 0.099321
0.399222 0.629892 0.106554
0.42002 0.635508 0.113298
0.441535 0.64062 0.119356
0.464134 0.645365 0.125048
0.486854 0.64947 0.130312
0.509697 0.653193 0.135225
0.532876 0.656916 0.13994
0.555673 0.660044 0.14435
0.578958 0.662974 0.14847
0.602777 0.665812 0.152499
0.62652 0.668223 0.156329
0.650278 0.670604 0.160128
0.674266 0.673213 0.164126
0.698207 0.675975 0.168521
0.721645 0.679118 0.173159
0.744411 0.6822 0.177829
0.766201 0.685008 0.182437
0.787243 0.687663 0.187045
0.807233 0.690333 0.191623
0.826673 0.693049 0.196277
0.845106 0.695354 0.200916
0.862409 0.697581 0.205509
0.878889 0.700053 0.210193
0.894469 0.702022 0.214847
0.909087 0.704036 0.219501
0.922927 0.706111 0.224231
0.935744 0.707729 0.228916
0.326879 0.61735 0.0671397
0.326879 0.61735 0.0671397
0.341878 0.625101 0.0758221
0.358404 0.633249 0.0849622
0.375433 0.640696 0.093492
0.393576 0.647501 0.101488
0.413245 0.654108 0.109041
0.433387 0.659754 0.115892
0.454505 0.664851 0.122118
0.476295 0.669413 0.127947
0.49868 0.673808 0.133425
0.521019 0.677607 0.138521
0.54316 0.681132 0.143282
0.565988 0.684535 0.14789
0.588891 0.687495 0.152132
0.612238 0.690135 0.156237
0.635828 0.692805 0.160235
0.658946 0.695171 0.164019
0.682109 0.697368 0.167834
0.705394 0.699992 0.171923
0.728283 0.702876 0.17644
0.750408 0.705623 0.181079
0.771756 0.708446 0.185702
0.792523 0.711284 0.190356
0.812222 0.713924 0.194965
0.831037 0.716381 0.199542
0.849226 0.718822 0.20415
0.866346 0.721157 0.208789
0.882292 0.723247 0.213321
0.897688 0.725521 0.21799
0.912077 0.727428 0.222614
0.92549 0.729274 0.227192
0.938109 0.731136 0.231846
0.342168 0.641016 0.0688945
0.342306 0.64123 0.0689097
0.357336 0.64889 0.0777295
0.373098 0.656825 0.0868544
0.390066 0.664378 0.0955673
0.408148 0.671214 0.103731
0.426886 0.677409 0.111315
0.44654 0.683162 0.118349
0.467384 0.688411 0.124788
0.488548 0.692943 0.13077
0.510231 0.697215 0.1364
0.532204 0.701259 0.141695
0.553857 0.704692 0.146593
0.575921 0.707958 0.151247
0.598947 0.71107 0.155749
0.621805 0.713741 0.159945
0.644755 0.716304 0.163973
0.667826 0.718822 0.167956
0.690394 0.72105 0.171771
0.712703 0.723064 0.175555
0.73489 0.725628 0.179736
0.756527 0.728481 0.184375
0.777539 0.731151 0.188998
0.797665 0.733806 0.193606
0.817105 0.736477 0.19826
0.835584 0.738857 0.202853
0.853254 0.741176 0.20737
0.870146 0.743557 0.212024
0.885863 0.745754 0.216571
0.900801 0.747707 0.221134
0.914961 0.749798 0.225711
0.92813 0.751598 0.230243
0.940398 0.753323 0.234791
0.35758 0.664546 0.0706493
0.35758 0.664546 0.0706493
0.372427 0.672328 0.0795911
0.388266 0.680018 0.088838
0.40473 0.687251 0.0975814
0.42237 0.694148 0.105913
0.440818 0.70042 0.11368
0.459998 0.705959 0.120851
0.480079 0.711025 0.127428
0.500908 0.71574 0.133623
0.52195 0.719844 0.139361
0.54316 0.723735 0.144747
0.564492 0.727398 0.149844
0.58645 0.730526 0.154665
0.608713 0.733501 0.159213
0.631556 0.736431 0.163592
0.654002 0.738903 0.167758
0.676417 0.741283 0.171786
0.698833 0.743618 0.175738
0.72047 0.745617 0.179507
0.741405 0.747509 0.183154
0.762509 0.750057 0.187579
0.783185 0.75285 0.192248
0.80293 0.755383 0.196887
