Camo Studio.app/Contents/Frameworks/CocoaLUT.framework/Versions/A/Resources/AlexaV3_K1S1_LogC2Video_TonemapOnly_EE_cube1d_4096.cube
# Alexa conversion LUT, logc2video. Full in/full out.
# created by alexalutconv (2.09)
# 


LUT_1D_SIZE 4096

0.0000000000 0.0000000000 0.0000000000
0.0000890220 0.0000890220 0.0000890220
0.0001790366 0.0001790366 0.0001790366
0.0002680659 0.0002680659 0.0002680659
0.0003580733 0.0003580733 0.0003580733
0.0004471099 0.0004471099 0.0004471099
0.0005371319 0.0005371319 0.0005371319
0.0006271282 0.0006271282 0.0006271282
0.0007161758 0.0007161758 0.0007161758
0.0008061978 0.0008061978 0.0008061978
0.0008962198 0.0008962198 0.0008962198
0.0009862418 0.0009862418 0.0009862418
0.0010762198 0.0010762198 0.0010762198
0.0011662381 0.0011662381 0.0011662381
0.0012562564 0.0012562564 0.0012562564
0.0013463297 0.0013463297 0.0013463297
0.0014363516 0.0014363516 0.0014363516
0.0015263736 0.0015263736 0.0015263736
0.0016173297 0.0016173297 0.0016173297
0.0017073480 0.0017073480 0.0017073480
0.0017974396 0.0017974396 0.0017974396
0.0018883846 0.0018883846 0.0018883846
0.0019784835 0.0019784835 0.0019784835
0.0020694212 0.0020694212 0.0020694212
0.0021595275 0.0021595275 0.0021595275
0.0022504579 0.0022504579 0.0022504579
0.0023405714 0.0023405714 0.0023405714
0.0024315934 0.0024315934 0.0024315934
0.0025226154 0.0025226154 0.0025226154
0.0026135311 0.0026135311 0.0026135311
0.0027045495 0.0027045495 0.0027045495
0.0027955678 0.0027955678 0.0027955678
0.0028865861 0.0028865861 0.0028865861
0.0029776044 0.0029776044 0.0029776044
0.0030687473 0.0030687473 0.0030687473
0.0031597692 0.0031597692 0.0031597692
0.0032507912 0.0032507912 0.0032507912
0.0033426777 0.0033426777 0.0033426777
0.0034338352 0.0034338352 0.0034338352
0.0035248571 0.0035248571 0.0035248571
0.0036168791 0.0036168791 0.0036168791
0.0037079011 0.0037079011 0.0037079011
0.0037999231 0.0037999231 0.0037999231
0.0038917875 0.0038917875 0.0038917875
0.0039829670 0.0039829670 0.0039829670
0.0040749890 0.0040749890 0.0040749890
0.0041670110 0.0041670110 0.0041670110
0.0042590330 0.0042590330 0.0042590330
0.0043510549 0.0043510549 0.0043510549
0.0044430769 0.0044430769 0.0044430769
0.0045350989 0.0045350989 0.0045350989
0.0046271209 0.0046271209 0.0046271209
0.0047191429 0.0047191429 0.0047191429
0.0048111648 0.0048111648 0.0048111648
0.0049041868 0.0049041868 0.0049041868
0.0049962088 0.0049962088 0.0049962088
0.0050890256 0.0050890256 0.0050890256
0.0051812527 0.0051812527 0.0051812527
0.0052740623 0.0052740623 0.0052740623
0.0053662967 0.0053662967 0.0053662967
0.0054593187 0.0054593187 0.0054593187
0.0055523407 0.0055523407 0.0055523407
0.0056451355 0.0056451355 0.0056451355
0.0057381538 0.0057381538 0.0057381538
0.0058304066 0.0058304066 0.0058304066
0.0059241905 0.0059241905 0.0059241905
0.0060172088 0.0060172088 0.0060172088
0.0061104725 0.0061104725 0.0061104725
0.0062034945 0.0062034945 0.0062034945
0.0062965165 0.0062965165 0.0062965165
0.0063902821 0.0063902821 0.0063902821
0.0064835604 0.0064835604 0.0064835604
0.0065773187 0.0065773187 0.0065773187
0.0066706044 0.0066706044 0.0066706044
0.0067646264 0.0067646264 0.0067646264
0.0068576484 0.0068576484 0.0068576484
0.0069516703 0.0069516703 0.0069516703
0.0070456923 0.0070456923 0.0070456923
0.0071397143 0.0071397143 0.0071397143
0.0072337363 0.0072337363 0.0072337363
0.0073277582 0.0073277582 0.0073277582
0.0074217802 0.0074217802 0.0074217802
0.0075158022 0.0075158022 0.0075158022
0.0076098242 0.0076098242 0.0076098242
0.0077048462 0.0077048462 0.0077048462
0.0077988681 0.0077988681 0.0077988681
0.0078928901 0.0078928901 0.0078928901
0.0079879121 0.0079879121 0.0079879121
0.0080829341 0.0080829341 0.0080829341
0.0081769560 0.0081769560 0.0081769560
0.0082719780 0.0082719780 0.0082719780
0.0083670000 0.0083670000 0.0083670000
0.0084620220 0.0084620220 0.0084620220
0.0085570440 0.0085570440 0.0085570440
0.0086520659 0.0086520659 0.0086520659
0.0087470879 0.0087470879 0.0087470879
0.0088421099 0.0088421099 0.0088421099
0.0089371319 0.0089371319 0.0089371319
0.0090321538 0.0090321538 0.0090321538
0.0091281758 0.0091281758 0.0091281758
0.0092231978 0.0092231978 0.0092231978
0.0093192198 0.0093192198 0.0093192198
0.0094142418 0.0094142418 0.0094142418
0.0095102637 0.0095102637 0.0095102637
0.0096062857 0.0096062857 0.0096062857
0.0097023077 0.0097023077 0.0097023077
0.0097983297 0.0097983297 0.0097983297
0.0098943516 0.0098943516 0.0098943516
0.0099903736 0.0099903736 0.0099903736
0.0100863956 0.0100863956 0.0100863956
0.0101824176 0.0101824176 0.0101824176
0.0102784396 0.0102784396 0.0102784396
0.0103754615 0.0103754615 0.0103754615
0.0104714835 0.0104714835 0.0104714835
0.0105685055 0.0105685055 0.0105685055
0.0106645275 0.0106645275 0.0106645275
0.0107615495 0.0107615495 0.0107615495
0.0108585714 0.0108585714 0.0108585714
0.0109555934 0.0109555934 0.0109555934
0.0110526154 0.0110526154 0.0110526154
0.0111496374 0.0111496374 0.0111496374
0.0112466593 0.0112466593 0.0112466593
0.0113436813 0.0113436813 0.0113436813
0.0114407033 0.0114407033 0.0114407033
0.0115377253 0.0115377253 0.0115377253
0.0116357473 0.0116357473 0.0116357473
0.0117327692 0.0117327692 0.0117327692
0.0118307912 0.0118307912 0.0118307912
0.0119282821 0.0119282821 0.0119282821
0.0120258352 0.0120258352 0.0120258352
0.0121238571 0.0121238571 0.0121238571
0.0122218791 0.0122218791 0.0122218791
0.0123199011 0.0123199011 0.0123199011
0.0124179231 0.0124179231 0.0124179231
0.0125159451 0.0125159451 0.0125159451
0.0126139670 0.0126139670 0.0126139670
0.0127129890 0.0127129890 0.0127129890
0.0128110110 0.0128110110 0.0128110110
0.0129095385 0.0129095385 0.0129095385
0.0130080549 0.0130080549 0.0130080549
0.0131070769 0.0131070769 0.0131070769
0.0132050989 0.0132050989 0.0132050989
0.0133041209 0.0133041209 0.0133041209
0.0134031429 0.0134031429 0.0134031429
0.0135021648 0.0135021648 0.0135021648
0.0136011868 0.0136011868 0.0136011868
0.0137002088 0.0137002088 0.0137002088
0.0137997692 0.0137997692 0.0137997692
0.0138992527 0.0138992527 0.0138992527
0.0139982747 0.0139982747 0.0139982747
0.0140982967 0.0140982967 0.0140982967
0.0141973187 0.0141973187 0.0141973187
0.0142973407 0.0142973407 0.0142973407
0.0143973626 0.0143973626 0.0143973626
0.0144973846 0.0144973846 0.0144973846
0.0145969744 0.0145969744 0.0145969744
0.0146970000 0.0146970000 0.0146970000
0.0147974505 0.0147974505 0.0147974505
0.0148974725 0.0148974725 0.0148974725
0.0149974945 0.0149974945 0.0149974945
0.0150981026 0.0150981026 0.0150981026
0.0151985385 0.0151985385 0.0151985385
0.0152991538 0.0152991538 0.0152991538
0.0153995824 0.0153995824 0.0153995824
0.0155006044 0.0155006044 0.0155006044
0.0156016264 0.0156016264 0.0156016264
0.0157026484 0.0157026484 0.0157026484
0.0158036703 0.0158036703 0.0158036703
0.0159046923 0.0159046923 0.0159046923
0.0160057143 0.0160057143 0.0160057143
0.0161073590 0.0161073590 0.0161073590
0.0162087582 0.0162087582 0.0162087582
0.0163097802 0.0163097802 0.0163097802
0.0164118022 0.0164118022 0.0164118022
0.0165134615 0.0165134615 0.0165134615
0.0166148462 0.0166148462 0.0166148462
0.0167168681 0.0167168681 0.0167168681
0.0168188901 0.0168188901 0.0168188901
0.0169209121 0.0169209121 0.0169209121
0.0170229341 0.0170229341 0.0170229341
0.0171256154 0.0171256154 0.0171256154
0.0172279780 0.0172279780 0.0172279780
0.0173300000 0.0173300000 0.0173300000
0.0174330220 0.0174330220 0.0174330220
0.0175357179 0.0175357179 0.0175357179
0.0176380659 0.0176380659 0.0176380659
0.0177410879 0.0177410879 0.0177410879
0.0178441099 0.0178441099 0.0178441099
0.0179471319 0.0179471319 0.0179471319
0.0180501538 0.0180501538 0.0180501538
0.0181531758 0.0181531758 0.0181531758
0.0182568974 0.0182568974 0.0182568974
0.0183599231 0.0183599231 0.0183599231
0.0184632418 0.0184632418 0.0184632418
0.0185672637 0.0185672637 0.0185672637
0.0186710000 0.0186710000 0.0186710000
0.0187750256 0.0187750256 0.0187750256
0.0188783297 0.0188783297 0.0188783297
0.0189823516 0.0189823516 0.0189823516
0.0190863736 0.0190863736 0.0190863736
0.0191911282 0.0191911282 0.0191911282
0.0192951538 0.0192951538 0.0192951538
0.0193994396 0.0193994396 0.0193994396
0.0195042051 0.0195042051 0.0195042051
0.0196084835 0.0196084835 0.0196084835
0.0197135055 0.0197135055 0.0197135055
0.0198182821 0.0198182821 0.0198182821
0.0199233077 0.0199233077 0.0199233077
0.0200283333 0.0200283333 0.0200283333
0.0201333590 0.0201333590 0.0201333590
0.0202383846 0.0202383846 0.0202383846
0.0203436374 0.0203436374 0.0203436374
0.0204494359 0.0204494359 0.0204494359
0.0205546813 0.0205546813 0.0205546813
0.0206604872 0.0206604872 0.0206604872
0.0207665128 0.0207665128 0.0207665128
0.0208717473 0.0208717473 0.0208717473
0.0209777692 0.0209777692 0.0209777692
0.0210837912 0.0210837912 0.0210837912
0.0211898132 0.0211898132 0.0211898132
0.0212966410 0.0212966410 0.0212966410
0.0214026667 0.0214026667 0.0214026667
0.0215088791 0.0215088791 0.0215088791
0.0216157179 0.0216157179 0.0216157179
0.0217227436 0.0217227436 0.0217227436
0.0218289451 0.0218289451 0.0218289451
0.0219359670 0.0219359670 0.0219359670
0.0220429890 0.0220429890 0.0220429890
0.0221500110 0.0221500110 0.0221500110
0.0222578718 0.0222578718 0.0222578718
0.0223648974 0.0223648974 0.0223648974
0.0224720769 0.0224720769 0.0224720769
0.0225799487 0.0225799487 0.0225799487
0.0226871209 0.0226871209 0.0226871209
0.0227950000 0.0227950000 0.0227950000
0.0229030256 0.0229030256 0.0229030256
0.0230110513 0.0230110513 0.0230110513
0.0231190769 0.0231190769 0.0231190769
0.0232271026 0.0232271026 0.0232271026
0.0233352527 0.0233352527 0.0233352527
0.0234441538 0.0234441538 0.0234441538
0.0235522967 0.0235522967 0.0235522967
0.0236612051 0.0236612051 0.0236612051
0.0237702308 0.0237702308 0.0237702308
0.0238792564 0.0238792564 0.0238792564
0.0239873846 0.0239873846 0.0239873846
0.0240973077 0.0240973077 0.0240973077
0.0242063333 0.0242063333 0.0242063333
0.0243153590 0.0243153590 0.0243153590
0.0244244725 0.0244244725 0.0244244725
0.0245344103 0.0245344103 0.0245344103
0.0246444359 0.0246444359 0.0246444359
0.0247534615 0.0247534615 0.0247534615
0.0248634872 0.0248634872 0.0248634872
0.0249735128 0.0249735128 0.0249735128
0.0250835385 0.0250835385 0.0250835385
0.0251935641 0.0251935641 0.0251935641
0.0253045897 0.0253045897 0.0253045897
0.0254146154 0.0254146154 0.0254146154
0.0255256410 0.0255256410 0.0255256410
0.0256356667 0.0256356667 0.0256356667
0.0257466923 0.0257466923 0.0257466923
0.0258577179 0.0258577179 0.0258577179
0.0259687436 0.0259687436 0.0259687436
0.0260797692 0.0260797692 0.0260797692
0.0261907949 0.0261907949 0.0261907949
0.0263028205 0.0263028205 0.0263028205
0.0264138462 0.0264138462 0.0264138462
0.0265258718 0.0265258718 0.0265258718
0.0266368974 0.0266368974 0.0266368974
0.0267489231 0.0267489231 0.0267489231
0.0268609487 0.0268609487 0.0268609487
0.0269729744 0.0269729744 0.0269729744
0.0270850000 0.0270850000 0.0270850000
0.0271980256 0.0271980256 0.0271980256
0.0273100513 0.0273100513 0.0273100513
0.0274230769 0.0274230769 0.0274230769
0.0275351026 0.0275351026 0.0275351026
0.0276481282 0.0276481282 0.0276481282
0.0277611538 0.0277611538 0.0277611538
0.0278741795 0.0278741795 0.0278741795
0.0279872051 0.0279872051 0.0279872051
0.0281002308 0.0281002308 0.0281002308
0.0282142564 0.0282142564 0.0282142564
0.0283272821 0.0283272821 0.0283272821
0.0284413077 0.0284413077 0.0284413077
0.0285553333 0.0285553333 0.0285553333
0.0286684103 0.0286684103 0.0286684103
0.0287824396 0.0287824396 0.0287824396
0.0288974103 0.0288974103 0.0288974103
0.0290114359 0.0290114359 0.0290114359
0.0291254615 0.0291254615 0.0291254615
0.0292404872 0.0292404872 0.0292404872
0.0293545128 0.0293545128 0.0293545128
0.0294695385 0.0294695385 0.0294695385
0.0295845641 0.0295845641 0.0295845641
0.0296995897 0.0296995897 0.0296995897
0.0298146154 0.0298146154 0.0298146154
0.0299296410 0.0299296410 0.0299296410
0.0300447619 0.0300447619 0.0300447619
0.0301606923 0.0301606923 0.0301606923
0.0302767179 0.0302767179 0.0302767179
0.0303918498 0.0303918498 0.0303918498
0.0305077692 0.0305077692 0.0305077692
0.0306237949 0.0306237949 0.0306237949
0.0307398205 0.0307398205 0.0307398205
0.0308559670 0.0308559670 0.0308559670
0.0309728718 0.0309728718 0.0309728718
0.0310890256 0.0310890256 0.0310890256
0.0312059231 0.0312059231 0.0312059231
0.0313229487 0.0313229487 0.0313229487
0.0314399744 0.0314399744 0.0314399744
0.0315570000 0.0315570000 0.0315570000
0.0316740256 0.0316740256 0.0316740256
0.0317910513 0.0317910513 0.0317910513
0.0319082308 0.0319082308 0.0319082308
0.0320261026 0.0320261026 0.0320261026
0.0321441282 0.0321441282 0.0321441282
0.0322613187 0.0322613187 0.0322613187
0.0323793480 0.0323793480 0.0323793480
0.0324973773 0.0324973773 0.0324973773
0.0326162308 0.0326162308 0.0326162308
0.0327342564 0.0327342564 0.0327342564
0.0328524652 0.0328524652 0.0328524652
0.0329713077 0.0329713077 0.0329713077
0.0330903333 0.0330903333 0.0330903333
0.0332085531 0.0332085531 0.0332085531
0.0333275824 0.0333275824 0.0333275824
0.0334474103 0.0334474103 0.0334474103
0.0335664359 0.0335664359 0.0335664359
0.0336856703 0.0336856703 0.0336856703
0.0338054872 0.0338054872 0.0338054872
0.0339247289 0.0339247289 0.0339247289
0.0340447582 0.0340447582 0.0340447582
0.0341645641 0.0341645641 0.0341645641
0.0342848168 0.0342848168 0.0342848168
0.0344048462 0.0344048462 0.0344048462
0.0345248755 0.0345248755 0.0345248755
0.0346456667 0.0346456667 0.0346456667
0.0347666923 0.0347666923 0.0347666923
0.0348869634 0.0348869634 0.0348869634
0.0350079927 0.0350079927 0.0350079927
0.0351290220 0.0351290220 0.0351290220
0.0352500513 0.0352500513 0.0352500513
0.0353718205 0.0353718205 0.0353718205
0.0354931099 0.0354931099 0.0354931099
0.0356141392 0.0356141392 0.0356141392
0.0357361685 0.0357361685 0.0357361685
0.0358581978 0.0358581978 0.0358581978
0.0359802271 0.0359802271 0.0359802271
0.0361022564 0.0361022564 0.0361022564
0.0362242857 0.0362242857 0.0362242857
0.0363470256 0.0363470256 0.0363470256
0.0364693443 0.0364693443 0.0364693443
0.0365920769 0.0365920769 0.0365920769
0.0367151026 0.0367151026 0.0367151026
0.0368381282 0.0368381282 0.0368381282
0.0369611538 0.0369611538 0.0369611538
0.0370844908 0.0370844908 0.0370844908
0.0372075201 0.0372075201 0.0372075201
0.0373312308 0.0373312308 0.0373312308
0.0374545788 0.0374545788 0.0374545788
0.0375786081 0.0375786081 0.0375786081
0.0377026374 0.0377026374 0.0377026374
0.0378266667 0.0378266667 0.0378266667
0.0379506960 0.0379506960 0.0379506960
0.0380753846 0.0380753846 0.0380753846
0.0381997546 0.0381997546 0.0381997546
0.0383247839 0.0383247839 0.0383247839
0.0384494615 0.0384494615 0.0384494615
0.0385744872 0.0385744872 0.0385744872
0.0386995128 0.0386995128 0.0386995128
0.0388249011 0.0388249011 0.0388249011
0.0389499304 0.0389499304 0.0389499304
0.0390759597 0.0390759597 0.0390759597
0.0392009890 0.0392009890 0.0392009890
0.0393270183 0.0393270183 0.0393270183
0.0394530476 0.0394530476 0.0394530476
0.0395790769 0.0395790769 0.0395790769
0.0397051062 0.0397051062 0.0397051062
0.0398321355 0.0398321355 0.0398321355
0.0399581648 0.0399581648 0.0399581648
0.0400851941 0.0400851941 0.0400851941
0.0402122234 0.0402122234 0.0402122234
0.0403392527 0.0403392527 0.0403392527
0.0404662821 0.0404662821 0.0404662821
0.0405933114 0.0405933114 0.0405933114
0.0407209231 0.0407209231 0.0407209231
0.0408483700 0.0408483700 0.0408483700
0.0409763993 0.0409763993 0.0409763993
0.0411044286 0.0411044286 0.0411044286
0.0412324579 0.0412324579 0.0412324579
0.0413604872 0.0413604872 0.0413604872
0.0414885165 0.0414885165 0.0414885165
0.0416175458 0.0416175458 0.0416175458
0.0417455751 0.0417455751 0.0417455751
0.0418746044 0.0418746044 0.0418746044
0.0420036337 0.0420036337 0.0420036337
0.0421326630 0.0421326630 0.0421326630
0.0422616923 0.0422616923 0.0422616923
0.0423911868 0.0423911868 0.0423911868
0.0425207509 0.0425207509 0.0425207509
0.0426507802 0.0426507802 0.0426507802
0.0427802857 0.0427802857 0.0427802857
0.0429103187 0.0429103187 0.0429103187
0.0430408681 0.0430408681 0.0430408681
0.0431708974 0.0431708974 0.0431708974
0.0433009267 0.0433009267 0.0433009267
0.0434319560 0.0434319560 0.0434319560
0.0435629853 0.0435629853 0.0435629853
0.0436935165 0.0436935165 0.0436935165
0.0438250440 0.0438250440 0.0438250440
0.0439560733 0.0439560733 0.0439560733
0.0440871026 0.0440871026 0.0440871026
0.0442191319 0.0442191319 0.0442191319
0.0443506813 0.0443506813 0.0443506813
0.0444821905 0.0444821905 0.0444821905
0.0446142198 0.0446142198 0.0446142198
0.0447462491 0.0447462491 0.0447462491
0.0448792784 0.0448792784 0.0448792784
0.0450113077 0.0450113077 0.0450113077
0.0451443370 0.0451443370 0.0451443370
0.0452769121 0.0452769121 0.0452769121
0.0454099451 0.0454099451 0.0454099451
0.0455429780 0.0455429780 0.0455429780
0.0456764542 0.0456764542 0.0456764542
0.0458094835 0.0458094835 0.0458094835
0.0459435128 0.0459435128 0.0459435128
0.0460771099 0.0460771099 0.0460771099
0.0462105714 0.0462105714 0.0462105714
0.0463446007 0.0463446007 0.0463446007
0.0464792088 0.0464792088 0.0464792088
0.0466136593 0.0466136593 0.0466136593
0.0467482747 0.0467482747 0.0467482747
0.0468827179 0.0468827179 0.0468827179
0.0470177473 0.0470177473 0.0470177473
0.0471527766 0.0471527766 0.0471527766
0.0472878059 0.0472878059 0.0472878059
0.0474234396 0.0474234396 0.0474234396
0.0475588645 0.0475588645 0.0475588645
0.0476945055 0.0476945055 0.0476945055
0.0478305385 0.0478305385 0.0478305385
0.0479659524 0.0479659524 0.0479659524
0.0481026044 0.0481026044 0.0481026044
0.0482386374 0.0482386374 0.0482386374
0.0483750403 0.0483750403 0.0483750403
0.0485117033 0.0485117033 0.0485117033
0.0486487363 0.0486487363 0.0486487363
0.0487857692 0.0487857692 0.0487857692
0.0489228022 0.0489228022 0.0489228022
0.0490601868 0.0490601868 0.0490601868
0.0491978681 0.0491978681 0.0491978681
0.0493352454 0.0493352454 0.0493352454
0.0494729341 0.0494729341 0.0494729341
0.0496109670 0.0496109670 0.0496109670
0.0497490000 0.0497490000 0.0497490000
0.0498873626 0.0498873626 0.0498873626
0.0500260659 0.0500260659 0.0500260659
0.0501644212 0.0501644212 0.0501644212
0.0503031319 0.0503031319 0.0503031319
0.0504421648 0.0504421648 0.0504421648
0.0505811978 0.0505811978 0.0505811978
0.0507205385 0.0507205385 0.0507205385
0.0508602637 0.0508602637 0.0508602637
0.0510002967 0.0510002967 0.0510002967
0.0511396264 0.0511396264 0.0511396264
0.0512793626 0.0512793626 0.0512793626
0.0514196850 0.0514196850 0.0514196850
0.0515604286 0.0515604286 0.0515604286
0.0517004615 0.0517004615 0.0517004615
0.0518414945 0.0518414945 0.0518414945
0.0519825275 0.0519825275 0.0519825275
0.0521228315 0.0521228315 0.0521228315
0.0522645934 0.0522645934 0.0522645934
0.0524056264 0.0524056264 0.0524056264
0.0525469194 0.0525469194 0.0525469194
0.0526886923 0.0526886923 0.0526886923
0.0528307253 0.0528307253 0.0528307253
0.0529727582 0.0529727582 0.0529727582
0.0531147912 0.0531147912 0.0531147912
0.0532568242 0.0532568242 0.0532568242
0.0533998571 0.0533998571 0.0533998571
0.0535428901 0.0535428901 0.0535428901
0.0536851538 0.0536851538 0.0536851538
0.0538281832 0.0538281832 0.0538281832
0.0539719890 0.0539719890 0.0539719890
0.0541150220 0.0541150220 0.0541150220
0.0542590549 0.0542590549 0.0542590549
0.0544020879 0.0544020879 0.0544020879
0.0545461209 0.0545461209 0.0545461209
0.0546901538 0.0546901538 0.0546901538
0.0548351868 0.0548351868 0.0548351868
0.0549792198 0.0549792198 0.0549792198
0.0551242527 0.0551242527 0.0551242527
0.0552682857 0.0552682857 0.0552682857
0.0554133187 0.0554133187 0.0554133187
0.0555583516 0.0555583516 0.0555583516
0.0557043846 0.0557043846 0.0557043846
0.0558494176 0.0558494176 0.0558494176
0.0559954505 0.0559954505 0.0559954505
0.0561414835 0.0561414835 0.0561414835
0.0562875165 0.0562875165 0.0562875165
0.0564335495 0.0564335495 0.0564335495
0.0565795824 0.0565795824 0.0565795824
0.0567266154 0.0567266154 0.0567266154
0.0568734982 0.0568734982 0.0568734982
0.0570196813 0.0570196813 0.0570196813
0.0571675714 0.0571675714 0.0571675714
0.0573147473 0.0573147473 0.0573147473
0.0574617802 0.0574617802 0.0574617802
0.0576098132 0.0576098132 0.0576098132
0.0577577179 0.0577577179 0.0577577179
0.0579057546 0.0579057546 0.0579057546
0.0580539121 0.0580539121 0.0580539121
0.0582019451 0.0582019451 0.0582019451
0.0583508645 0.0583508645 0.0583508645
0.0584990110 0.0584990110 0.0584990110
0.0586480440 0.0586480440 0.0586480440
0.0587970769 0.0587970769 0.0587970769
0.0589470110 0.0589470110 0.0589470110
0.0590961429 0.0590961429 0.0590961429
0.0592460842 0.0592460842 0.0592460842
0.0593961209 0.0593961209 0.0593961209
0.0595461575 0.0595461575 0.0595461575
0.0596961941 0.0596961941 0.0596961941
0.0598463077 0.0598463077 0.0598463077
0.0599972674 0.0599972674 0.0599972674
0.0601473736 0.0601473736 0.0601473736
0.0602984066 0.0602984066 0.0602984066
0.0604494396 0.0604494396 0.0604494396
0.0606014139 0.0606014139 0.0606014139
0.0607525055 0.0607525055 0.0607525055
0.0609044872 0.0609044872 0.0609044872
0.0610565238 0.0610565238 0.0610565238
0.0612085604 0.0612085604 0.0612085604
0.0613605971 0.0613605971 0.0613605971
0.0615126703 0.0615126703 0.0615126703
0.0616656703 0.0616656703 0.0616656703
0.0618187070 0.0618187070 0.0618187070
0.0619717436 0.0619717436 0.0619717436
0.0621247802 0.0621247802 0.0621247802
0.0622778168 0.0622778168 0.0622778168
0.0624318535 0.0624318535 0.0624318535
0.0625849011 0.0625849011 0.0625849011
0.0627389341 0.0627389341 0.0627389341
0.0628929670 0.0628929670 0.0628929670
0.0630480000 0.0630480000 0.0630480000
0.0632020366 0.0632020366 0.0632020366
0.0633570659 0.0633570659 0.0633570659
0.0635111099 0.0635111099 0.0635111099
0.0636671319 0.0636671319 0.0636671319
0.0638221648 0.0638221648 0.0638221648
0.0639772198 0.0639772198 0.0639772198
0.0641332564 0.0641332564 0.0641332564
0.0642892637 0.0642892637 0.0642892637
0.0644452967 0.0644452967 0.0644452967
0.0646013663 0.0646013663 0.0646013663
0.0647574029 0.0647574029 0.0647574029
0.0649144396 0.0649144396 0.0649144396
0.0650704762 0.0650704762 0.0650704762
0.0652275128 0.0652275128 0.0652275128
0.0653854945 0.0653854945 0.0653854945
0.0655425861 0.0655425861 0.0655425861
0.0656996227 0.0656996227 0.0656996227
0.0658576593 0.0658576593 0.0658576593
0.0660156960 0.0660156960 0.0660156960
0.0661737326 0.0661737326 0.0661737326
0.0663326923 0.0663326923 0.0663326923
0.0664908059 0.0664908059 0.0664908059
0.0666498425 0.0666498425 0.0666498425
0.0668088791 0.0668088791 0.0668088791
0.0669679158 0.0669679158 0.0669679158
0.0671269524 0.0671269524 0.0671269524
0.0672869890 0.0672869890 0.0672869890
0.0674460256 0.0674460256 0.0674460256
0.0676060623 0.0676060623 0.0676060623
0.0677660989 0.0677660989 0.0677660989
0.0679261355 0.0679261355 0.0679261355
0.0680871722 0.0680871722 0.0680871722
0.0682482088 0.0682482088 0.0682482088
0.0684083700 0.0684083700 0.0684083700
0.0685702821 0.0685702821 0.0685702821
0.0687313187 0.0687313187 0.0687313187
0.0688923553 0.0688923553 0.0688923553
0.0690543919 0.0690543919 0.0690543919
0.0692164286 0.0692164286 0.0692164286
0.0693784652 0.0693784652 0.0693784652
0.0695405018 0.0695405018 0.0695405018
0.0697035385 0.0697035385 0.0697035385
0.0698655751 0.0698655751 0.0698655751
0.0700286117 0.0700286117 0.0700286117
0.0701916484 0.0701916484 0.0701916484
0.0703548535 0.0703548535 0.0703548535
0.0705187216 0.0705187216 0.0705187216
0.0706827582 0.0706827582 0.0706827582
0.0708459744 0.0708459744 0.0708459744
0.0710108315 0.0710108315 0.0710108315
0.0711748681 0.0711748681 0.0711748681
0.0713390952 0.0713390952 0.0713390952
0.0715039414 0.0715039414 0.0715039414
0.0716689780 0.0716689780 0.0716689780
0.0718340147 0.0718340147 0.0718340147
0.0719992564 0.0719992564 0.0719992564
0.0721650879 0.0721650879 0.0721650879
0.0723303370 0.0723303370 0.0723303370
0.0724963773 0.0724963773 0.0724963773
0.0726624176 0.0726624176 0.0726624176
0.0728292344 0.0728292344 0.0728292344
0.0729954982 0.0729954982 0.0729954982
0.0731623077 0.0731623077 0.0731623077
0.0733293443 0.0733293443 0.0733293443
0.0734966190 0.0734966190 0.0734966190
